/* XPM */
static const char *apple_desktop[] = {
"768 512 2 1",
"0 c #FFFFFF",
"1 c #000000",
"111111111111111111111111111111111111111111111111111111111111111111111111111111111111111111111111111111111111111111111111111111111111111111111111111111111111111111111111111111111111111111111111111111111111111111111111111111111111111111111111111111111111111111111111111111111111111111111111111111111111111111111111111111111111111111111111111111111111111111111111111111111111111111111111111111111111111111111111111111111111111111111111111111111111111111111111111111111111111111111111111111111111111111111111111111111111111111111111111111111111111111111111111111111111111111111111111111111111111111111111111111111111111111111111111111111111111111111111111111111111111111111111111111111111111111111111111111111111111111111111111111111111111111111111111111111111111111111111",
"111111111111111111111111111111111111111111111111111111111111111111111111111111111111111111111111111111111111111111111111111111111111111111111111111111111111111111111111111111111111111111111111111111111111111111111111111111111111111111111111111111111111111111111111111111111111111111111111111111111111111111111111111111111111111111111111111111111111111111111111111111111111111111111111111111111111111111111111111111111111111111111111111111111111111111111111111111111111111111111111111111111111111111111111111111111111111111111111111111111111111111111111111111111111111111111111111111111111111111111111111111111111111111111111111111111111111111111111111111111111111111111111111111111111111111111111111111111111111111111111111111111111111111111111111111111111111111111111",
"110000000000000000000000000000000000000000000000000000000000000000000000000000000000000000000000000000000000000000000000000000000000000000000000000000000000000000000000000000000000000000000000000000000000000000000000000000000000000000000000000000000000000000000000000000000000000000000000000000000000000000000000000000000000000000000000000000000000000000000000000000000000000000000000000000000000000000000000000000000000000000000000000000000000000000000000000000000000000000000000000000000000000000000000000000000000000000000000000000000000000000000000000000000000000000000000000000000000000000000000000000000000000000000000000000000000000000000000000000000000000000000000000000000000000000000000000000000000000000000000000000000000000000000000000000000000000000000011",
"110000000000000000000000000000000000000000000000000000000000000000000000000000000000000000000000000000000000000000000000000000000000000000000000000000000000000000000000000000000000000000000000000000000000000000000000000000000000000000000000000000000000000000000000000000000000000000000000000000000000000000000000000000000000000000000000000000000000000000000000000000000000000000000000000000000000000000000000000000000000000000000000000000000000000000000000000000000000000000000000000000000000000000000000000000000000000000000000000000000000000000000000000000000000000000000000000000000000000000000000000000000000000000000000000000000000000000000000000000000000000000000000000000000000000000000000000000000000000000000000000000000000000000000000000000000000000000000011",
"110000000000000000000000000000000000000000000000000000000000000000000000000000000000000000000000000000000000000000000000000000000000000000000000000000000000000000000000000000000000000000000000000000000000000000000000000000000000000000000000000000000000000000000000000000000000000000000000000000000000000000000000000000000000000000000000000000000000000000000000000000000000000000000000000000000000000000000000000000000000000000000000000000000000000000000000000000000000000000000000000000000000000000000000000000000000000000000000000000000000000000000000000000000000000000000000000000000000000000000000000000000000000000000000000000000000000000000000000000000000000000000000000000000000000000000000000000000000000000000000000000000000000000111111111111111000000000000011",
"110000000000000000000000000000000000000000000000000000000000000000000000000000000000000000000000000000000000000000000000000000000000000000000000000000000000000000000000000000000000000000000000000000000000000000000000000000000000000000000000000000000000000000000000000000000000000000000000000000000000000000000000000000000000000000000000000000000000000000000000000000000000000000000000000000000000000000000000000000000000000000000000000000000000000000000000000000000000000000000000000000000000000000000000000000000000000000000000000000000000000000000000000000000000000000000000000000000000000000000000000000000000000000000000000000000000000000000000000000000000000000000000000000000000000000000000000000000000000000000000000000000000000000100000000000001100000000000011",
"110000000000000000001111111111100000000000000000000000000000000000000000000000000000000000000000000000000000000000000000000000000000000000000000000000000000000000000000000000000000000000000000000000000000000000000000000000000000000000000000000000000000000000000000000000000000000000000000000000000000000000000000000000000000000000000000000000000000000000000000000000000000000000000000000000000000000000000000000000000000000000000000000000000000000000000000000000000000000000000000000000000000000000000000000000000000000000000000000000000000000000000000000000000000000000000000000000000000000000000000000000000000000000000000000000000000000000000000000000000000000000000000000000000000000000000000000000000000000000000000000000000000000001000000000000000110000000000011",
"110000000000000000011101111111110000000000000000000000000000000000000000000000000000000000000000000000000000000000000000000000000000000000000000000000000000000000000000000000000000000000000000000000000000000000000000000000000000000000000000000000000000000000000000000000000000000000000000000000000000000000000000000000000000000000000000000000000000000000000000000000000000000000000000000000000000000000000000000000000000000000000000000000000000000000000000000000000000000000000000000000000000000000000000000000000000000000000000000000000000000000000000000000000000000000000000000000000000000000000000000000000000000000000000000000000000000000000000000000000000000000000000000000000000000000000000000000000000000000000000000000000000000001000000111100000110000000000011",
"110000000000000000111001111111111000000000000000000000001111100000000000000000000011000000000000000000000000011111110011000110000000000000000000000000000001111110000001100001000000000000000000000000000011000110001100000000000000000000000000000000000000000001111000000000000000000000000000000100000000000011000000000000000000000000000000000000000000000000000000000000000000000000000000000000000000000000000000000000000000000000000000000000000000000000000000000000000000000000000000000000000000000000000000000000000000000000000000000000000000000000000000000000000000000000000000000000000000000000000000000000000000000000000000000000000000000000000000000000000000000000000000000000000000000000000000000000000000000000000000000000000000000001000011100110000110000000000011",
"110000000000000001111001111111111100000000000000000000001111100000000000000000000011100000000000000000000000011111110011000110000000000000000000000000000011111110000001100011000111000000000000000000000011000110001100000000000000000000000000000000000000000011111100000000000000000000000000001110000000000011000000000000000000000000000000000000000000000000000000000000000000000000000000000000000000000000000000000000000000000000000000000000000000000000000000000000000000000000000000000000000000000000000000000000000000000000000000000000000000000000000000000000000000000000000000000000000000000000000000000000000000000000000000000000000000000000000000000000000000000000100000111100000000011110000000100000000001100001000000100000000000000001000011000111000110000000000011",
"110000000000000011110000111111111100000000000000000000001100110000000000000000000011100000000000000000000000011100000000000110000000000000000000000000000011100000000001100000000111000000000000000000000011000110000000000000000000000000000000000000000000000011001100000000000000000000000000000000000000000011000000000000000000000000000000000000000000000000000000000000000000000000000000000000000000000000000000000000000000000000000000000000000000000000000000000000000000000000000000000000000000000000000000000000000000000000000000000000000000000000000000000000000000000000000000000000000000000000000000000000000000000000000000000000000000000000000000000000000000000001100001111110000000011111000001100000000011110001000000100000000000000001000011000011000110000000000011",
"110000000000000111100000111111111110000000000000000000001100011000000000000000000011100000000000000000000000011100000000000110000000000000000000000000000011100000000001100000000111000000000000000000000011000110000000000000000000000000000000000000000000000011000100000000000000000000000000000000000000000011000000000000000000000000000000000000000000000000000000000000000000000000000000000000000000000000000000000000000000000000000000000000000000000000000000000000000000000000000000000000000000000000000000000000000000000000000000000000000000000000000000000000000000000000000000000000000000000000000000000000000000000000000000000000000000000000000000000000000000000011100001000010000000110001000001100000000011010001100001100000000000000001000000000011000110000000000011",
"110000000000000111000000011111111111000000000000000000001100011000011110000111110011101110000000000000000000011100000111000110000111100000000000000000000011100000001111100111001111100000000000000000000011000110011100011111000110011001100000000000000000000011000000111111000011110000111110011110001111000011000000000000000000000000000000000000000000000000000000000000000000000000000000000000000000000000000000000000000000000000000000000000000000000000000000000000000000000000000000000000000000000000000000000000000000000000000000000000000000000000000000000000000000000000000000000000000000000000000000000000000000000000000000000000000000000000000000000000000000000000100001000010001100000001000110100000000110001001110110100000000000000001000000001110000110000000000011",
"110000000000000100000000000000000001000000000000000000001100011001110111001100000011011000000000000000000000011111000011000110011101110000000000000000000011111100011001100011000111000000000000000000000011000110001100111001100110011001100000000000000000000001111000111001100110011001110111001110011001100011000000000000000000000000000000000000000000000000000000000000000000000000000000000000000000000000000000000000000000000000000000000000000000000000000000000000000000000000000000000000000000000000000000000000000000000000000000000000000000000000000000000000000000000000000000000000000000000000000000000000000000000000000000000000000000000000000000000000000000000000100001000010000100000011000100100000000110001001011110100000000000000001000000011100000110000000000011",
"110000000000000111111111110000000011000000000000000000001100011001111111000111100011110000000000000000000000011100000011000110011111110000000000000000000011100000011001100011000111000000000000000000000011000110001100111111100110011001100000000000000000000000001100111001100111111001110000001110001111100011000000000000000000000000000000000000000000000000000000000000000000000000000000000000000000000000000000000000000000000000000000000000000000000000000000000000000000000000000000000000000000000000000000000000000000000000000000000000000000000000000000000000000000000000000000000000000000000000000000000000000000000000000000000000000000000000000000000000000000000000100001000010000000000100001000100000000111111001001100100000000000000001000000010000000110000000000011",
"110000000000000111111111110000001111000000000000000000001100011001111111000111110011110000000000000000000000011000000011000110011111110000000000000000000011100000011001100011000111000000000000000000000011000110001100111111100110011001100000000000000000000000001100111001100111111001110000001110011001100011000000000000000000000000000000000000000000000000000000000000000000000000000000000000000000000000000000000000000000000000000000000000000000000000000000000000000000000000000000000000000000000000000000000000000000000000000000000000000000000000000000000000000000000000000000000000000000000000000000000000000000000000000000000000000000000000000000000000000000000000100001000010000000001100001111111000000111111001000000100000000000000001000000010000000110000000000011",
"110000000000000011111111111000011110000000000000000000001100011001110000000001110011111000000000000000000000011000000011000110011100000000000000000000000011100000011001100011000111000000000000000000000011101110001100111000000110111111100000000000000000000011001100111001100110000001110010001110011001100011000000000000000000000000000000000000000000000000000000000000000000000000000000000000000000000000000000000000000000000000000000000000000000000000000000000000000000000000000000000000000000000000000000000000000000000000000000000000000000000000000000000000000000000000000000000000000000000000000000000000000000000000000000000000000000000000000000000000000000000000100001000010001100011000000000100000000110001001000000100000000000000001000000000000000110000000000011",
"110000000000000011111111111000011100000000000000000000001100110001110011001100110011111100000000000000000000011000000011000110011101110000000000000000000011100000011001100011000111000000000000000000000001111100001100111001100011111111000000000000000000000011001100111001100110011001110111001110011001100011000000000000000000000000000000000000000000000000000000000000000000000000000000000000000000000000000000000000000000000000000000000000000000000000000000000000000000000000000000000000000000000000000000000000000000000000000000000000000000000000000000000000000000000000000000000000000000000000000000000000000000000000000000000000000000000000000000000000000000000000100001000010001100110000000000100000000110001001000000100000000000000001000000000000000110000000000011",
"110000000000000001111111111000111100000000000000000000001111100000011110000111100011101110000000000000000000011100000011000110000111100000000000000000000011111110001111100011000001100000000000000000000000111000001100001111000001100110000000000000000000000001111000111111000011110000011110001110001111100011000000000000000000000000000000000000000000000000000000000000000000000000000000000000000000000000000000000000000000000000000000000000000000000000000000000000000000000000000000000000000000000000000000000000000000000000000000000000000000000000000000000000000000000000000000000000000000000000000000000000000000000000000000000000000000000000000000000000000000000000100000111100000000111111000000100000000110001001000000100000000000000001000000011000000110000000000011",
"110000000000000000111111111011111000000000000000000000000000000000000000000000000000000000000000000000000000000000000000000000000000000000000000000000000000000000000000000000000000000000000000000000000000000000000000000000000000000000000000000000000000000000000000111000000000000000000000000000000000000000000000000000000000000000000000000000000000000000000000000000000000000000000000000000000000000000000000000000000000000000000000000000000000000000000000000000000000000000000000000000000000000000000000000000000000000000000000000000000000000000000000000000000000000000000000000000000000000000000000000000000000000000000000000000000000000000000000000000000000000000000000000000000000000000000000000000000000000000000000000000000000000001000000011000000110000000000011",
"110000000000000000011111111101110000000000000000000000000000000000000000000000000000000000000000000000000000000000000000000000000000000000000000000000000000000000000000000000000000000000000000000000000000000000000000000000000000000000000000000000000000000000000000111000000000000000000000000000000000000000000000000000000000000000000000000000000000000000000000000000000000000000000000000000000000000000000000000000000000000000000000000000000000000000000000000000000000000000000000000000000000000000000000000000000000000000000000000000000000000000000000000000000000000000000000000000000000000000000000000000000000000000000000000000000000000000000000000000000000000000000000000000000000000000000000000000000000000000000000000000000000000001000000000000000110000000000011",
"110000000000000000001111111101100000000000000000000000000000000000000000000000000000000000000000000000000000000000000000000000000000000000000000000000000000000000000000000000000000000000000000000000000000000000000000000000000000000000000000000000000000000000000000011000000000000000000000000000000000000000000000000000000000000000000000000000000000000000000000000000000000000000000000000000000000000000000000000000000000000000000000000000000000000000000000000000000000000000000000000000000000000000000000000000000000000000000000000000000000000000000000000000000000000000000000000000000000000000000000000000000000000000000000000000000000000000000000000000000000000000000000000000000000000000000000000000000000000000000000000000000000000001111111111111111110000000000011",
"110000000000000000000000000000000000000000000000000000000000000000000000000000000000000000000000000000000000000000000000000000000000000000000000000000000000000000000000000000000000000000000000000000000000000000000000000000000000000000000000000000000000000000000000000000000000000000000000000000000000000000000000000000000000000000000000000000000000000000000000000000000000000000000000000000000000000000000000000000000000000000000000000000000000000000000000000000000000000000000000000000000000000000000000000000000000000000000000000000000000000000000000000000000000000000000000000000000000000000000000000000000000000000000000000000000000000000000000000000000000000000000000000000000000000000000000000000000000000000000000000000000000000000111111111111111100000000000011",
"110000000000000000000000000000000000000000000000000000000000000000000000000000000000000000000000000000000000000000000000000000000000000000000000000000000000000000000000000000000000000000000000000000000000000000000000000000000000000000000000000000000000000000000000000000000000000000000000000000000000000000000000000000000000000000000000000000000000000000000000000000000000000000000000000000000000000000000000000000000000000000000000000000000000000000000000000000000000000000000000000000000000000000000000000000000000000000000000000000000000000000000000000000000000000000000000000000000000000000000000000000000000000000000000000000000000000000000000000000000000000000000000000000000000000000000000000000000000000000000000000000000000000000000000000000000000000000000011",
"110000000000000000000000000000000000000000000000000000000000000000000000000000000000000000000000000000000000000000000000000000000000000000000000000000000000000000000000000000000000000000000000000000000000000000000000000000000000000000000000000000000000000000000000000000000000000000000000000000000000000000000000000000000000000000000000000000000000000000000000000000000000000000000000000000000000000000000000000000000000000000000000000000000000000000000000000000000000000000000000000000000000000000000000000000000000000000000000000000000000000000000000000000000000000000000000000000000000000000000000000000000000000000000000000000000000000000000000000000000000000000000000000000000000000000000000000000000000000000000000000000000000000000000000000000000000000000000011",
"111111111111111111111111111111111111111111111111111111111111111111111111111111111111111111111111111111111111111111111111111111111111111111111111111111111111111111111111111111111111111111111111111111111111111111111111111111111111111111111111111111111111111111111111111111111111111111111111111111111111111111111111111111111111111111111111111111111111111111111111111111111111111111111111111111111111111111111111111111111111111111111111111111111111111111111111111111111111111111111111111111111111111111111111111111111111111111111111111111111111111111111111111111111111111111111111111111111111111111111111111111111111111111111111111111111111111111111111111111111111111111111111111111111111111111111111111111111111111111111111111111111111111111111111111111111111111111111111",
"111111111111111111111111111111111111111111111111111111111111111111111111111111111111111111111111111111111111111111111111111111111111111111111111111111111111111111111111111111111111111111111111111111111111111111111111111111111111111111111111111111111111111111111111111111111111111111111111111111111111111111111111111111111111111111111111111111111111111111111111111111111111111111111111111111111111111111111111111111111111111111111111111111111111111111111111111111111111111111111111111111111111111111111111111111111111111111111111111111111111111111111111111111111111111111111111111111111111111111111111111111111111111111111111111111111111111111111111111111111111111111111111111111111111111111111111111111111111111111111111111111111111111111111111111111111111111111111111",
"110000000000000000000000000000000000000000000000000000000000000000000000000000000000000000000000000000000000000000000000000000000000000000000000000000000000000000000000000000000000000000000000000000000000000000000000000000000000000000000000000000000000000000000000000000000000000000000000000000000000000000000000000000000000000000000000000000000000000000000000000000000000000000000000000000000000000000000000000000000000000000000000000000000000000000000000000000000000000000000000000000000000000000000000000000000000000000000000000000000000000000000000000000000000000000000000000000000000000000000000000000000000000000000000000000000000000000000000000000000000000000000000000000000000000000000000000000000000000000000000000000000000000000000000000000000000000000000011",
"110000000000000000000000000000000000000000000000000000000000000000000000000000000000000000000000000000000000000000000000000000000000000000000000000000000000000000000000000000000000000000000000000000000000000000000000000000000000000000000000000000000000000000000000000000000000000000000000000000000000000000000000000000000000000000000000000000000000000000000000000000000000000000000000000000000000000000000000000000000000000000000000000000000000000000000000000000000000000000000000000000000000000000000000000000000000000000000000000000000000000000000000000000000000000000000000000000000000000000000000000000000000000000000000000000000000000000000000000000000000000000000000000000000000000000000000000000000000000000000000000000000000000000000000000000000000000000000011",
"110000000000000000000000000000000000000000000000000000000000000000000000000000000000000000000000000000000000000000000000000000000000000000000000000000000000000000000000000000000000000000000000000000000000000000000000000000000000000000000000000000000000000000000000000000000000000000000000000000000000000000000000000000000000000000000000000000000000000000000000000000000000000000000000000000000000000000000000000000000000000000000000000000000000000000000000000000000000000000000000000000000000000000000000000000000000000000000000000000000000000000000000000000000000000000000000000000000000000000000000000000000000000000000000000000000000000000000000000000000000000000000000000000000000000000000000000000000000000000000000000000000000000000000000000000000000000000000011",
"110000000000000000000000000000000000000000000000000000000000000000000000000000000000000000000000000000000000000000000000000000000000000000000000000000000000000000000000000000000000000000000000000000000000000000000000000000000000000000000000000000000000000000000000000000000000000000000000000000000000000000000000000000000000000000000000000000000000000000000000000000000000000000000000000000000000000000000000000000000000000000000000000000000000000000000000000000000000000000000000000000000000000000000000000000000000000000000000000000000000000000000000000000000000000000000000000000000000000000000000000000000000000000000000000000000000000000000000000000000000000000000000000000000000000000000000000000000000000000000000000000000000000000000000000000000000000000000011",
"110000000000000000000000000000000000000000000000000000000000000000000000000000000000000000000000000000000000000000000000000000000000000000000000000000000000000000000000000000000000000000000000000000000000000000000000000000000000000000000000000000000000000000000000000000000000000000000000000000000000000000000000000000000000000000000000000000000000000000000000000000000000000000000000000000000000000000000000000000000000000000000000000000000000000000000000000000000000000000000000000000000000000000000000000000000000000000000000000000000000000000000000000000000000000000000000000000000000000000000000000000000000000000000000000000000000000000000000000000000000000000000000000000000000000000000000000000000000000000000000000000000000000000000000000000000000000000000011",
"110000000000000000000000000000000000000000000000000000000000000000000000000000000000000000000000000000000000000000000000000000000000000000000000000000000000000000000000000000000000000000000000000000000000000000000000000000000000000000000000000000000000000000000000000000000000000000000000000000000000000000000000000000000000000000000000000000000000000000000000000000000000000000000000000000000000000000000000000000000000000000000000000000000000000000000000000000000000000000000000000000000000000000000000000000000000000000000000000000000000000000000000000000000000000000000000000000000000000000000000000000000000000000000000000000000000000000000000000000000000000000000000000000000000000000000000000000000000000000000000000000000000000000000000000000000000000000000011",
"110000000000000000000000000000000000000000000000000000000000000000000000000000000000000000000000000000000000000000000000000000000000000000000000000000000000000000000000000000000000000000000000000000000000000000000000000000000000000000000000000000000000000000000000000000000000000000000000000000000000000000000000000000000000000000000000000000000000000000000000000000000000000000000000000000000000000000000000000000000000000000000000000000000000000000000000000000000000000000000000000000000000000000000000000000000000000000000000000000000000000000000000000000000000000000000000000000000000000000000000000000000000000000000000000000000000000000000000000000000000000000000000000000000000000000000000000000000000000000000000000000000000000000000000000000000000000000000011",
"110000000000000000000000000000000000000000000000000000000000000000000000000000000000000000000000000000000000000000000000000000000000000000000000000000000000000000000000000000000000000000000000000000000000000000000000000000000000000000000000000000000000000000000000000000000000000000000000000000000000000000000000000000000000000000000000000000000000000000000000000000000000000000000000000000000000000000000000000000000000000000000000000000000000000000000000000000000000000000000000000000000000000000000000000000000000000000000000000000000000000000000000000000000000000000000000000000000000000000000000000000000000000000000000000000000000000000000000000000000000000000000000000000000000000000000000000000000000000000000000000000000000000000000000000000000000000000000011",
"110000000000000000000000000000000000000000000000000000000000000000000000000000000000000000000000000000000000000000000000000000000000000000000000000000000000000000000000000000000000000000000000000000000000000000000000000000000000000000000000000000000000000000000000000000000000000000000000000000000000000000000000000000000000000000000000000000000000000000000000000000000000000000000000000000000000000000000000000000000000000000000000000000000000000000000000000000000000000000000000000000000000000000000000000000000000000000000000000000000000000000000000000000000000000000000000000000000000000000000000000000000000000000000000000000000000000000000000000000000000000000000000000000000000000000000000000000000000000000000000000000000000000000000000000000000000000000000011",
"110000000000000000000000000000000000000000000000000000000000000000000000000000000000000000000000000000000000000000000000000000000000000000000000000000000000000000000000000000000000000000000000000000000000000000000000000000000000000000000000000000000000000000000000000000000000000000000000000000000000000000000000000000000000000000000000000000000000000000000000000000000000000000000000000000000000000000000000000000000000000000000000000000000000000000000000000000000000000000000000000000000000000000000000000000000000000000000000000000000000000000000000000000000000000000000000000000000000000000000000000000000000000000000000000000000000000000000000000000000000000000000000000000000000000000000000000000000000000000000000000000000000000000000000000000000000000000000011",
"110000000000000000000000000000000000000000000000000000000000000000000000000000000000000000000000000000000000000000000000000000000000000000000000000000000000000000000000000000000000000000000000000000000000000000000000000000000000000000000000000000000000000000000000000000000000000000000000000000000000000000000000000000000000000000000000000000000000000000000000000000000000000000000000000000000000000000000000000000000000000000000000000000000000000000000000000000000000000000000000000000000000000000000000000000000000000000000000000000000000000000000000000000000000000000000000000000000000000000000000000000000000000000000000000000000000000000000000000000000000000000000000000000000000000000000000000000000000000000000000000000000000000000000000000000000000000000000011",
"110000000000000000000000000000000000000000000000000000000000000000000000000000000000000000000000000000111111111111111111111111111111111111111111111111111111111111111111111111111111111111111111111111111111111111111111111111111111111111111111111111111111111111111111111111111111111111111111111111111111111111111111111111111111111111111111111111111111111111111111111111111111111111111111111111111111111111111111111111111111111111111111111111110000000000000000000000000000000000000000000000000000000000000000000000000000000000000000000000000000000000000000000000000000000000000000000000000000000000000000000000000000000000000000000000000000000000000000000000000000000000000000000000000000000000000000000000000000000000000000000000000000000000000000000000000000000000000011",
"110000000000000000000000000000000000000000000000000000000000000000000000000000000000000000000000000000111111111111111111111111111111111111111111111111111111111111111111111111111111111111111111111111111111111111111111111111111111111111111111111111111111111111111111111111111111111111111111111111111111111111111111111111111111111111111111111111111111111111111111111111111111111111111111111111111111111111111111111111111111111111111111111111110000000000000000000000000000000000000000000000000000000000000000000000000000000000000000000000000000000000000000000000000000000000000000000000000000000000000000000000000000000000000000000000000000000000000000000000000000000000000000000000000000000000000000000000000000000000000000000000000000000000000000000000000000000000000011",
"110000000000000000000000000000000000000000000000000000000000000000000000000000000000000000000000000000110000000000000000000000000000000000000000000000000000000000000000000000000000000000000000000000000000000000000000000000000000000000000000000000000000000000000000000000000000000000000000000000000000000000000000000000000000000000000000000000000000000000000000000000000000000000000000000000000000000000000000000000000000000000000000000001110000000000000000000000000000000000000000000000000000000000000000000000000000000000000000000000000000000000000000000000000000000000000000000000000000000000000000000000000000000000000000000000000000000000000000000000000000000000000000000000000000000000000000000000000000000000000000000000000000000000000000000000000000000000000011",
"110000000000000000000000000000000000000000000000000000000000000000000000000000000000000000000000000000110000000000000000000000000000000000000000000000000000000000000000000000000000000000000000000000000000000000000000000000000000000000000000000000000000000000000000000000000000000000000000000000000000000000000000000000000000000000000000000000000000000000000000000000000000000000000000000000000000000000000000000000000000000000000000000001110000000000000000000000000000000000000000000000000000000000000000000000000000000000000000000000000000000000000000000000000000000000000000000000000000000000000000000000000000000000000000000000000000000000000000000000000000000000000000000000000000000000000000000000000000000000000000000000000000000000000000000000000000000000000011",
"110000000000000000000000000000011111111111111111111111111111110000000000000000000000000000000000000000110111111111111111111111111111111111111111111111111111111111111111111111111111111111111111111111111111111111111111110000000000000000000000000000000000000000000000000000000000000000000000000000000000000000000000000000000011111111111111111111111111111111111111111111111111111111111111111111111111111111111111111111111111111111111111111111110000000000000000000000000000000000000000000000000000000000000000000000000000000000000000000000000000000000000000000000000000000000000000000000000000000000000000000000000000000000000000000000000000000000000000000000000000000000000000000000000000000000000000000000000000000000000000000000000000000000000000000000000000000000000011",
"110000000000000000000000000001111111111111111111111111111111111100000000000000000000000000000000000000110001100000000000001100000000000000000000000000000000000000000000000000000000000000000000000000000000000000000000000000000000000000000000000000000000000000000000000000000000000000000000000000000000000000000000000000000000000000000000000000000000000000000000000000000000000000000000000000000000000000000000000000000000000000000000000001110000000000000000000000000000000000000000000000000000000000000000000000000000000000000000000000000000000000000000000000000000000000000000000000000000000000000000000000000000000000000000000000000000000000000000000000000000000000000000000000000000000000000000000000000000000000000000000000000000000000000000000000000000000000000011",
"110000000000000000000000000011100000000000000000000000000000000110000000000000000000000000000000000000110111000000000000001111111111111111111111111111111111111111111111111111111111111111111111111111111111111111111111110000000000000000000000000000000000000000000000000000000000000000000000000000000000000000000000000000000011111111111111111111111111111111111111111111111111111111111111111111111111111111111111111111111111111111111111111111110000000000000000000000000000000000000000000000000000000000000000000000000000000000000000000000000000000000000000000000000000000000000000000000000000000000000000000000000000000000000000000000000000000000000000000000000000000000000000000000000000000000000000000000000000000000000000000000000000000000000000000000000000000000000011",
"110000000000000000000000000111000000000000000000000000000000000111000000000000000000000000000000000000110111000000000000001111111111111111111111111111111111111111111111111111111111111111111111111111111111111111111111110000000000111100000000000000000000011100000000000000000000000000000011111000001110000000000110000000000011111111111111111111111111111111111111111111111111111111111111111111111111111111111111111111111111111111111111111111110000000000000000000000000000000000000000000000000000000000000000000000000000000000000000000000000000000000000000000000000000000000000000000000000000000000000000000000000000000000000000000000000000000000000000000000000000000000000000000000000000000000000000000000000000000000000000000000000000000000000000000000000000000000000011",
"110000000000000000000000000110000000000000000000000000000000000011000000000000000000000000000000000000110000000110000110001100000000000000000000000000000000000000000000000000000000000000000000000000000000000000000000000000000001100110000000000000000000011100000000000000000000000000000011100100001100000000000110000000000000000000000000000000000000000000000000000000000000000000000000000000000000000000000000000000000000000000000000000001110000000000000000000000000000000000000000000000000000000000000000000000000000000000000000000000000000000000000000000000000000000000000000000000000000000000000000000000000000000000000000000000000000000000000000000000000000000000000000000000000000000000000000000000000000000000000000000000000000000000000000000000000000000000000011",
"110000000000000000000000000110000000000000000000000000000000000011000000000000000000000000000000000000110111100011001100001111111111111111111111111111111111111111111111111111111111111111111111111111111111111111111111110000000001100000000000000000000000011100000000000000000000000000000011100110000000000000000110000000000011111111111111111111111111111111111111111111111111111111111111111111111111111111111111111111111111111111111111111111110000000000000000000000000000000000000000000000000000000000000000000000000000000000000000000000000000000000000000000000000000000000000000000000000000000000000000000000000000000000000000000000000000000000000000000000000000000000000000000000000000000000000000000000000000000000000000000000000000000000000000000000000000000000000011",
"110000000000000000000000000110000001111111111111111111111100000011000000000000000000000000000000000000110000000011111000001100000000000000000000000000000000000000000000000000000000000000000000000000000000000000000000000000000001100000011101110001111100111110001111000011110111100000000011100110011110001111100110011000000000000000000000000000000000000000000000000000000000000000000000000000000000000000000000000000000000000000000000000001110000000000000000000000000000000000000000000000000000000000000000000000000000000000000000000000000000000000000000000000000000000000000000000000000000000000000000000000000000000000000000000000000000000000000000000000000000000000000000000000000000000000000000000000000000000000000000000000000000000000000000000000000000000000000011",
"110000000000000000000000000110000001011111111111111111111100000011000000000000000000000000000000000000110111000001111000001111111111111111111111111111111111111111111111111111111111111111111111111111111111111111111111110000000000111100011100110011000000011100011001110011011101110000000011100110001110011000100110110000000011111111111111111111111111111111111111111111111111111111111111111111111111111111111111111111111111111111111111111111110000000000000000000000000000000000000000000000000000000000000000000000000000000000000000000000000000000000000000000000000000000000000000000000000000000000000000000000000000000000000000000000000000000000000000000000000000000000000000000000000000000000000000000000000000000000000000000000000000000000000000000000000000000000000011",
"110000000000000000000000000110000001011111111111111111111100000011000000000000000000000000000000000000110111000011111100001111111111111111111111111111111111111111111111111111111111111111111111111111111111111111111111110000000000111110011100110011001000011100011001110011011101110000000011100110001110011011000111100000000011111111111111111111111111111111111111111111111111111111111111111111111111111111111111111111111111111111111111111111110000000000000000000000000000000000000000000000000000000000000000000000000000000000000000000000000000000000000000000000000000000000000000000000000000000000000000000000000000000000000000000000000000000000000000000000000000000000000000000000000000000000000000000000000000000000000000000000000000000000000000000000000000000000000011",
"110000000000000000000000000110000001000000000000000000000100000011000000000000000000000000000000000000110001000011111100001100000000000000000000000000000000000000000000000000000000000000000000000000000000000000000000000000000000000111011100110001111000011100011111110011011101110000000011100110001110011111000111000000000000000000000000000000000000000000000000000000000000000000000000000000000000000000000000000000000000000000000000000001110000000000000000000000000000000000000000000000000000000000000000000000000000000000000000000000000000000000000000000000000000000000000000000000000000000000000000000000000000000000000000000000000000000000000000000000000000000000000000000000000000000000000000000000000000000000000000000000000000000000000000000000000000000000000011",
"110000000000000000000000000110000001111111111111111111111100000011000000000000000000000000000000000000110111000111001110001111111111111111111111111111111111111111111111111111111111111111111111111111111111111111111111110000000000000111011100110000111100011100011000000011011101110000000011100110001110000011100111100000000011111111111111111111111111111111111111111111111111111111111111111111111111111111111111111111111111111111111111111111110000000000000000000000000000000000000000000000000000000000000000000000000000000000000000000000000000000000000000000000000000000000000000000000000000000000000000000000000000000000000000000000000000000000000000000000000000000000000000000000000000000000000000000000000000000000000000000000000000000000000000000000000000000000000011",
"110000000000000000000000000110000000111111111111111111111000000011000000000000000000000000000000000000110000000110000110001100000000000000000000000000000000000000000000000000000000000000000000000000000000000000000000000000000001100111011100110011001100011100011001110011011101110000000011101100001110111001100110110000000000000000000000000000000000000000000000000000000000000000000000000000000000000000000000000000000000000000000000000001110000000000000000000000000000000000000000000000000000000000000000000000000000000000000000000000000000000000000000000000000000000000000000000000000000000000000000000000000000000000000000000000000000000000000000000000000000000000000000000000000000000000000000000000000000000000000000000000000000000000000000000000000000000000000011",
"110000000000000000000000000110000000000000000000000000000000000011000000000000000000000000000000000000110111100000000000001111111111111111111111111111111111111111111111111111111111111111111111111111111111111111111111110000000000111100001111110011111000001110001111100011011101110000000011111000001110011111000110011000000011111111111111111111111111111111111111111111111111111111111111111111111111111111111111111111111111111111111111111111110000000000000000000000000000000000000000000000000000000000000000000000000000000000000000000000000000000000000000000000000000000000000000000000000000000000000000000000000000000000000000000000000000000000000000000000000000000000000000000000000000000000000000000000000000000000000000000000000000000000000000000000000000000000000011",
"110000000000000000000000000110000000000000000000000000000000000011000000000000000000000000000000000000110011100000000000001100000000000000000000000000000000000000000000000000000000000000000000000000000000000000000000000000000000000000000000110000000000000000000000000000000000000000000000000000000000000000000000000000000000000000000000000000000000000000000000000000000000000000000000000000000000000000000000000000000000000000000000000001110000000000000000000000000000000000000000000000000000000000000000000000000000000000000000000000000000000000000000000000000000000000000000000000000000000000000000000000000000000000000000000000000000000000000000000000000000000000000000000000000000000000000000000000000000000000000000000000000000000000000000000000000000000000000011",
"110000000000000000000000000110000000000000000000000000000000000011000000000000000000000000000000000000110001111111111111111100000000000000000000000000000000000000000000000000000000000000000000000000000000000000000000000000000000000000000001110000000000000000000000000000000000000000000000000000000000000000000000000000000000000000000000000000000000000000000000000000000000000000000000000000000000000000000000000000000000000000000000000001110000000000000000000000000000000000000000000000000000000000000000000000000000000000000000000000000000000000000000000000000000000000000000000000000000000000000000000000000000000000000000000000000000000000000000000000000000000000000000000000000000000000000000000000000000000000000000000000000000000000000000000000000000000000000011",
"110000000000000000000000000110000000000000000000000000000000000011000000000000000000000000000000000000110111111111111111111111111111111111111111111111111111111111111111111111111111111111111111111111111111111111111111110000000000000000001111000000000000000000000000000000000000000000000000000000000000000000000000000000000011111111111111111111111111111111111111111111111111111111111111111111111111111111111111111111111111111111111111111111110000000000000000000000000000000000000000000000000000000000000000000000000000000000000000000000000000000000000000000000000000000000000000000000000000000000000000000000000000000000000000000000000000000000000000000000000000000000000000000000000000000000000000000000000000000000000000000000000000000000000000000000000000000000000011",
"110000000000000000000000000110000000000000000000000000000000000011000000000000000000000000000000000000110000000000000000000000000000000000000000000000000000000000000000000000000000000000000000000000000000000000000000000000000000000000000000000000000000000000000000000000000000000000000000000000000000000000000000000000000000000000000000000000000000000000000000000000000000000000000000000000000000000000000000000000000000000000000000000001110000000000000000000000000000000000000000000000000000000000000000000000000000000000000000000000000000000000000000000000000000000000000000000000000000000000000000000000000000000000000000000000000000000000000000000000000000000000000000000000000000000000000000000000000000000000000000000000000000000000000000000000000000000000000011",
"110000000000000000000000000110000000000000000000000000000000000011000000000000000000000000000000000000110000000000000000000000000000000000000000000000000000000000000000000000000000000000000000000000000000000000000000000000000000000000000000000000000000000000000000000000000000000000000000000000000000000000000000000000000000000000000000000000000000000000000000000000000000000000000000000000000000000000000000000000000000000000000000000001110000000000000000000000000000000000000000000000000000000000000000000000000000000000000000000000000000000000000000000000000000000000000000000000000000000000000000000000000000000000000000000000000000000000000000000000000000000000000000000000000000000000000000000000000000000000000000000000000000000000000000000000000000000000000011",
"110000000000000000000000000110000000000000000000000000000000000011000000000000000000000000000000000000111111111111111111111111111111111111111111111111111111111111111111111111111111111111111111111111111111111111111111111111111111111111111111111111111111111111111111111111111111111111111111111111111111111111111111111111111111111111111111111111111111111111111111111111111111111111111111111111111111111111111111111111111111111111111111111111110000000000000000000000000000000000000000000000000000000000000000000000000000000000000000000000000000000000000000000000000000000000000000000000000000000000000000000000000000000000000000000000000000000000000000000000000000000000000000000000000000000000000000000000000000000000000000000000000000000000000000000000000000000000000011",
"110000000000000000000000000110000000000000000000000000000000000011000000000000000000000000000000000000111111111111111111111111111111111111111111111111111111111111111111111111111111111111111111111111111111111111111111111111111111111111111111111111111111111111111111111111111111111111111111111111111111111111111111111111111111111111111111111111111111111111111111111111111111111111111111111111111111111111111111111111111111111111111111111111110000000000000000000000000000000000000000000000000000000000000000000000000000000000000000000000000000000000000000000000000000000000000000000000000000000000000000000000000000000000000000000000000000000000000000000000000000000000000000000000000000000000000000000000000000000000000000000000000000000000000000000000000000000000000011",
"110000000000000000000000000110000000000000000000000000000000000011000000000000000000000000000000000000110000000000000000000000000000000000000000000000000000000000000000000000000000000000000000000000000000000000000000000000000000000000000000000000000000000000000000000000000000000000000000000000000000000000000000000000000000000000000000000000000000000000000000000000000000000000000000000000000000000000000000000000000000000000000000000001110000000000000000000000000000000000000000000000000000000000000000000000000000000000000000000000000000000000000000000000000000000000000000000000000000000000000000000000000000000000000000000000000000000000000000000000000000000000000000000000000000000000000000000000000000000000000000000000000000000000000000000000000000000000000011",
"110000000000000000000000000110000000000000000000000000000000000011000000000000000000000000000000000000110000000000000000000000000000000000000000000000000000000000000000000000000000000000000000000000000000000000000000000000000000000000000000000000000000000000000000000000000000000000000000000000000000000000000000000000000000000000000000000000000000000000000000000000000000000000000000000000000000000000000000000000000000000000000000000001110000000000000000000000000000000000000000000000000000000000000000000000000000000000000000000000000000000000000000000000000000000000000000000000000000000000000000000000000000000000000000000000000000000000000000000000000000000000000000000000000000000000000000000000000000000000000000000000000000000000000000000000000000000000000011",
"110000000000000000000000000110000000000000000000000000000000000011000000000000000000000000000000000000110000000000000000000000000000000000000000000000000000000000000000000000000000000000000000000000000000000000000000000000000000000000000000000000000000000000000000000000000000000000000000000000000000000000000000000000000000000000000000000000000000000000000000000000000000000000000000000000000000000000000000000000000000000000000000000001110000000000000000000000000000000000000000000000000000000000000000000000000000000000000000000000000000000000000000000000000000000000000000000000000000000000000000000000000000000000000000000000000000000000000000000000000000000000000000000000000000000000000000000000000000000000000000000000000000000000000000000000000000000000000011",
"110000000000000000000000000110000000000000000000000000000000000011000000000000000000000000000000000000110000000000000000000000000000000000000000000000000000000000000000000000000000000000000000000000000000000000000000000000000000000000000000000000000000000000000000000000000000000000000000000000000000000000000000000000000000000000000000000000000000000000000000000000000000000000000000000000000000000000000000000000000000000000000000000001110000000000111111111111111111111111111111111111111111111111111111111111111111111111111111111111111111111111111111111111111111111111111111111111111111111111111111111111111111111111111111111111111111111111111111111111111111111111111111111111111111111111111111111111111111111111111111111111111111111111111111111111111100000000000011",
"110000000000000000000000000110000000000000000000000000000000110011000000000000000000000000000000000000110000000000000000000000000000000000000000000000000000000000000000000000000000000000000000000000000000000000000000000000000000000000000000000000000000000000000000000000000000000000000000000000000000000000000000000000000000000000000000000000000000000000000000000000000000000000000000000000000000000000000000000000000000000000000000000001110000000000111111111111111111111111111111111111111111111111111111111111111111111111111111111111111111111111111111111111111111111111111111111111111111111111111111111111111111111111111111111111111111111111111111111111111111111111111111111111111111111111111111111111111111111111111111111111111111111111111111111111111100000000000011",
"110000000000000000000000000110000000000000000000000000000001010011000000000000000000000000000000000000110000000000000100000000001000000000000000000000000000000000000000000000000000000000000000000000000000000000000000000000000000000000001100000011000000000010000000000000000000000000000000100100000000100000000000000000000000000000000000000000000000000110000000000000000000000000000000000000000000000000001001100000000100000110000000000001110000000000110000000000000000000000000000000000000000000000000000000000000000000000000000000000000000000000000000000000000000000000000000000000000000000000000000000000000000000000000000000000000000000000000000000000000000000000000000000000000000000000000000000000000000000000000000000000000000000000000000000000001100000000000011",
"110000000000000000000000000110000000000000000000000000000001110011000000000000000000000000000000000000110000000000001110000000011001000000000000000000000000000000000000000000000000000000000000000000000000000000000000000000000000000000011100001111000001000011000100000000100000000000000001100100000000100000000000000000000000000000000000000000000000001111000111100000100001100011000000000000000000000000001011100000000100001110000000000001110000000000110000000000000000000000000000000000000000000000000000000000000000000000000000000000000000000000000000000000000000000000000000000000000000000000000000000000000000000000000000000000000000000000000000000000000000000000000000000000000000000000000000000000000000000000000000000000000000000000000000000000001100000000000011",
"110000000000000000000000000110000000000000000000000000000000000011000000000000000000000000000000000000110000000000011000000000000001000000000000000000000000000000000000000000000000000000000000000000000000000000000000000000000000000000100011010000100111000011001000000000000000000000000001100000000000100000000000000000000000000000000000000000000000010001101000010001100001100100000000000000000000000000000000100000000100000010000000000001110000000000110111111111111111111111111111111111111111111111111111111111111111111111111111111111111111111111111111111100000000000000000000000000000000000000000000000000000000000000000000000000000000000011111111111111111111111111111111111111111111111111111111111111111111111111111111111111111111111111111111111111111100000000000011",
"110000000000000000000000000110000000000000000000000000000000000111000000000000000000000000000000000000110000000000110000000000111011110011100111011000011100000000000000000000000000000000000000000000000000000000000000000000000000000000000011000001100001000011110000000001100111100000000111101100011110100010000000000000000000000000000000000000000000000001100000110000100001101000000000011100110011001110011000100011000111000010001100000001110000000000110001000000000000001000000000000000000000000000000000000000000000000000000000000000000000000000000000000000000000000000000000000000000000000000000000000000000000000000000000000000000000000000000000000000000000000000000000000000000000000000000000000000000000000000000000000000000000000000000000000000001100000000000011",
"110000000000000000000000000011111111111111111111111111111111111110000000000000000000000000000000000000110000000000111110000000111011100111110111111100110100000000000000000000000000000000000000000000000000000000000000000000000000000000000110000011000001000011100000000001100111110000001111101100111010100100000000000000000000000000000000000000000000000011000011100000100001110000000000001110110011001111001000100011100111100010011110000001110000000000110111000000000000001111111111111111111111111111111111111111111111111111111111111111111111111111111111111100000000000000000000000000000000000000000000000000000000000000000000000000000000000001111111111111111111111111111111111111111111111111111111111111111111111111111111111111111111111111111111111111111100000000000011",
"110000000000000000000000000011111111111111111111111111111111111100000000000000000000000000000000000000110000000000111111000000011001100100110100110100100000000000000000000000000000000000000000000000000000000000000000000000000000000000001110000111000001000011100000000000100100010000001001100100110000111100000000000000000000000000000000000000000000000011000011100000100001110000000000000010011011000011001000100000100100100010010011000001110000000000110111000100000110001100011111111111111111111111111111111111111111111111111111111111111111111111111111111000000000110000011000000000000000000110000000000011111000001100000000001100000000000000011111111111111111111111111111111111111111111111111111111111111111111111111111111111111001111111111111111111111100000000000011",
"110000000000000000000000000000000000000000000000000000000000000000000000000000000000000000000000000000110000000000110001000000011001000111110100110100011000000000000000000000000000000000000000000000000000000000000000000000000000000000011000000000100001000011010000000000100110010000001001100100001100111000000000000000000000000000000000000000000000000100000000010000100001101000000000001110011010001111001000100011100100110010011111000001110000000000110001000110001110001000000000000000000000000000000000000000000000000000000000000000000000000000000000000000000000110000011000000000000000000111000000000011001100001000000000001100000000000000000000000000000000000000000000000000000000000000000000000000000000000000000000000000000000000000000000000000001100000000000011",
"110000000000000000000000000000000000000000000000000000000000000000000000000000000000000000000000000000110000000000110001000000011001000100000100110100000110000000000000000000000000000000000000000000000000000000000000000000000000000000010000011000100001000011011000000000100110010000001001100100000010111100000000000000000000000000000000000000000000001000001100010000100001101100000000110010001100010011001000100100110100110010010000000001110000000000110111000011011100001111111111111111111111111111111111111111111111111111111111111111111111111111111111111100000000110000011000000000000000000111000000000011000110000000000000001100000000000011111111111111111111111111111111111111111111111111111111111111111111111111111111111111111111111111111111111111111100000000000011",
"110000000001111111111111111111111111111111111111111111111111111111111111111111111100000000000000000000110000000000110011000000011001100110000100110100000110000000000000000000000000000000000000000000000000000000000000000000000000000000100000011001100001000011001000000000100110010000001001100100000010100100000000000000000000000000000000000000000000011000001100110000100001100110000000110010000100010011001000100100110100100010010000000001110000000000110001000001110000001000000000000000000000000000000000000000000000000000000000000000000000000000000000000000000000110111011000111100011011100111011100000011000110011100011111001100111000000000000000000000000000000000000000000000000000000000000000000000000000000000000000000000000000000000000000000000001100000000000011",
"110000000001111111111111111111111111111111111111111111111111111111111111111111111100000000000000000000110000000000011110000000011000110011100100110100111100000000000000000000000000000000000000000000000000000000000000000000000000000000111111001111000001000011000100000000100100010000000111100100111100100010000000000000000000000000000000000000000000011111100111100000100001100011000000001110000100001111001000100011110111000010001110000001110000000000110111000001110000001111111111111111111111111111111111111111111111111111111111111111111111111111111111111100000000110111011001100111011110000111110000000011000110001100110000001101100000000011111111111111111111111111111111111111111111111111111111111111111111111111111111111111111111111111111111111111111100000000000011",
"110000000001111111111111111111111111111111111111111111111111111111111111111111111100000000000000000000110000000000000000000000000000000000000000000000000000000000000000000000000000000000000000000000000000000000000000000000000000000000000000000000000000000000000000000000000000000000000000000000000000000000000000000000000000000000000000000000000000000000000000000000000000000000000000000000000000000000000000000000000000000000000000000001110000000000110001000011111000001000000000000000000000000000000000000000000000000000000000000000000000000000000000000000000000110111011001100111011100000111110000000011000110001100011110001111000000000000000000000000000000000000000000000000000000000000000000000000000000000000000000000000000000000000000000000000001100000000000011",
"110000000001111100001111111111111110111111111111111111111000011110011111100111111100000000000000000000110000000000000000000000000000000000000000000000000000000000000000000000000000000000000000000000000000000000000000000000000000000000000000000000000000000000000000000000000000000000000000000000000000000000000000000000000000000000000000000000000000000000000000000000000000000000000000000000000000000000000000000000000000000000000000000001110000000000110011000111011100001111111111111111111111111111111111111111111111111111111111111111111111111111111111111100000000110111011001100111011100000111100000000011000110001100011111001111000000000001111111111111111111111111111111111111111111111111111111111100001111111111111111111111111111111111111111111111111100000000000011",
"110000000001111001100111111111111110111111111111111111111011101111111111100111111100000000000000000000110000000000000000000000000000000000000000000000000000000000000000000000000000000000000000000000000000000000000000000000000000000000000000000000000000000000000000000000000000000000000000000000000000000000000000000000000000000000000000000000000000000000000000000000000000000000000000000000000000000000000000000000000000000000000000000001110000000000110111000110001100001111111111111111111111111111111111111111111111111111111111111111111111111111111111111100000000111111111001100111011100000111110000000011001110001100001111001111000000000001111111111111111111111111111111111111111111111111111111111111111111111111111111111111111111111111111111111111111100000000000011",
"110000000001111011110111111111111110111111111111111111111011111111111111100111111100000000000000000000110000000000000000000000000000000000000000000000000000000000000000000000000000000000000000000000000000000000000000000000000000000000000000000000000000000000000000000000000000000000000000000000000000000000000000000000000000000000000000000000000000000000000000000000000000000000000000000000000000000000000000000000000000000000000000000001110000000000110000000100000110001000000000000000000000000000000000000000000000000000000000000000000000000000000000000000000000011101110001100111011100000110111000000011001100001100110011001101110000000000000000000000000000000000000000000000000000000000000000000000000000000000000000000000000000000000000000000000001100000000000011",
"110000000001111011111101110110000100011100110001100111111011110100111000100110111100000000000000000000110000000000000000000000000000000000000000000000000000000000000000000000000000000000000000000000000000000000000000000000000000000000000000000000000000000000000000000000000000000000000000000000000000000000000000000000000000000000000000000000000000000000000000000000000000000000000000000000000000000000000000000000000000000000000000000001110000000000110111000000000000001111111111111111111111111111111111111111111111111111111111111111111111111111111111111100000000011101110000011100011100000110001100000011111000001100111110001100111000000011111111111111111111111111111111111111111111111111111111111111111111111111111111111111111111111111111111111111111100000000000011",
"110000000001111100001101110101111110110011010010010011111011110110110111100101111100000000000000000000110000000000000000000000000000000000000000000000000000000000000000000000000000000000000000000000000000000000000000000000000000000000000000000000000000000000000000000000000000000000000000000000000000000000000000000000000000000000000000000000000000000000000000000000000000000000000000000000000000000000000000000000000000000000000000000001110000000000110001000000000000001000000000000000000000000000000000000000000000000000000000000000000000000000000000000000000000000000000000000000000000000000000000000000000000000000000000000000000000000000000000000000000000000000000000000000000000000000000000000000000000000000000000000000000000000000000000000000001100000000000011",
"110000000001111111110101110111111110110011010010010011111011110110111101100011111100000000000000000000111111111111111111111111111111111111111111111111111111111111111111111111111111111111111111111111111111111111111111111111111111111111111111111111111111111111111111111111111111111111111111111111111111111111111111111111111111111111111111111111111111111111111111111111111111111111111111111111111111111111111111111111111111111111111111111111110000000000110111111111111111111111110000001111111111001111111111111111111111111111111111111111111111111111111111111100000000000000000000000000000000000000000000000000000000000000000000000000000000000000111111000000000000011111111000000000111111100111111111111111111000011111111111111111111100000111111111111111111100000000000011",
"110000000001111111110101110110011110110000010010010011111011110110111001100011111100000000000000000000110000000000000000000000000000000000000000000000000000000000000000000000000000000000000000000000000000000000000000000000000000000000000000000000000000000000000000000000000000000000000000000000000000000000000000000000000000000000000000000000000000000000000000000000000000000000000000000000000000000000000000000000000000000000000000000001110000000000110111111111111111111111111111111111111111111111111111111111111111111111111111111111111111111111111111111100000000000000000000000000000000000000000000000000000000000000000000000000000000000011111111111111111111111111111111111111111111111111111111111111111111111111111111111111111111111111111111111111111100000000000011",
"110000000001111011110101110111110110110011110010010011111011101110111110100101111100000000000000000000111111111111111111111111111111111111111111111111111111111111111111111111111111111111111111111111111111111111111111111111111111111111111111111111111111111111111111111111111111111111111111111111111111111111111111111111111111111111111111111111111111111111111111111111111111111111111111111111111111111111111111111111111111111111111111111111110000000000110000000000000000000000000000000000000000000000000000000000000000000000000000000000000000000000000000000000000000000000000000000000000000000000000000000000000000000000000000000000000000000000000000000000000000000000000000000000000000000000000000000000000000000000000000000000000000000000000000000000001100000000000011",
"110000000001111100001110000100001111011100010010010011111000011110110001100110111100000000000000000000111111111111111111111111111111111111111111111111111111111111111111111111111111111111111111111111111111111111111111111111111111111111111111111111111111111111111111111111111111111111111111111111111111111111111111111111111111111111111111111111111111111111111111111111111111111111111111111111111111111111111111111111111111111111111111111111110000000000110000000000000000000000000000000000000000000000000000000000000000000000000000000000000000000000000000000000000000000000000000000000000000000000000000000000000000000000000000000000000000000000000000000000000000000000000000000000000000000000000000000000000000000000000000000000000000000000000000000000001100000000000011",
"110000000001111111111111110111111111111111111111111111111111111111111111111111111100000000000000000000110000000000000000000000000000000000000000000000000000000000000000000000000000000000000000000000000000000000000000000000000000000000000000000000000000000000000000000000000000000000000000000000000000000000000000000000000000000000000000000000000000000000000000000000000000000000000000000000000000000000000000000000000000110000000000000001110000000000111111111111111111111111111111111111111111111111111111111111111111111111111111111111111111111111111111111111111111111111111111111111111111111111111111111111111111111111111111111111111111111111111111111111111111111111111111111111111111111111111111111111111111111111111111111111111111111111111111111111111100000000000011",
"110000000001111111111111100111111111111111111111111111111111111111111111111111111100000000000000000000110000000000000000000000000000000000000000000000000000000000000000000000000000000000000000000000000000000000000000000000000000000000000000000000000000000000000000000000000000000000000000000000000000000000000000000000000000000000000000000000000000000000000000000000000000000000000000000000000000000000000000000000000000110000000000000001110000000000111111111111111111111111111111111111111111111111111111111111111111111111111111111111111111111111111111111111111111111111111111111111111111111111111111111111111111111111111111111111111111111111111111111111111111111111111111111111111111111111111111111111111111111111111111111111111111111111111111111111111100000000000011",
"110000000001111111111110001111111111111111111111111111111111111111111111111111111100000000000000000000110000000000000000000000000000000000000000000000000000000000000000000000000000000000000000000000000000000000000000000000000000000000000000000000000000000000000000000000000000000000000000000000000000000000000000000000000000000000000000000000000000000000000000000000000000000000000000000000000000000000000000000000000000110000001100000001110000000000110000000000000000000000000000000000000000000000000000000000000000000000000000000000000000000000000000000000000000000000000000000000000000000000000000000000000000000000000000000000000000000000000000000000000000000000000000000000000000000000000000000000000000000000000000000000000000000000000000000000001100000000000011",
"110000000001111111111111111111111111111111111111111111111111111111111111111111111100000000000000000000110000000000000000000000000000000000000000000000000000000000000000000000000000000000000000000000000000000000000000000000000000000000000000000000000000000000000000000000000000000000000000000000000000000000000000000000000000000000000000000000000000000000000000000000000000000000000000000000000000000000000000000000000000110000001110000001110000000000110000000000000000000000000000000000000000000000000000000000000000000000000000000000000000000000000000000000000000000000000000000000000000000000000000000000000000000000000000000000000000000000000000000000000000000000000000000000000000000000000000000000000000000000000000000000000000000000000000000000001100000000000011",
"110000000000000000000000000000000000000000000000000000000000000000000000000000000000000000000000000000110000000000000000000000000000000000000000000000000000000000000000000000000000000000000000000000000000000000000000000000000000000000000000000000000000000000000000000000000000000000000000000000000000000000000000000000000000000000000000000000000000000000000000000000000000000000000000000000000000000000000000000000000000110000011011000001110000000000110000000000000000000000000000000000000000000000000000000000000000000000000000000000000000000000000000000000000000000000000000000000000000000000000000000000000000000000000000000000000000000000000000000000000000000000000000000000000000000000000000000000000000000000000000000000000000000000000000000000001100000000000011",
"110000000000000000000000000000000000000000000000000000000000000000000000000000000000000000000000000000110000000000000000000000000000000000000000000000000000000000000000000000000000000000000000000000000000000000000000000000000000000000000000000000000000000000000000000000000000000000000000000000000000000000000000000000000000000000000000000000000000000000000000000000000000000000000000000000000000000000000000000000000000110000110001110001110000000000110000000000000000000000000000000000000000000000000000000000000000000000000000000000000000000000000000000000000000000000000000000000000000000000000000000000000000000000000000000000000000000000000000000000000000000000000000000000000000000000000000000000000000000000000000000000000000000000000000000000001100000000000011",
"110000000000000000000000000000000000000000000000000000000000000000000000000000000000000000000000000000110000000000000000000000000000000000000000000000000000000000000000000000000000000000000000000000000000000000000000000000000000000000000000000000000000000000000000000000000000000000000000000000000000000000000000000000000000000000000000000000000000000000000000000000000000000000000000000000000000000000000000000000000000110001100000110001110000000000110000000000000000000000000000000000000000000000000000000000000000000000000000000000000000000000000000000000000000000000000000000000000000000000000000000000000000000000000000000000000000000000000000000000000000000000000000000000000000000000000000000000000000000000000000000000000000000000000000000000001100000000000011",
"110000000000000000000000000000000000000000000000000000000000000000000000000000000000000000000000000000110000000000000000000000000000000000000000000000000000000000000000000000000000000000000000000000000000000000000000000000000000000000000000000000011000000000000000000000000000000000000000000000000000000000000000000000000000000000000000000000000000000000000000000000000000000000000000000000000000000000000000000000000000110011110001111001110000000000110000000000111111000000010001000000000000000000000000000000000000000000000000000000000000000000000000000000001000001111001111110010000110000000100000000000000001000100000000100000000000000000000000000000000000001100000111000111111001000010000000000000000000000000011011100000001100001110000000000000001100000000000011",
"110000000000000000000000000000000000000000000000000000000000000000000000000000000000000000000000000000110000000000000000000000000000000000000000000000000000000000000000000000000000000000000000000000000000000000000000000000000000000000000000000000111100000000000000000000000000000000000000000000000000000000000000000000000000000000000000000000000000000000000000000000000000000000000000000000000000000000000000000000000000110000010001000001110000000000110000000000111111000000010001000000000000000000000000000000000000000000000000000000000000000000000000000000001000001111101111110010001100000000100000000000000001000100000000100000000000000000000000000000000000001100001111000111111001000110000000000000000000000000001011100000001100001110000000000000001100000000000011",
"110000000000000000000111100111110000100011000110000001110000000000000000000000000000000000000000000000110000000000000000000000000000000000000000000000000000000000000000000000000000000000000000000000000000000000000000000000000000000000000000000000100111000000000000000000000000000000000000000000000000000000000000000000000000000000000000000000000000000000000000000000000000000000000000000000000000000000000000000000000000110000010001000001110000000000110000000000110000000000000001000000000000000000000000000000000000000000000000000000000000000000000000000000011000010001100000010011001000000000000000000000000001000000000000100000000000000000000000000000000000011100011000100000011001001100000000000000000000000000000001100000001100000110000000000000001100000000000011",
"110000000000000000001000110000011001100001001000000011000000000000000000000000000000000000000000000000110000000000000000000000000000000000000000000000000000000000000000000000000000000000000000000000000000000000000000000000000000000000000000000001000011000000000000000000000000000000000000000000000000000000000000000000000000000000000000000000000001111111100000000000000000000000000000000000000000000000000000000000000000110000010001000001110000000000110000000000111110000000110011100011001111011000111100000000000000000000000000000000000000000000000000000000001000000001100000010010110000000001100111100000001111001100011100100110000000000000000000000000000000001100000000100000100001011000000000011000100010011100111001100111001111000110011100000000001100000000000011",
"110000000000000000000000010000011001100011010000000111001011100110000110000000000000000000000000000000110000000000000000000000000000000000000000000000000000000000000000000000000000000000000000000000000000000000000000000000000000000000000000000010000001100000000000000000000000000000000000000000000000000000000000000000000000000000000000000000000110000000110000000000000000000000000000000000000000000000000000000000000000110000010001000001110000000000110000000000111110000000010001000101101110101101100000000000000000000000000000000000000000000000000000000000001000000011000001100011100000000001100100110000011001001100100000101100000000000000000000000000000000001100000001000000100001110000000000011100100010000010011001100011101101100110111110000000001100000000000011",
"110000000000000000000000010001100000100001010000000111101111100111001111000000000000000000000000000000110000000000000000000000000000000000011111111000000000000000000000000000000000000000000000000000000000000000000000000000000000000000000000001100011100111000000000000000000000000000000000000000000000000000000000000000000000000000000000000000000100000000111000000000000000000000000000000000000000000000000000000000000000110000011111000001110000000000110000000000000001000000010001000100101100100101100000000000000000000000000000000000000000000000000000000000001000000110000001100011100000000001100100110000011001000100100000101000000000000000000000000000000000001100000011000000100001100000000000000110110010000010011001100000101100100110100010000000001100000000000011",
"110000000000000000000001100001110000100011100000000010001100001001101001100000000000000000000000000000110000000000000000000000000000000000111111111100000000000000000000000000000000000000000000000000000000000000000000000000000000000000000000011000110111011000000000000000000000000000000000000000000000000000000000000000000000000000000000000000111111111111101100000000000000000000000000000000000000000000000000000000000000110000000000000001110000000000110000000000000001000000010001001111101100100100111000000000000000000000000000000000000000000000000000000000001000001100000011000010110000000001100100110000011001000100011100110000000000000000000000000000000000001100000110000001000001010000000000011110010100011110011001100111101100100110111110000000001100000000000011",
"110000000000000000000011000000011000100011010000000010001000001111101111100000000000000000000000000000110000000000000000000000000000000001100000000110000000000000000000000000000000000000000000000000000000000000000000000000000000000000000000111001000011100100000000000000000000000000000000000000000000000000000000000000000000000000000000000001100000000011100100000000000000000000000000000000000000000000000000000000000000110000000000000001110000000000110000000000110001000000010001001100001100100100000100000000000000000000000000000000000000000000000000000000001000011000000011000010001000000001100100110000011001000100000110101000000000000000000000000000000000001100001000000001000001001100000000100110001000110010011001101100101100100110100000000000001100000000000011",
"110000000000000000000110000100011000100011011000000010001000001000001000000000000000000000000000000000110000000000000000000000000000000011000000000011000000000000000000000000000000000000000000000000000000000000000000000000000000000000000001110011000001110010000000000000000000000000000000000000000000000000000000000000000000000000000000000001001001001101100100000000000000000000000000000000000000000000000000000000000000111111111111111111110000000000110000000000111111000000010001100111101100100100111100000000000000000000000000000000000000000000000000000000001000011111100011000010001100000001100100110000011111000100111100100100000000000000000000000000000000001100001111100001000001000110000000111110001000011110011001101011101111100110111100000000001100000000000011",
"110000000000000000001100000110011000100011001000000010001000001000001000000000000000000000000000000000110000000000000000000000000000000111000000000011100000000000000000000000000000000000000000000000000000000000000000000000000000000000000001000010000001110011000000000000000000000000000000000000000000000000000000000000000000000000000000000001011101101101100100000000000000000000000000000000000000000000000000000000000000111111111111111111110000000000110000000000011110000000010000110011101100100101111000000000000000000000000000000000000000000000000000000000001000011111100011000010000110000001100100110000000111000100111100100110000000000000000000000000000000001100001111100001000001000010000000011110001000011110011001100111101111000110011100000000001100000000000011",
"110000000000000000001111110011100000100011000110000010001000000111000111000000000000000000000000000000110000000000000000000000000000001111111111111111111111111111111111110000000000000000000000000000000000000000000000000000000000000000000110000100000110110001100000000000000000000000000000000000000000000000000000000000000000000000000000111111011111111101111111111110000000000000000000000000000000000000000000000000000000110000000000000001110000000000110000000000000000000000000000000000000000000000000000000000000000000000000000000000000000000000000000000000000000000000000000000000000000000000000000000000000000000000000000000000000000000000000000000000000000000000000000000000000000000000000000000000000000000000000000000000000000000000000000000000001100000000000011",
"110000000000000000000000000000000000000000000000000000000000000000000000000000000000000000000000000000110000000000000000000000000000001111111111111111111111111111111111110000000000000000000000000000000000000000000000000000000000000000001100001100011001110000110000000000000000000000000000000000000000000000000000000000000000000000000001100001010000000101100111111111000000000000000000000000000000000000000000000000000000110111101010101011110000000000110000000000000000000000000000000000000000000000000000000000000000000000000000000000000000000000000000000000000000000000000000000000000000000000000000000000000000000000000000000000000000000000000000000000000000000000000000000000000000000000000000000000000000000000000000000000000000000000000000000000001100000000000011",
"110000000000000000000000000000000000000000000000000000000000000000000000000000000000000000000000000000110000000000000000000000000000111000000000000000000000000000000000011100000000000000000000000000000000000000000000000000000000000000011000001100111001110000011000000000000000000000000000000000000000000000000000000000000000000000000011000001010000000101100000000011000000000000000000000000000000000000000000000000000000110000000000000001110000000000110000000000000000000000000000000000000000000000000000000000000000000000000000000000000000000000000000000000000000000000000000000000000000000000000000000000000000000000000000000000000000000000000000000000000000000000000000000000000000000000000000000000000000000000000000000000000000000000000000000000001100000000000011",
"110000000000000000000000000000000000000000000000000000000000000000000000000000000000000000000000000000110000000000000000000000000000110000000000000000000000000000000000001100000000000000000000000000000000000000000000000000000000000000110000001100000011110000000100000000000000000000000000000000000000000000000000000000000000000000000111111111111111111111111111100111000000000000000000000000000000000000000000000000000000110111101010101011110000000000110000000000000000000000000000000000000000000000000000000000000000000000000000000000000000000000000000000000000000000000000000000000000000000000000000000000000000000000000000000000000000000000000000000000000000000000000000000000000000000000000000000000000000000000000000000000000000000000000000000000001100000000000011",
"110000000000000000000000000000000000000000000000000000000000000000000000000000000000000000000000000000110000000000000000000000000000110000000000000000000000000000000000001100000000000000000000000000000000000000000000000000000000000001100000000110000011100000000110000000000000000000000000000000000000000000000000000000000000000000000100000000000000000000000000110011000000000000000000000000000000000000000000000000000000110000000000100001110000000000110000000000000000000000000000000000000000000000000000000000000000000000000000000000000000000000000000000000000000000000000000000000000000000000000000000000000000000000000000000000000000000000000000000000000000000000000000000000000000000000000000000000000000000000000000000000000000000000000000000000001100000000000011",
"110000000000000000000000000000000000000000000000000000000000000000000000000000000000000000000000000000110000000000000000000000000000110000000000000000000000000000000000001100000000000000000000000000000000000000000000000000000000000001100000000011000111000000000011000000000000000000000000000000000000000000000000000000000000000000000100000000000000000000000000110011000000000000000000000000000000000000000000000000000000110000101010101011110000000000111111111111111111111111111111111111111111111111111111111111111111111111111111111111111111111111111111111111111111111111111111111111111111111111111111111111111111111111111111111111111111111111111111111111111111111111111111111111111111111111111111111111111111111111111111111111111111111111111111111111111100000000000011",
"110000000000000000001111110001100001110011000110000010000000001100000001110000000000000000000000000000110000000000000000000000000000110000000000000000000000000000000000001100000000000000000000000000000000000000000000000000000000000011000000000001101110000000000001100000000000000000000000000000000000000000000000000000000000000000000100000000000000000000000000110111000000000000000000000000000000000000000000000000000000110000101010101011110000000000111111111111111111111111111111111111111111111111111111111111111111111111111111111111111111111111111111111111111111111111111111111111111111111111111111111111111111111111111111111111111111111111111111111111111111111111111111111111111111111111111111111111111111111111111111111111111111111111111111111111111100000000000011",
"110000000000000000001000000011100010001011001100000010000000001100000000110000000000000000000000000000110000000000000000000000000000110000000000000000000000000000000000001100000000000000000000000000000000000000000000000000000000000110000000000000111100000000000000110000000000000000000000000000000000000000000000000000000000000000000100000000000000000000000000110011000000000000000000000000000000000000000000000000000000110000101010101011110000000000110000000000000000000000000000000000000000000000000000000000000000000000000000000000000000000000000000000000000000000000000000000000000000000000000000000000000000000000000000000000000000000000000000000000000000000000000000000000000000000000000000000000000000000000000000000000000000000000000000000000001100000000000011",
"110000000000000000001000000011100010001011011000000011000000001100000000110000000000000000000000000000110000000000000000000000000000110000000000000000000000000000000000001100000000000000000000000000000000000000000000000000000000011100000000000000000000000000000000011000000000000000000000000000000000000000000000000000000000000000000100000000000000000000000000110011000000000000000000000000000000000000000000000000000000110110101010101011110000000000111111111111111111111111111111111111111111111111111111111111111111111111111111111111111111111111111111111111111111111111111111111111111111111111111111111111111111111111111111111111111111111111111111111111111111111111111111111111111111111111111111111111111111111111111111111111111111111111111111111111111100000000000011",
"110000000000000000001111100001100000001011010000000111100110011110011100110000000000000000000000000000110000000000000000000000000000110000000000000000000000000000000000001100000000000000000000000000000000000000000000000000000000011100000000000000000000000000000000011000000000000000000000000000000000000000000000000000000000000000000100000000000000000000000000110111000000000000000000000000000000000000000000000000000000110000000010000001110000000000110000000000000000000000000000000000000000000000000000000000000000000000000000000000000000000000000000000000000000000000000000000000000000000000000000000000000000000000000000000000000000000000000000000000000000000000000000000000000000000000000000000000000000000000000000000000000000000110000000000000001100000000000011",
"110000000000000000000000110001100000010011100000000010001001101100000110110000000000000000000000000000110000000000000000000000000000110000000000000000000000000000000000001100000000000000000000000000000000000000000000000000000000001110000000001111111111110000000000010000000000000000000000000000000000000000000000000000000000000000000100000000000000000000000000110011000000000000000000000000000000000000000000000000000000110111101010101011110000000000110000000000000000000000000000000000000000000000000000000000000000000000000000000000000000000000000000000000000000000000000000000000000000000000000000000000000000000000000000000000000000000000000000000000000000000000000000000000000000000000000000000000000000000000000000000000000000000110000000000000001100000000000011",
"110000000000000000000000010001100000100011110000000010001001101100011110110000000000000000000000000000110000000000000000000000000000110000000000000000000000000000000000001100000000000000000000000000000000000000000000000000000000000110000000001111111111110000000000100000000000000000000000000000000000000000000000000000000000000000000100000000000000000000000000110011000000000000000000000000000000000000000000000000000000110000000000000001110000000000110000000000000000000000000000000000000000000000000000000000000000000000000000000000000000000000000000000000000000000000000000000000000000000000000000000000000000000000000000000000000000000000000000000000000000000000000000000000000000000000000000000000000000000000000000000000000000000110000000000000001100000000000011",
"110000000000000000000000010001100001100011010000000010001001101100011110110000000000000000000000000000110000000000000000000000000000110000000000000000000000000000000000001100000000000000000000000000000000000000000000000000000000000011000000001111111111110000000001100000000000000000000000000000000000000000000000000000000000000000000100000000000000000000000000110111000000000000000000000000000000000000000000000000000000110111101010101011110000000000110000000000000000000000000000000000000000000000000000000000000000000000000000000000000000000000000000000000000000000000000000000000000000000000000000000000000000000000000000000000000000000000000000000000000000000000000000000000000000000000000000000000000000000000000000000000000000000110000000100000001100000000000011",
"110000000000000000001000110001100010000011001000000010001001101100100110110000000000000000000000000000110000000000000000000000000000110000000000000000000000000000000000001100000000000000000000000000000000000000000000000000000000000001100000001100111100110000000011000000000000000000000000000000000000000000000000000000000000000000000100000000000000000000000000110011000000000000000000000000000000000000000000000000000000110000000000000001110000000000110000000000000000000000000000000000000000000000000000000000000000000000000000000000000000000000000000000000000000000000000000000000000000000000000000000000000000000000000000000000000000000000000000000000000000000000000000000000000000000000000000000000000000000000000000000000000000000110000001110000001100000000000011",
"110000000000000000000111100001100011111011000110000001100111000110011110110000000000000000000000000000110000000000000000000000000000110000000000000000000000000000000000001100000000000000000000000000000000000000000000000000000000000000110000000000111100000000000100000000000000000000000000000000000000000000000000000000000000000000000100000000000000000000000000110111000000000000000000000000000000000000000000000000000000110111101010101011110000000000110000000000000000000000000000000000000000000000000000000000000000000000000000000000000000000000000000000000000000000000000000000000000000000000000000000000000000000000000000000000000000000000000000000000000000000000000000000000000000000000000000000000000000000000000000000000000000000110000011011000001100000000000011",
"110000000000000000000000000000000000000000000000000000000000000000000000000000000000000000000000000000110000000000000000000000000000110000000000000000000000000000000000001100000000000000000000000000000000000000000000000000000000000000011100000000111100000000001000000000000000000000000000000000000000000000000000000000000000000000000100000000000000000000000000110011000000000000000000000000000000000000000000000000000000110000000000000001110000000000110000000000000000000000000000000000000000000000000000000000000000000000000000000000000000000000000000000000000000000000000000000000000000000000000000000000000000000000000000000000000000000000000000000000000000000000000000000000000000000000000000000000000000000000000000000000000000000110000110000110001100000000000011",
"110000000000000000000000000000000000000000000000000000000000000000000000000000000000000000000000000000110000000000000000000000000000110000000000000000000000000000000000001100000000000000000000000000000000000000000000000000000000000000001110000000111100000000011000000000000000000000000000000000000000000000000000000000000000000000000100000000000000000000000000110011000000000000000000000000000000000000000000000000000000110111101010101011110000000000110000000000000000000000000000000000000000000000000000000000000000000000000000000000000000000000000000000000000000000000000000000000000000000000000000000000000000000000000000000000000000000000000000000000000000000000000000000000000000000000000000000000000000000000000000000000000000000110001100000111001100000000000011",
"110000000000000000000000000000000000000000000000000000000000000000000000000000000000000000000000000000110000000000000000000000000000110000000000000000000000000000000000001100000000000000000000000000000000000000000000000000000000000000000110000000111100000000110000000000000000000000000000000000000000000000000000000000000000000000000100000000000000000000000000110011000000000000000000000000000000000000000000000000000000110000000000000011110000000000110000000000000000000000000000000000000000000000000000000000000000000000000000000000000000000000000000000000000000000000000000000000000000000000000000000000000000000000000000000000000000000000000000000000000000000000000000000000000000000000000000000000000000000000000000000000000000000110001110001111001100000000000011",
"110000000000000000000000000000000000000000000000000000000000000000000000000000000000000000000000000000110000000000000000000000000000110000000000000000000000000000000000001100000000000000000000000000000000000000000000000000000000000000000011000000111100000001100000000000000000000000000000000000000000000000000000000000000000000000000100000000000000000000000000110011000000000000000000000000000000000000000000000000000000110111101010101011110000000000110000000000000000000000000000000000000000000000000000000000000000000000000000000000000000000000000000000000000000000000000000000000000000000000000000000000000000000000000000000000000000000000000000000000000000000000000000000000000000000000000000000000000000000000000000000000000000000110001110001100001100000000000011",
"110000000000000000000000000000000000000000000000000000000000000000000000000000000000000000000000000000110000000000000000000000000000110000000000000000000000000000000000001100000000000000000000000000000000000000000000000000000000000000000001100000111100000111000000000000000000000000000000000000000000000000000000000000000000000000000100000000000000000000000000110111000000000000000000000000000000000000000000000000000000110000000000000011110000000000110000000000000000000000000000000000000000000000000000000000000000000000000000000000000000000000000000000000000000000000000000000000000000000000000000000000000000000000000000000000000000000000000000000000000000000000000000000000000000000000000000000000000000000000000000000000000000000110000010001000001100000000000011",
"110000000000000000000000000000000000000000000000000000000000000000000000000000000000000000000000000000110000000000000000000000000000110000000000000000000000000000000000001100000000000000000000000000000000000000000000000000000000000000000000110000111100001110000000000000000000000000000000000000000000000000000000000000000000000000000100000000000000000000000000110011000000000000000000000000000000000000000000000000000000110111101010101001110000000000110000000000000000000000000000000000000000000000000000000000000000000000000000000000000000000000000000000000000000000000000000000000000000000000000000000000000000000000000000000000000000000000000000000000000000000000000000000000000000000000000000000000000000000000000000000000000000000110000010001000001100000000000011",
"110000000000000000000000000000000000000000000000000000000000000000000000000000000000000000000000000000110000000000000000000000000000110000000000000000000000000000000000001100000000000000000000000000000000000000000000000000000000000000000000011101111110011100000000000000000000000000000000000000000000000000000000000000000000000000000100000000000000000000000000110011000000000000000000000000000000000000000000000000000000110000101010101011110000000000110000000000000000000000000000000000000000000000000000000000000000000000000000000000000000000000000000000000000000000000000000000000000000000000000000000000000000000000000000000000000000000000000000000000000000000000000000000000000000000000000000000000000000000000000000000000000000000110000010001000001100000000000011",
"110000000000000000000000000000000000000000000000000000000000000000000000000000000000000000000000000000110000000000000000000000000000110000000000000000000000000000000000001100000000000000000000000000000000000000000000000000000000000000000000001110000000111000000000000000000000000000000000000000000000000000000000000000000000000000000100000000000000000000000000110111000000000000000000000000000000000000000000000000000000110000101010101001110000000000110000000000000000000000000000000000001111111110000000000000000000000000000000000000000000000000000000000000000000000000000000000001111111110000000000000000000000000000000000000000000000000000000000000000000000000000000011111111100000000000000000000000000000000000000000000000000000000110000011111000001100000000000011",
"110000000000000000000000000000000000000000000000000000000000000000000000000000000000000000000000000000110000000000000000000000000000110000000000000000000000000000000000001100000000000000000000000000000000000000000000000000000000000000000000000111000001110000000000000000000000000000000000000000000000000000000000000000000000000000000100000000000000000000000000111111000000000000000000000000000000000000000000000000000000110110101010101011110000000000110000000000000000000000000000000000001111111111000000000000000000000000000000000000000000000000000000000000000000000000000000000011111111111000000000000000000000000000000000000000000000000000000000000000000000000000000011111111110000000000000000000000000000000000000000000000000000000110000000000000001100000000000011",
"110000000000000000000000000000000000000000000000000000000000000000000000000000000000000000000000000000110000000000000000000000000000110000000000000000000000000000000000001100000000000000000000000000000000000000000000000000000000000000000000000011100011100000000000000000000000000000000000000000000000000000000000000000000000000000000100000000000000000000000000110000000000000000000000000000000000000000000000000000000000110000000000000001110000000000110000000000000000000000000000000000011000000001100000000000000000000000000000000000000000000000000000000000000000000000000000000011000000001000000000000000000000000000000000000000000000000000000000000000000000000000000110000000010000000000000000000000000000000000000000000000000000000110000000000000001100000000000011",
"110000000000000000000000000000000000000000000000000000000000000000000000000000000000000000000000000000110000000000000000000000000000111111111111111111111111111111111111111100000000000000000000000000000000000000000000000000000000000000000000000001100011000000000000000000000000000000000000000000000000000000000000000000000000000000000111111111111111111111111111110000000000000000000000000000000000000000000000000000000000110111101010101011110000000000110000000000000000000000000000000000110000000000110000000000000000000000000000000000000000000000000000000000000000000000000000000110000000001100000000000000000000000000000000000000000000000000000000000000000000000000001100000000001100000000000000000000000000000000000000000000000000000111111111111111111100000000000011",
"110000000000000000000000000000000000000000000000000000000000000000000000000000000000000000000000000000110000000000000000000000000000001111111111111111111111111111111111110000000000000000000000000000000000000000000000000000000000000000000000000000110110000000000000000000000000000000000000000000000000000000000000000000000000000000000011111111111111111111111111100000000000000000000000000000000000000000000000000000000000110000000000000001110000000000110000000000000000000000000000000001100000000000011000000000000000000000000000000000000000000000000000000000000000000000000000001100000000000111000000000000000000000000000000000000000000000000000000000000000000000000011000000000000110000000000000000000000000000000000000000000000000000111111111111111111100000000000011",
"110000000000000000000000000000000000000000000000000000000000000000000000000000000000000000000000000000110000000000000000000000000000000000000000000000000000000000000000000000000000000000000000000000000000000000000000000000000000000000000000000000011000000000000000000000000000000000000000000000000000000000000000000000000000000000000000000000000000000000000000000000000000000000000000000000000000000000000000000000000000110111101010101011110000000000110000000000000000000000000000000011111111111111111111111111111111111100000000000000000000000000000000000000000000000000000000011111111111111111111111111111111111100000000000000000000000000000000000000000000000000000111111111111111111111111111111111111000000000000000000000000000000000111100000000100011100000000000011",
"110000000000000000000000000000000000000000000000000000000000000000000000000000000000000000000000000000110000000000000000000000000000000000000000000000000000000000000000000000000000000000000000000000000000000000000000000000000000000000000000000000000000000000000000000000000000000000000000000000000000000000000000000000000000000000000000000000000000000000000000000000000000000000000000000000000000000000000000000000000000110000000000000001110000000000110000000000000000000000000000000111111111111111111111111111111111111110000000000000000000000000000000000000000000000000000001111111111111111111111111111111111111110000000000000000000000000000000000000000000000000001111111111111111111111111111111111111100000000000000000000000000000000110000000000000001100000000000011",
"110000000000000000000000000000000000000000000000000000000000000000000000000000000000000000000000000000110000000000000000000000000000000000000000000000000000000000000000000000000000000000000000000000000000000000000000000000000000000000000000000000000000000000000000000000000000000000000000000000000000000000000000000000000000000000000000000000000000000000000000000000000000000000000000000000000000000000000000000000000000110111101010101011110000000000110000000000000000000000000000000100000000000000000000000000000000000010000000000000000000000000000000000000000000000000000001100000000000000000000000000000000000110000000000000000000000000000000000000000000000000011000000000000000000000000000000000000100000000000000000000000000000000110101011010101011100000000000011",
"110000000000000000000000000000000000000000000000000000000000000000000000000000000000000000000000000000110000000000000000000000000000000000000000000000000000000000000000000000000000000000000000000000000000000000000000000000000000000000000000000000000000000000000000000000000000000000000000000000000000000000000000000000000000000000000000000000000000000000000000000000000000000000000000000000000000000000000000000000000000110000000000000001110000000000110000000000000000000000000000000100000000000000000000000000000000000010000000000000000000000000000000000000000000000000000001100000000000000000000000000000000000110000000000000000000000000000000000000000000000000011000000000000000000000000000000000000100000000000000000000000000000000110000000000000001100000000000011",
"110000000000000000000000000000000000000000000000000000000000000000000000000000000000000000000000000000110000000000000111100000000000000000100000000000000111100000001110000010000000000000000000000000000000000000000000000011110000000000000001000000010011110001000000000110000000000000000000000000000000000000000000000000000001111000001000000001000000000001110000000000000000000000000000000000000000000000000000000000000000110101101010101011110000000000110000000000000000000000000000000100000000000000000000000000000000000010000000000000000000000000000000000000000000000000000001100000000000000000000000000000000000110000000000000000000000000000000000000000000000000011000000000000000000000000000000000000100000000000000000000000000000000110001011010101011100000000000011",
"110000000000000000000000000000000000000000000000000000000000000000000000000000000000000000000000000000110000000000001111100000000000000000100000000000001111100000001110000010000000000000000000000000000000000000000000000011111000000000000001000000010011110001000000000110000000000000000000000000000000000000000000000000000001111000001000000001000000000011110000000000000000000000000000000000000000000000000000000000000000110000000000000001110000000000110000000000000000000000000000000100000000000000000000000000000000000010000000000000000000000000000000000000000000000000000001100000000000000000000000000000000000110000000000000000000000000000000000000000000000000011000000000000000000000000000000000001100000000000000000000000000000000110000000000001001100000000000011",
"110000000000000000000000000000000000000000000000000000000000000000000000000000000000000000000000000000110000000000001100000000000000000000100000000000001100000000000110000010000000000000000000000000000000000000000000000010000000000000000001000000100100001001000000000010000000000000000000000000000000000000000000000000000001100100000000000001000000000110001000000000000000000000000000000000000000000000000000000000000000110101101010101011110000000000110000000000000000000000000000000100000000000000000000000000000000000010000000000000000000000000000000000000000000000000000001100000000000000000000000000000000000110000000000000000000000000000000000000000000000000011000000000000000000000000000000000001100000000000000000000000000000000110001011010101011100000000000011",
"110000000000000000000000000000000000000000000000000000000000000000000000000000000000000000000000000000110000000000001100000110011001111001111010011000001100000011000110011110011100110110000000000000000000000000000000000010000001100011100011100000100110000011110100100010001100000000000000000000000000000000000000000000000001100010011000111001001100000110000000110001111001000100000000000000000000000000000000000000000000110000000000001001110000000000110000000000000000000000000000000100000000000000000000000000000000000010000000000000000000000000000000000000000000000000000001100000000000000000000000000000000000110000000000000000000000000000000000000000000000000011000000000000000000000000000000000001100000000000000000000000000000000110000000000101011100000000000011",
"110000000000000000000000000000000000000000000000000000000000000000000000000000000000000000000000000000110000000000001111001111111101111101111010011000001111001111100110111110111110111110000000000000000000000000000000000011100011110011110011100001000011110011100100110010011110000000000000000000000000000000000000000000000001100010011001111001001100000110000001111101111101000100000000000000000000000000000000000000000000110000101010101011110000000000110000000000000000000000000000000100000000000000000000000000000000000010000000000000000000000000000000000000000000000000000001100000000000000000000000000000000000110000000000000000000000000000000000000000000000000011000000000000000000000000000000000001100000000000000000000000000000000110100011010101011100000000000011",
"110000000000000000000000000000000000000000000000000000000000000000000000000000000000000000000000000000110000000000001111001101100101000100100010011000001111001100100110100010100010111000000000000000000000000000000000000011100010011010011001000001000011111001000100110010110010000000000000000000000000000000000000000000000001100010001001000001011000000110000001001101001101000100000000000000000000000000000000000000000000110000101010101011110000000000110000000000000000000000000000000100000000000000000000000000000000000010000000000000000000000000000000000000000000000000000001100000000000000000000000000000000000110000000000000000000000000000000000000000000000000011000000000000000000000000000000000001100000000000000000000000000000000110000001010101011100000000000011",
"110000000000000000000000000000000000000000000000000000000000000000000000000000000000000000000000000000110000000000001100001101100101000100100010011000001100001100100110100010111110110000000000000000000000000000000000000010000110011010011001000010000000001001000100110010111110000000000000000000000000000000000000000000000001100011001000111001100000000110000001001101001101000100000000000000000000000000000000000000000000110000000010101011110000000000110000000000000000000000000000000100000000000000000000000000000000000010000000000000000000000000000000000000000000000000000001100000000000000000000000000000000000110000000000000000000000000000000000000000000000000011000000000000000000000000000000000001100000000000000000000000000000000110000011010101011100000000000011",
"110000000000000000000000000001111111111111111111111111111111111100000000000000000000000000000000000000110000000000001100001101100101000100100010011000001100001000100110100010100000110000000000000000000000000000000000000010000110011010011001000110000100001001000100110010110000000000000000000000000000000000000000000000000001100110001000001101110000000110001101001101001101000100000000000000000000000000000000000000000000110111101010101011110000000000110000000000000000000000000000000100000000000000000000000000000000000010000000000000000000000000000000000000000000000000000001100000000000000000000000000000000000110000000000000000000000000000000000000000000000000011000000000000000000000000000000000001100000000000000000000000000000000110101011010101011100000000000011",
"110000000000000000000000000001111111111111111111111111111111111100000000000000000000000000000000000000110000000000001100001101100101000100100010011000001100001100100110100010100000110000000000000000000000000000000000000010000010010010011001001100000110001001000100110010110000000000000000000000000000000000000000000000000001100100001000001101011000000010001001001101001101001100000000000000000000000000000000000000000000110000000000000001110000000000110000000000000000000000000000000100000000000000000000000000000000000010000000000000000000000000000000000000000000000000000001100000000000000000000000000000000000110000000000000000000000000000000000000000000000000011000000000000000000000000000000000001100000000000000000000000000000000110000000010100001100000000000011",
"110000000000000000000000000011000000000000000000000000000000000111000000000000000000000000000000000000110000000000001111111101100101111000011001111000001100000111000110011110011100110000000000000000000000000000000000000010000001100010011000101100000011110000110011110010001110000000000000000000000000000000000000000000000001111000001001111001001100000001110000110001111000111100000000000000000000000000000000000000000000110111101010101011110000000000110000000000000000000000000000000100000000000000000000000000000000000010000000000000000000000000000000000000000000000000000001100000000000000000000000000000000000110000000000000000000000000000000000000000000000000011000000000000000000000000000000000001100000000000000000000000000000000110101010010101011100000000000011",
"110000000000000000000000000110000000000000000000000000000000000011000000000000000000000000000000000000110000000000000000000000000001000000000000011000000000000000000000000000000000000000000000000000000000000000000000000000000000000000000000000000000000000000000000110000000000000000000000000000000000000000000000000000000000000000000000000000000000000000000000000001000000000100000000000000000000000000000000000000000000110000000000000001110000000000110000000000000000000000000000000100000000000000000000000000000000000010000000000000000000000000000000000000000000000000000001100000000000000000000000000000000000110000000000000000000000000000000000000000000000000011000000000000000000000000000000000001100000000000000000000000000000000110000000000101001100000000000011",
"110000000000000000000000000110000000000000000000000000000000000011000000000000000000000000000000000000110000000000000000000000000001000000000001110000000000000000000000000000000000000000000000000000000000000000000000000000000000000000000000000000000000000000000011100000000000000000000000000000000000000000000000000000000000000000000000000000000000000000000000000001000000111000000000000000000000000000000000000000000000110111101010101011110000000000110000000000000000000000000000000100000000000000000000000000000000000010000000000000000000000000000000000000000000000000000001100000000000000000000000000000000000110000000000000000000000000000000000000000000000000011000000000000000000000000000000000001100000000000000000000000000000000110000011010101011100000000000011",
"110000000000000000000000000110000000000000000000000000000000000011000000000000000000000000000000000000110000000000000000000000000000000000000000000000000000000000000000000000000000000000000000000000000000000000000000000000000000000000000000000000000000000000000000000000000000000000000000000000000000000000000000000000000000000000000000000000000000000000000000000000000000000000000000000000000000000000000000000000000000110000101010101001110000000000110000000000000000000000000000000100000000000000000000000000000000000010000000000000000000000000000000000000000000000000000001100000000000000000000000000000000000110000000000000000000000000000000000000000000000000011000000000000000000000000000000000001100000000000000000000000000000000110000001010101011100000000000011",
"110000000000000000000000000110000001111111111111111111111100000011000000000000000000000000000000000000110000000000000000000000000000000000000000000000000000000000000000000000000000000000000000000000000000000000000000000000000000000000000000000000000000000000000000000000000000000000000000000000000000000000000000000000000000000000000000000000000000000000000000000000000000000000000000000000000000000000000000000000000000110110101010101011110000000000110000000000000000000000000000000100000000000000000000000000000000000010000000000000000000000000000000000000000000000000000001100000000000000000000000000000000000110000000000000000000000000000000000000000000000000011000000000000000000000000000000000001100000000000000000000000000000000110100011010101011100000000000011",
"110000000000000000000000000110000001011111111111111111111100000011000000000000000000000000000000000000110000000000000000000000000000000000000000000000000000000000000000000000000000000000000000000000000000000000000000000000000000000000000000000000000000000000000000000000000000000000000000000000000000000000000000000000000000000000000000000000000000000000000000000000000000000000000000000000000000000000000000000000000000110000100010101001110000000000110000000000000000000000000000000100000000000000000000000000000000000010000000000000000000000000000000000000000000000000000001100000000000000000000000000000000000110000000000000000000000000000000000000000000000000011000000000000000000000000000000000001100000000000000000000000000000000110000000010101011100000000000011",
"110000000000000000000000000110000001011111111111111111110100000011000000000000000000000000000000000000110000000000000000000000000000000000000000000000000000000000000000000000000000000000000000000000000000000000000000000000000000000000000000000000000000000000000000000000000000000000000000000000000000000000000000000000000000000000000000000000000000000000000000000000000000000000000000000000000000000000000000000000000000110100101010101011110000000000110000000000000000000000000000000100000000000000000000000000000000000010000000000000000000000000000000000000000000000000000001100000000000000000000000000000000000110000000000000000000000000000000000000000000000000011000000000000000000000000000000000001100000000000000000000000000000000110101111010101011100000000000011",
"110000000000000000000000000110000001000000000000000000000100000011000000000000000000000000000000000000110000000000000000000000000000000000000000000000000000000000000000000000000000000000000000000000000000000000000000000000000000000000000000000000000000000000000000000000000000000000000000000000000000000000000000000000000000000000000000000000000000000000000000000000000000000000000000000000000000000000000000000000000000110000100010101001110000000000110000000000000000000000000000000100000000000000000000000000000000000010000000000000000000000000000000000000000000000000000001100000000000000000000000000000000000110000000000000000000000000000000000000000000000000011000000000000000000000000000000000001100000000000000000000000000000000110000000010101011100000000000011",
"110000000000000000000000000110000001111111111111111111111100000011000000000000000000000000000000000000110000000000000000000000000000000000000000000000000000000000000000000000000000000000000000000000000000000000000000000000000000000000000000000000000000000000000000000000000000000000000000000000000000000000000000000000000000000000000000000000000000000000000000000000000000000000000000000000000000000000000000000000000000110000001010101011110000000000110000000000000000000000000000000100000000000000000000000000000000000010000000000000000000000000000000000000000000000000000001100000000000000000000000000000000000110000000000000000000000000000000000000000000000000011000000000000000000000000000000000001100000000000000000000000000000000110000001010101011100000000000011",
"110000000000000000000000000110000000111111111111111111111000000011000000000000000000000000000000000000110000000000000000000000000000000000000000000000000000000000000000000000000000000000000000000000000000000000000000000000000000000000000000000000000000000000000000000000000000000000000000000000000000000000000000000000000000000000000000000000000000000000000000000000000000000000000000000000000000000000000000000000000000110001101010101011110000000000110000000000000000000000000000000100000000000000000000000000000000000010000000000000000000000000000000000000000000000000000001100000000000000000000000000000000000110000000000000000000000000000000000000000000000000011000000000000000000000000000000000001100000000000000000000000000000000110000001010100011100000000000011",
"110000000000000000000000000110000000000000000000000000000000000011000000000000000000000000000000000000110000000000000000000000000000000000000000000000000000000000000000000000000000000000000000000000000000000000000000000000000000000000000000000000000000000000000000000000000000000000000000000000000000000000000000000000000000000000000000000000000000000000000000000000000000000000000000000000000000000000000000000000000000110000001010101001110000000000110000000000000000000000000000000100000000000000000000000000000000000010000000000000000000000000000000000000000000000000000001100000000000000000000000000000000000110000000000000000000000000000000000000000000000000011000000000000000000000000000000000001100000000000000000000000000000000110000001010101011100000000000011",
"110000000000000000000000000110000000000000000000000000000000000011000000000000000000000000000000000000110000000000000000000000000000000000000000000000000000000000000000000000000000000000000000000000000000000000000000000000000000000000000000000000000000000000000000000000000000000000000000000000000000000000000000000000000000000000000000000000000000000000000000000000000000000000000000000000000000000000000000000000000000110000001010101011110000000000110000000000000000000000000000000110000000000000000000000000000000000110000000000000000000000000000000000000000000000000000001100000000000000000000000000000000001110000000000000000000000000000000000000000000000000011000000000000000000000000000000000001100000000000000000000000000000000110100001010101011100000000000011",
"110000000000000000000000000110000000000000000000000000000000000011000000000000000000000000000000000000110000000000000000000000000000000000000000000000000000000000000000000000000000000000000000000000000000000000000000000000000000000000000000000000000000000000000000000000000000000000000000000000000000000000000000000000000000000000000000000000000000000000000000000000000000000000000000000000000000000000000000000000000000110000000010000001110000000000110000000000000000000000000000000011111111111111111111111111111111111100000000000000000000000000000000000000000000000000000000011111111111111111111111111111111111100000000000000000000000000000000000000000000000000000111111111111111111111111111111111111000000000000000000000000000000000110000001010101011100000000000011",
"110000000000000000000000000110000000000000000000000000000000000011000000000000000000000000000000000000110000000000000000000000000000000000000000000000000000000000000000000000000000000000000000000000000000000000000000000000000000000000000000000000000000000000000000000000000000000000000000000000000000000000000000000000000000000000000000000000000000000000000000000000000000000000000000000000000000000000000000000000000000110000001010101011110000000000110000000000000000000000000000000000000000000000000000000000000000000000000000000000000000000000000000000000000000000000000000000000000000000000000000000000000000000000000000000000000000000000000000000000000000000000000000000000000000000000000000000000000000000000000000000000000000000110000000000001011100000000000011",
"110000000000000000000000000110000000000000000000000000000000000011000000000000000000000000000000000000110000000000000000000000000000000000000000000000000000000000000000000000000000000000000000000000000000000000000000000000000000000000000000000000000000000000000000000000000000000000000000000000000000000000000000000000000000000000000000000000000000000000000000000000000000000000000000000000000000000000000000000000000000110111111011101011110000000000110000000000000000000000000000000000000000000000000000000000000000000000000000000000000000000000000000000000000000000000000000000000000000000000000000000000000000000000000000000000000000000000000000000000000000000000000000000000000000000000000000000000000000000000000000000000000000000110101111010101011100000000000011",
"110000000000000000000000000110000000000000000000000000000000000011000000000000000000000000000000000000110000000000000000000000000000000000000000000000000000000000000000000000000000000000000000000000000000000000000000000000000000000000000000000000000000000000000000000000000000000000000000000000000000000000000000000000000000000000000000000000000000000000000000000000000000000000000000000000000000000000000000000000000000111111111111111111110000000000110000000000000000000000000000000000000000000000000000000000000000000000000000000000000000000000000000000000000000000000000000000000000000000000000000000000000000000000000000000000000000000000000000000000000000000000000000000000000000000000000000000000000000000000000000000000000000000110000000000000001100000000000011",
"110000000000000000000000000110000000000000000000000000000000000011000000000000000000000000000000000000110000000000000000000000000000000000000000000000000000000000000000000000000000000000000000000000000000000000000000000000000000000000000000000000000000000000000000000000000000000000000000000000000000000000000000000000000000000000000000000000000000000000000000000000000000000000000000000000000000000000000000000000000000111111111111111111110000000000110000000000000000000000000000000000000000000000000000000000000000000000000000000000000000000000000000000000000000000000000000000000000000000000000000000000000000000000000000000000000000000000000000000000000000000000000000000000000000000000000000000000000000000000000000000000000000000110111111010101011100000000000011",
"110000000000000000000000000110000000000000000000000000000000000011000000000000000000000000000000000000110000000000000000000000000000000000000000000000000000000000000000000000000000000000000000000000000000000000000000000000000000000000000000000000000000000000000000000000000000000000000000000000000000000000000000000000000000000000000000000000000000000000000000000000000000000000000000000000000000000000000000000000000000110000000000000001110000000000110000000000000000000000000000000000000000000000000000000000000000000000000000000000000000000000000000000000000000000000000000000000000000000000000000000000000000000000000000000000000000000000000000000000000000000000000000000000000000000000000000000000000000000000000000000000000000000110000000000000001100000000000011",
"110000000000000000000000000110000000000000000000000000000000000011000000000000000000000000000000000000110000000000000000000000000000000000000000000000000000000000000000000000000000000000000000000000000000000000000000000000000000000000000000000000000000000000000000000000000000000000000000000000000000000000000000000000000000000000000000000000000000000000000000000000000000000000000000000000000000000000000000000000000000110000000000000001110000000000110000000000000000000000000000000000000000000000000000000000000000000000000000000000000000000000000000000000000000000000000000000000000000000000000000000000000000000000000000000000000000000000000000000000000000000000000000000000000000000000000000000000000000000000000000000000000000000110111111010101011100000000000011",
"110000000000000000000000000110000000000000000000000000000000000011000000000000000000000000000000000000110000000000000000000000000000000000000000000000000000000000000000000000000000000000000000000000000000000000000000000000000000000000000000000000000000000000000000000000000000000000000000000000000000000000000000000000000000000000000000000000000000011000000000000000000000000000000000000000000000000000000000000000000000110000000000000001110000000000110000000000000000000000000000001000000000000100011000000000000000000000000000000000000000000000000000000000000000000000001111100000000000000001100000000000000100000000000000000000000000000000000000000000000000000000000001111000000000001000000000000000000000000000000000000000000000000110000000000101011100000000000011",
"110000000000000000000000000110000000000000000000000000000000000011000000000000000000000000000000000000110000000000000000000000000000000011111111111111111111111111111100000000000000000000000000000000000000000000000000000000000000000000000000000000000000000000000000000000000000000000000000000000000000000000000000000000000000000000000000000000000000111100000000000000000000000000000000000000000000000000000000000000000000110000000000000001110000000000110000000000000000000000000000001000000000000100011000000000000000000000000000000000000000000000000000000000000000000000001000010000000000000000000000000000000100000000000000000000000000000000000000000000000000000000000001100110000000001000000000000000000000000000000000000000000000000110101011010101011100000000000011",
"110000000000000000000000000110000000000000000000000000000000000011000000000000000000000000000000000000110000000000000000000000000000000011111111111111111111111111111100000000000000000000000000000000000000000000000000000000000000000000000000000000000000000000000000000000000000000000000000000000000000000000000000000000000000000000000000000000000000101100000000000000000000000000000000000000000000000000000000000000000000110000000000000001110000000000110000000000000000000000000000001000000000000100011000000000000000000000000000000000000000000000000000000000000000000000001000010000000000000000000000000000000100000000000000000000000000000000000000000000000000000000000001100110000000001000000000000000000000000000000000000000000000000110001001010101011100000000000011",
"110000000000000000000000000110000000000000000000000000000001110011000000000000000000000000000000000000110000000000000000000000000000000010000000000000000000000000001100000000000000000000000000000000000000000000000000000000000000000000000000000000000000000000000000000000000000000000000000000000000000000000000000000000000000000000000000000000000001000110000000000000000000000000000000000000000000000000000000000000000000110000000000000001110000000000110000000000000000000000000000001000000111001111111100111001011100111000000000000000000000000000000000000000000000000000001000010101110011100011100110000111001110001110000000000000000000000000000000000000000000000000000001100011001110011100011000000000000000000000000000000000000000000110000000000000001100000000000011",
"110000000000000000000000000110000000000000000000000000000001110011000000000000000000000000000000000000110000000000000000000000000000000010000000000000000000000000001100000000000000000000000000000000000000000000000000000000000000000000000000000000000000000000000000000000000000000000000000000000000000000000000000000000000000000000000000000000000110000001000000000000000000000000000000000000000000000000000000000000000000110000000000000001110000000000110000000000000000000000000000001000001100100100011001000101110001000000000000000000000000000000000000000000000000000000001111100111000110010001101001101000100100110000000000000000000000000000000000000000000000000000000001100011000001001000000110000000000000000000000000000000000000000110111011110101011100000000000011",
"110000000000000000000000000110000000000000000000000000000001100011000000000000000000000000000000000000110000000000000000000000000000000010000000000000000000000000001100000000000000000000000000000000000000000000000000000000000000000001111111111111111111111111111111000000000000000000000000000000000000000000000000000000000000000000000000000000001100000000100000000000000000000000000000000000000000000000000000000000000000110000000000000001110000000000110000000000000000000000000000001000001111100100011001111101100001100000000000000000000000000000000000000000000000000000001000000100000110010001101111101000000100010000000000000000000000000000000000000000000000000000000001100011000011001000000110000000000000000000000000000000000000000110000000000000001100000000000011",
"110000000000000000000000000110000000000000000000000000000000000011000000000000000000000000000000000000110000000000000000000000000000000010000000000000000000000000001100000000000000000000000000000000000000000000000000000000000000000001000001000001000001000001000001000000000000000000000000000000000000000000000000000000000000000000000000000000011000000000010000000000000000000000000000000000000000000000000000000000000000110000000000000001110000000000110000000000000000000000000000001000001111100100011001111101000000111000000000000000000000000000000000000000000000000000001000000100000110010001101111101000000100001100000000000000000000000000000000000000000000000000000001100011001111001000011110000000000000000000000000000000000000000110101011110101011100000000000011",
"110000000000000000000000000110000000000000000000000000000000000111000000000000000000000000000000000000110000000000000000000000000000000010000101110111111111110110001100000000000000000000000000000000000000000000000000000000000000000001000001000001000001000001000001000000000000000000000000000000000000000000000000000000000000000000000000000000110000000000011100000000000000000000000000000000000000000000000000000000000000110000000000000001110000000000110000000000000000000000000000001000001000000100011001000001000000000100000000000000000000000000000000000000000000000000001000000100000110010001101000001000100100000010000000000000000000000000000000000000000000000000000001100110010001001000100110000000000000000000000000000000000000000110000000000000001100000000000011",
"110000000000000000000000000011111111111111111111111111111111111111000000000000000000000000000000000000110000000000000000000000000000000010000000000000000000000000001100000000000000000000000000000000000000000000000000000000000000000001111111111111111111111111111111000000000000000000000000000000000000000000000000000000000000000000000000000001100000000000001100000000000000000000000000000000000000000000000000000000000000110000000000000001110000000000110000000000000000000000000000001111100111000011000100111001000001111000000000000000000000000000000000000000000000000000001000000100000011100001100111000111000010011100000000000000000000000000000000000000000000000000000001111000001111000110011110000000000000000000000000000000000000000110101011110101011100000000000011",
"110000000000000000000000000011111111111111111111111111111111111100000000000000000000000000000000000000110000000000000000000000000000000010000000000000000000000000001100000000000000000000000000000000000000000000000000000000000000000001111111111111111111111111111111000000000000000000000000000000000000000000000000000000000000000000000000000011000001111111000110000000000000000000000000000000000000000000000000000000000000110000000000000001110000000000110000000000000000000000000000001111100011000010000000011001000000000000000000000000000000000000000000000000000000000000000000000000000001100001100111000111000010000000000000000000000000000000000000000000000000000000000000001000000011000000011100000000000000000000000000000000000000000110000000000101011100000000000011",
"110000000000000000000000000000000000000000000000000000000000000000000000000000000000000000000000000000110000000000000000000000000000000010000000001000000000000000001100000000000000000000000000000000000000000000000000000000000000000001000011000001100001100001110001000000000000000000000000000000000000000000000000000000000000000000000000000010001111111111110011000000000000000000000000000000000000000000000000000000000000110000000000000001110000000000110000000000000000000000000000000000000000000000000000000000000000000000000000000000000000000000000000000000000000000000000000000000000000000001100000000000000000000000000000000000000000000000000000000000000000000000000000000000000000000000000000000000000000000000000000000000000000000110101010010101011100000000000011",
"110000000000000000000000000000000000000000000000000000000000000000000000000000000000000000000000000000110000000000000000000000000000000010000101111111111111110110001100000000000000000000000000000000000000000000000000000000000000000001000011000001000001000001000001000000000000000000000000000000000000000000000000000000000000000000000000001110011110010001111001100000000000000000000000000000000000000000000000000000000000110000000000000001110000000000110000000000000000000000000000000000000000000000000000000000000000000000000000000000000000000000000000000000000000000000000000000000000000000110000000000000000000000000000000000000000000000000000000000000000000000000000000000000000000000000000000000000000000000000000000000000000000000110000000000100011100000000000011",
"110000000000000111111111111110011111111111110000001111111111111111101111111111000000000000000000000000110000000000000000000000000000000010000000000000000000000000001100000000000000000000000000000000000000000000000000000000000000000001000001000001000001000001100001000000000000000000000000000000000000000000000000000000000000000000000000011100111100010000111100110000000000000000000000000000000000000000000000000000000000110000000000000001110000000000110000000000000000000000000000000000000000000000000000000000000000000000000000000000000000000000000000000000000000000000000000000000000000000000000000000000000000000000000000000000000000000000000000000000000000000000000000000000000000000000000000000000000000000000000000000000000000000110000010010101001100000000000011",
"110000000000000111111111111111111111111111111111111111111111111111111111111111000000000000000000000000110000000000000000000000000000000010000000000000000000000000001100000000000000000000000000000000000000000000000000000000000000000001111111111111111111111111111111000000000000000000000000000000000000000000000000000000000000000000000000110001100000000000001100011000000000000000000000000000000000000000000000000000000000110000000000000001110000000000110000000000000000000000000000000000000000000000000000000000000000000000000000000000000000000000000000000000000000000000000000000000000000000000000000000000000000000000000000000000000000000000000000000000000000000000000000000000000000000000000000000000000000000000000000000000000000000110000000000101011100000000000011",
"110000000000000111111111111111111111111111111111111111111111111111111111111111000000000000000000000000110000000000000000000000000000000010000000000000000000000000001100000000000000000000000000000000000000000000000000000000000000000001000001111111111111111111100001000000000000000000000000000000000000000000000000000000000000000000000001100011100011000000000110001100000000000000000000000000000000000000000000000000000000110000000000000001110000000000110000000000000000000000000000000000000000000000000000000000000000000000000000000000000000000000000000000000000000000000000000000000000000000000000000000000000000000000000000000000000000000000000000000000000000000000000000000000000000000000000000000000000000000000000000000000000000000110000001010101001100000000000011",
"110000000000000111101111110111111111111110111111111000011111011111111011111111000000000000000000000000110000000000000000000000000000000010000101111111101111110110001100000000000000000000000000000000000000000000000000000000000000000001000101000000000001000001100101000000000000000000000000000000000000000000000000000000000000000000000011000011100001000000000110000110000000000000000000000000000000000000000000000000000000110000000000000001110000000000110000000000000000000000000000000000000000000000000000000000000000000000000000000000000000000000000000000000000000000000000000000000000000000000000000000000000000000000000000000000000000000000000000000000000000000000000000000000000000000000000000000000000000000000000000000000000000000110000000000000011100000000000011",
"110000000000000111101111110111111111111110111111111001101111011111111011111111000000000000000000000000110000000000000000000000000000000010000000000000000000000000001100000000000000000000000000000000000000000000000000000000000000000001000001100010000001000001100001000000000000000000000000000000000000000000000000000000000000000000000110000011000001100000000011000001000000000000000000000000000000000000000000000000000000110000000000000001110000000000110000000000000000000000000000000000000000000000000000000000000000000000000000000000000000000000000000000000000000000000000000000000000000000000000000000000000000000000000000000000000000000000000000000000000000000000000000000000000000000000000000000000000000000000000000000000000000000110101011010101001100000000000011",
"110000000000000111101111110111111111111110111111111001111111111111111011111111000000000000000000000000110000000000000000000000000000000010000000000000000000000000001100000000000000000000000000000000000000000000000000000000000000000001111111100010000000100001111111000000000000000000000000000000000000000000000000000000000000000000000100000111000000100000000011000001110000000000000000000000000000000000000000000000000000110000000000000001110000000000110000000000000000000000000000000000000000000000000000000000000000000000000000000000000000000000000000000000000000000000000000000000000000000000000000000000000000000000000000000000000000000000000000000000000000000000000000000000000000000000000000000000000000000000000000000000000000000110000000000100011100000000000011",
"110000000000000111101100110111000110100010111011111001110110011100011011001111000000000000000000000000110000000000000000000000000000000010000000000000000000000000001100000000000000000000000000000000000000000000000000000000000000000001111111100000000000100001111111000000000000000000000000000000000000000000000000000000000000000000001000000111000000110000000011000000110000000000000000000000000000000000000000000000000000110000000000000001110000000000110000000000000000000000000000000000000000000000000000000000000000000000000000000000000000000000000000000000000000000000000000000000000000000000000000000000000000000000000000000000000000000000000000000000000000000000000000000000000000000000000000000000000000000000000000000000000000000110001011010101011100000000000011",
"110000000000000111110100101110111010011110111111111001110111011011111011111111000000000000000000000000110000000000000000000000000000000010001101111011111111011110001100000000000000000000000000000000000000000000000000000000000000000001000001100000000000000001100001000000000000000000000000000000000000000000000000000000000000000000110000000111100000011000000111000000011000000000000000000000000000000000000000000000000000110000000000000001110000000000110000000000000000000000000000000000000000000000000000000000000000000000000000000000000000000000000000000000000000000000000000000000000000000000000000000000000000000000000000000000000000000000000000000000000000000000000000000000000000000000000000000000000000000000000000000000000000000110000000000101001100000000000011",
"110000000000000111110100101110111010111110111111111001110111011111111011111111000000000000000000000000110000000000000000000000000000000010000000000000000000000000001100000000000000000000000000000000000000000000000000000000000000000001000001100000000000000011100001000000000000000000000000000000000000000000000000000000000000000000111000000110000000001000000011000000111000000000000000000000000000000000000000000000000000110000000000000001110000000000110000000000000000000000000000000000000000000000000000000000000000000000000000000000000000000000000000000000000000000000000000000000000000000000000000000000000000000000000000000000000000000000000000000000000000000000000000000000000000000000000000000000000000000000000000000000000000000110001111010101011100000000000011",
"110000000000000111110100101110111010111110011111111001110111011100111001111111000000000000000000000000110000000000000000000000000000000010000000000000000000000000001100000000000000000000000000000000000000000000000000000000000000000001000001110111111111111111100001000000000000000000000000000000000000000000000000000000000000000000001100000110000000000100000011000000110000000000000000000000000000000000000000000000000000110000000000000001110000000000110000000000000000000000000000000000000000000000000000000000000000000000000000000000000000000000000000000000000000000000000000000000000000000000000000000000000000000000000000000000000000000000000000000000000000000000000000000000000000000000000000000000000000000000000000000000000000000110000000000101011100000000000011",
"110000000000000111111011011110111010111110101111111001101111011111101010111111000000000000000000000000110000000000000000000000000000000010000000000000000000000000001100000000000000000000000000000000000000000000000000000000000000000001111111111111111111111111111111000000000000000000000000000000000000000000000000000000000000000000000110000110000000000010000011000001100000000000000000000000000000000000000000000000000000110000000000000001110000000000110000000000000000000000000000000000000000000000000000000000000000000000000000000000000000000000000000000000000000000000000000000000000000000000000000000000000000000000000000000000000000000000000000000000000000000000000000000000000000000000000000000000000000000000000000000000000000000110001011010101011100000000000011",
"110000000000000111111011011111000110111110111011111000011111011000011011011111000000000000000000000000110000000000000000000000000000000010000101111111101111110110001100000000000000000000000000000000000000000000000000000000000000000001000001000001000001000001000001000000000000000000000000000000000000000000000000000000000000000000000011000111000000000000000110000011000000000000000000000000000000000000000000000000000000110000000000000001110000000000110000000000000000000000000000000000000000000000000000000000000000000000000000000000000000000000000000000000000000000000000000000000000000000000000000000000000000000000000000000000000000000000000000000000000000000000000000000000000000000000000000000000000000000000000000000000000000000110000000000101011100000000000011",
"110000000000000111111111111111111111111111111111111111111111111111111111111111000000000000000000000000110000000000000000000000000000000010000000000000000000000000001100000000000000000000000000000000000000000000000000000000000000000001000001000001000001000001000001000000000000000000000000000000000000000000000000000000000000000000000001100001000000000000000110001110000000000000000000000000000000000000000000000000000000110000000000000001110000000000110000000000000000000000000000000000000000000000000000000000000000000000000000000000000000000000000000000000000000000000000000000000000000000000000000000000000000000000000000000000000000000000000000000000000000000000000000000000000000000000000000000000000000000000000000000000000000000110101011010101011100000000000011",
"110000000000000111111111111111111111111111111111111111111111111111111111111111000000000000000000000000110000000000000000000000000000000010000000000000000000000000001100000000000000000000000000000000000000000000000000000000000000000001000001000001000001000001000001000000000000000000000000000000000000000000000000000000000000000000000000110001100000000000001100011100000000000000000000000000000000000000000000000000000000110000000000000001110000000000110000000000000000000000000000000000000000000000000000000000000000000000000000000000000000000000000000000000000000000000000000000000000000000000000000000000000000000000000000000000000000000000000000000000000000000000000000000000000000000000000000000000000000000000000000000000000000000110000000000101011100000000000011",
"110000000000000111111111111111111111111111111111111111111111111111111111111111000000000000000000000000110000000000000000000000000000000010000000000000000000000000001100000000000000000000000000000000000000000000000000000000000000000001111111111111110111111111111111000000000000000000000000000000000000000000000000000000000000000000000000011000111000010000111100111000000000000000000000000000000000000000000000000000000000110000000000000001110000000000110000000000000000000000000000000000000000000000000000000000000000000000000000000000000000000000000000000000000000000000000000000000000000000000000000000000000000000000000000000000000000000000000000000000000000000000000000000000000000000000000000000000000000000000000000000000000000000110000001010101011100000000000011",
"110000000000000111111111111111111111111111111111111111111111111111111111111111000000000000000000000000110000000000000000000000000000000010000101011000010011101100001100000000000000000000000000000000000000000000000000000000000000000001100011111111110011111111111111000000000000000000000000000000000000000000000000000000000000000000000000001100011100010011111001110000000000000000000000000000000000000000000000000000000000110000000000000001110000000000110000000000000000000000000000000000000000000000000000000000000000000000000000000000000000000000000000000000000000000000000000000000000000000000000000000000000000000000000000000000000000000000000000000000000000000000000000000000000000000000000000000000000000000000000000000000000000000110100011010101011100000000000011",
"110000000000000000000000000000000000000000000000000000000000000000000000000000000000000000000000000000110000000000000000000000000000000010000101111011110111101100001100000000000000000000000000000000000000000000000000000000000000000001000011000001000001100001100001000000000000000000000000000000000000000000000000000000000000000000000000000110011111111111110011100000000000000000000000000000000000000000000000000000000000110000000000000001110000000000110000000000000000000000000000000000000000000000000000000000000000000000000000000000000000000000000000000000000000000000000000000000000000000000000000000000000000000000000000000000000000000000000000000000000000000000000000000000000000000000000000000000000000000000000000000000000000000110000000000101011100000000000011",
"110000000000000000000000000000000000000000000000000000000000000000000000000000000000000000000000000000110000000000000000000000000000000010000000000000000000000000001100000000000000000000000000000000000000000000000000000000000000000001000001000001000001000001000001000000000000000000000000000000000000000000000000000000000000000000000000000011000011111110000011000000000000000000000000000000000000000000000000000000000000110000000000000001110000000000110000000000000000000000000000000000001111111111111111111111111110000000000000000000000000000000000000000000000000000000000000000000000000000000000000000000000000000000000000000000000000000000000000000000000000000000000000000000000000000000000000000000000000000000000000000000000000000110101010010101011100000000000011",
"110000000000000000000000000000000000000000000000000000000000000000000000000000000000000000000000000000110000000000000000000000000000000010000000000000000000000000001100000000000000000000000000000000000000000000000000000000000000000001000001000001000001100001000001000000000000000000000000000000000000000000000000000000000000000000000000000001100000000000000100000000000000000000000000000000000000000000000000000000000000110000000000000001110000000000110000000000000000000000000000000000001100000000000000000000000111000000000000000000000000000000000000000000000000000000000000000000000000000000000000000000000000000000000000000000000000000000000000000000000000000000000000000000000000000000000000000000000000000000000000000000000000000110000000010101011100000000000011",
"110000000000000000000000000000000000000000000000000000000000000000000000000000000000000000000000000000110000000000000000000000000000000010000101110111011111110100001100000000000000000000000000000000000000000000000000000000000000000001111111111111111111111111111111000000000000000000000000000000000000000000000000000000000000000000000000000000110000000000011100000000000000000000000000000000000000000000000000000000000000110000000000000001110000000000110000000000000000000000000000000000001100000000000000000000000111100000000000000000000000000000000000000000000000000000000000000000000000000001111111111111111111111111111111111111111111000000000000000000000000000000000000000000000000000000000000000000000000000000000000000000000000000110101111110101011100000000000011",
"110000000000000000000000000000000000000000000000000000000000000000000000000000000000000000000000000000110000000000000000000000000000000010000001110111011011110100001100000000000000000000000000000000000000000000000000000000000000000001000001000001100011100001100001000000000000000000000000000000000000000000000000000000000000000000000000000000011000000000111000000000000000000000000000000000000000000000000000000000000000110000000000000001110000000000110000000000000000000000000000000000001100000000000000000000000110110000000000000000000000000000000000000000000000000000000000000000000000000001111111111111111111111111111111111111111111000000000000000000000000000000000000000000000000000000000000000000000000000000000000000000000000000110000000010100011100000000000011",
"110000000000000000000011000011100011111011000110000001100000000000000000000000000000000000000000000000110000000000000000000000000000000010000000000000000000000000001100000000000000000000000000000000000000000000000000000000000000000001000001000001000001000001000101000000000000000000000000000000000000000000000000000000000000000000000000000000001100000001110000000000000000000000000000000000000000000000000000000000000000110000000000000001110000000000110000000000000000000000000000000000001100000000000000000000000110011000000000000000000000000000000000000000000000000000000000000000000000000001100000100000000001000000000001000000000001000000000000000000000000000000000000000000000000000000000000000000000000000000000000000000000000000110100011010101011100000000000011",
"110000000000000000000111000100010000001011001100000011000000000000000000000000000000000000000000000000110000000000000000000000000000000010000000000000000000000000001100000000000000000000000000000000000000000000000000000000000000000001000001000011000001000001000001000000000000000000000000000000000000000000000000000000000000000000000000000000000110000011100000000000000000000000000000000000000000000000000000000000000000110000000000000001110000000000110000000000000000000000000000000000001100010111111111111110000110001100000000000000000000000000000000000000000000000000000000000000000000000001100100100000000000000000000100000000000001000000000000000000000000000000000000000000000000000000000000000000000000000000000000000000000000000110000000000001011100000000000011",
"110000000000000000000111000100010000001011011000000011000000100110000110000000000000000000000000000000110000000000000000000000000000000010000000000000000000000000001100000000000000000000000000000000000000000000000000000000000000000001111111111111111111111111111111000000000000000000000000000000000000000000000000000000000000000000000000000000000011000011000000000000000000000000000000000000000000000000000000000000000000110000000000000001110000000000110000000000000000000000000000000000001100000000000000000000000111111110000000000000000000000000000000000000000000000000000000000000000000000001100000000111001100001110011100001110101001000000000000000000000000000000000000000000000000000000000000000000000000000000000000000000000000000110101011110101011100000000000011",
"110000000000000000000011000000010000010011010000000111101011100111000110000000000000000000000000000000110000000000000000000000000000000010000000000000000000000000001100000000000000000000000000000000000000000000000000000000000000000001111111111111111111111111111111000000000000000000000000000000000000000000000000000000000000000000000000000000000001101110000000000000000000000000000000000000000000000000000000000000000000110000000000000001110000000000110000000000000000000000000000000000001100000000000000000000000111111110000000000000000000000000000000000000000000000000000000000000000000000001100000000110111100001101011100001100111001000000000000000000000000000000000000000000000000000000000000000000000000000000000000000000000000000110000000000000001100000000000011",
"110000000000000000000011000000100000010011100000000010001100001001101001100000000000000000000000000000110000000000000000000000000000000011111111111111111111111111111100000000000000000000000000000000000000000000000000000000000000000000000000000000000000000000000000000000000000000000000000000000000000000000000000000000000000000000000000000000000000111100000000000000000000000000000000000000000000000000000000000000000000110000000000000001110000000000110000000000000000000000000000000000001100000000000000000000000111000010000000000000000000000000000000000000000000000000000000000000000000000001111111111111111111111111111111111111111111000000000000000000000000000000000000000000000000000000000000000000000000000000000000000000000000000110000011010101011100000000000011",
"110000000000000000000011000001000000100011010000000010001000001111101111100000000000000000000000000000110000000000000000000000000000000000000000000000000000000000000000000000000000000000000000000000000000000000000000000000000000000000000000000000000000000000000000000000000000000000000000000000000000000000000000000000000000000000000000000000000000011000000000000000000000000000000000000000000000000000000000000000000000110000000000000001110000000000110000000000000000000000000000000000001100010111111101111010000000000010000000000000000000000000000000000000000000000000000000000000000000000001100001100000000000000000000000000000000001000000000000000000000000000000000000000000000000000000000000000000000000000000000000000000000000000110000000000000001100000000000011",
"110000000000000000000011000010000000100011010000000010001000001000001000000000000000000000000000000000110000000000000000000000000000000000000000000000000000000000000000000000000000000000000000000000000000000000000000000000000000000000000000000000000000000000000000000000000000000000000000000000000000000000000000000000000000000000000000000000000000000000000000000000000000000000000000000000000000000000000000000000000000110000000000000001110000000000110000000000000000000000000000000000001100000000000000000000000000000010000000000000000000000000000000000000000000000000000000000000000000000001100101100000000000000000000000000000000001000000000000000000000000000000000000000000000000000000000000000000000000000000000000000000000000000110100010010101011100000000000011",
"110000000000000000000011000100000000100011001000000010001000001000001000000000000000000000000000000000110000000000000000000000000000000000000000000000000000000000000000000000000000000000000000000000000000000000000000000000000000000000000000000000000000000000000000000000000000000000000000000000000000000000000000000000000000000000000000000000000000000000000000000000000000000000000000000000000000000000000000000000000000110000000000000001110000000000110000000000000000000000000000000000001100000000000000000000000000000010000000000000000000000000000000000000000000000000000000000000000000000001100001100000000000000000000000000000000001000000000000000000000000000000000000000000000000000000000000000000000000000000000000000000000000000110000000000100001100000000000011",
"110000000000000000000011000111110000100011000110000010001000000111000111000000000000000000000000000000110000000000000000000000000000000000000000000000000000000000000000000000000000000000000000000000000000000000000000000000000000000000000000000000000000000000000000000000000000000000000000000000000000000000000000000000000000000000000000000000000000000000000000000000000000000000000000000000000000000000000000000000000000110000000000000001110000000000110000000000000000000000000000000000001100010000000000001000100101000010000000000000000000000000000000000000000000000000000000000000000000000001111111111111111111111111111111111111111111000000000000000000000000000000000000000000000000000000000000000000000000000000000000000000000000000110100010010101011100000000000011",
"110000000000000000000000000000000000000000000000000000000000000000000000000000000000000000000000000000110000000000000000000000000000000000000000000000000000111000000000000000000000000000000000000000000000000000000000000000000000000000000000000000000000000000000000000000000000000000000000000000000000000000000000000000000000000000000000000000000000000000000000000000000000000000000000000000000000000000000000000000000000110000000000000001110000000000110000000000000000000000000000000000001100010111011111011101111101000010000000000000000000000000000000000000000000000000000000000000000000000001111111111111111111111111111111111111111111000000000000000000000000000000000000000000000000000000000000000000000000000000000000000000000000000110100000010101011100000000000011",
"110000000000000000000000000000000000000000000000000000000000000000000000000000000000000000000000000000110000000000000000000001100011000000001000000000000011111000000000000010000000000000000000000000000000000000000000000001111000000000000000000000000000100000000000000000110000000000000000000000000000000000000000000000011111100010000000000000000010000000000000000000000000000000000000000000000000000000000000000000000000110000000000000001110000000000110000000000000000000000000000000000001100000000000000000000000000000010000000000000000000000000000000000000000000000000000000000000000000000001100001100000000001100000000001100000000001000000000000000000000000000000000000000000000000000000000000000000000000000000000000000000000000000110000010000100001100000000000011",
"110000000000000000000000000000000000000000000000000000000000000000000000000000000000000000000000000000110000000000000000000001110011000000001000000000000011000110000000000010000000000000000000000000000000000000000000000011000100000000000000000000000000100000000000000000110000000000000000000000000000000000000000000000000110000000000000000000000010000000000000000000000000000000000000000000000000000000000000000000000000110000000000000001110000000000110000000000000000000000000000000000001100000000000000000000000000000010000000000000000000000000000000000000000000000000000000000000000000000001100101100000000001100000000001100000000001000000000000000000000000000000000000000000000000000000000000000000000000000000000000000000000000000110101010010101011100000000000011",
"110000000000000000000000000000000000000000000000000000000000000000000000000000000000000000000000000000110000000000000000000001110011001110011100011100000011000110011000011110000000000000000000000000000000000000000000000011000000011000101110011000111000111100001100001100110010000000000000000000000000000000000000000000000110000110011101100001100010010001110001110011110000110001011000000000000000000000000000000000000000110000000000000001110000000000110000000000000000000000000000000000001100000000000000000000000000000010000000000000000000000000000000000000000000000000000000000000000000000001100001100000000001100000000001100000000001000000000000000000000000000000000000000000000000000000000000000000000000000000000000000000000000000110000010000100001100000000000011",
"110000000000000000000000000000000000000000000000000000000000000000000000000000000000000000000000000000110000000000000000000001101011001110011110011100000011000110011100011110000000000000000000000000000000000000000000000011000000111100101110011100111100111100011100011100110010000000000000000000000000000000000000000000000110000110011101100001100010010001110001110011110000110001011000000000000000000000000000000000000000110000000000000001110000000000110000000000000000000000000000000000001100010111101111111110111101100010000000000000000000000000000000000000000000000000000000000000000000000001100011100000000001100000000001110000000001000000000000000000000000000000000000000000000000000000000000000000000000000000000000000000000000000110100011010101011100000000000011",
"110000000000000000000111100111110000110011000110000010000000001100000001110000000000000000000000000000110000000000000000000001101111010001001000100110000011111000000110100010000000000000000000000000000000000000000000000001111001100110110000000110100010100010110010110010110100000000000000000000000000000000000000000000000110000010010010010010010010100010001010001010001011001001100000000000000000000000000000000000000000110000000000000001110000000000110000000000000000000000000000000000001100000000000000000000000000000010000000000000000000000000000000000000000000000000000000000000000000000001111111111111111111111111111111111111111111000000000000000000000000000000000000000000000000000000000000000000000000000000000000000000000000000110000000000000001100000000000011",
"110000000000000000001111110111110000110011000110000010000000001100000000110000000000000000000000000000110000000000000000000001101011010001001000111110000011000000011110100110000000000000000000000000000000000000000000000000000101100000100000011110100010100010110010110010111000000000000000000000000000000000000000000000000110000010010010010011110011000011111011111010001011111001000000000000000000000000000000000000000000110000000000000001110000000000110000000000000000000000000000000000001100000000000000000000000000000010000000000000000000000000000000000000000000000000000000000000000000000001100001100000000001100000000001100000000001000000000000000000000000000000000000000000000000000000000000000000000000000000000000000000000000000110101011110101011100000000000011",
"110000000000000000001000010100000001000011001000000010000000001100000000110000000000000000000000000000110000000000000000000001100111010001001000111100000011000000110110100010000000000000000000000000000000000000000000000000000101100000100000111110100110100010110010110010111000000000000000000000000000000000000000000000000110000010010010010011110011100011110011110010001011110001000000000000000000000000000000000000000000110000000000000001110000000000110000000000000000000000000000000000001100000000000000000000000000000010000000000000000000000000000000000000000000000000000000000000000000000001100101100000000001100000000001100000000001000000000000000000000000000000000000000000000000000000000000000000000000000000000000000000000000000110000000000000001100000000000011",
"110000000000000000000000010111100010000011010000000111100110011110011100110000000000000000000000000000110000000000000000000001100111010001001000100000000011000000100110100010000000000000000000000000000000000000000000000011000101100110100000100110100110100010110010110010110100000000000000000000000000000000000000000000000110000010010010010010000010100010000010000010001011000001000000000000000000000000000000000000000000110000000000000001110000000000110000000000000000000000000000000000001100000000000000000000000000000010000000000000000000000000000000000000000000000000000000000000000000000001100001100000000001100000000001100000000001000000000000000000000000000000000000000000000000000000000000000000000000000000000000000000000000000110101011110101011100000000000011",
"110000000000000000000001100111110011110011100000000010001001101100000110110000000000000000000000000000110000000000000000000001100011001110000110011100000011000000011110011110000000000000000000000000000000000000000000000001111000011000100000011110111100111100011100001100110010000000000000000000000000000000000000000000000110000010010010010001110010011001110001110011110000111001000000000000000000000000000000000000000000110000000000000001110000000000110000000000000000000000000000000000001100000000011000000000000000000010000000000000000000000000000000000000000000000000000000000000000000000001111111111111111111111111111111111111111111000000000000000000000000000000000000000000000000000000000000000000000000000000000000000000000000000110000000000000001100000000000011",
"110000000000000000000011000000011011111011100000000010001001101100000110110000000000000000000000000000110000000000000000000000000000000000000000000000000000000000000000000000000000000000000000000000000000000000000000000000000000000000000000000000100000000000000000000000000000000000000000000000000000000000000000000000000000000000000000000000000000000000000000000010000000000000000000000000000000000000000000000000000000110000000000000001110000000000110000000000000000000000000000000000001100000000111000000000001100000010000000000000000000000000000000000000000000000000000000000000000000000001110011111111111111111111111111111111111001000000000000000000000000000000000000000000000000000000000000000000000000000000000000000000000000000110101011010101011100000000000011",
"110000000000000000000110000000011010001111010000000010001001101100011110110000000000000000000000000000110000000000000000000000000000000000000000000000000000000000000000000000000000000000000000000000000000000000000000000000000000000000000000000000100000000000000000000000000000000000000000000000000000000000000000000000000000000000000000000000000000000000000000000010000000000000000000000000000000000000000000000000000000110000000000000001110000000000110000000000000000000000000000000000001100000000011000000000001100000010000000000000000000000000000000000000000000000000000000000000000000000001100001100000000001100000000001100000000001000000000000000000000000000000000000000000000000000000000000000000000000000000000000000000000000000110000000000000001100000000000011",
"110000000000000000001100000100011010001111001000000010001001101100100110110000000000000000000000000000110000000000000000000000000000000000000000000000000000000000000000000000000000000000000000000000000000000000000000000000000000000000000000000000000000000000000000000000000000000000000000000000000000000000000000000000000000000000000000000000000000000000000000000000000000000000000000000000000000000000000000000000000000110000000000000001110000000000110000000000000000000000000000000000001100000000011000000000001100000010000000000000000000000000000000000000000000000000000000000000000000000001100101100000000001100000000001100000000001000000000000000000000000000000000000000000000000000000000000000000000000000000000000000000000000000110101011010101011100000000000011",
"110000000000000000001111110011100001110011000110000001100111000110011110110000000000000000000000000000110000000000000000000000000000000000000000000000000000000000000000000000000000000000000000000000000000000000000000000000000000000000000000000000000000000000000000000000000000000000000000000000000000000000000000000000000000000000000000000000000000000000000000000000000000000000000000000000000000000000000000000000000000110000000000000001110000000000110000000000000000000000000000000000001100000000011001110000001110000010000000000000000000000000000000000000000000000000000000000000000000000001100001100000000001100000000001100000000001000000000000000000000000000000000000000000000000000000000000000000000000000000000000000000000000000110000000000000001100000000000011",
"110000000000000000001111000000000000000000000000000000000000000000000100000000000000000000000000000000110000000000000000000000000000000000000000000000000000000000000000000000000000000000000000000000000000000000000000000000000000000000000000000000000000000000000000000000000000000000000000000000000000000000000000000000000000000000000000000000000000000000000000000000000000000000000000000000000000000000000000000000000000110000000000000001110000000000110000000000000000000000000000000000001100000000011001110000001110000010000000000000000000000000000000000000000000000000000000000000000000000001111111111111111111111111111111111111111111000000000000000000000000000000000000000000000000000000000000000000000000000000000000000000000000000110101011010101011100000000000011",
"110000000000000000000000000000000000000000000000000000000000000000000000000000000000000000000000000000110000000000000000000000000000000000000000000000000000000000000000000000000000000000000000000000000000000000000000000000000000000000000000000000000000000000000000000000000000000000000000000000000000000000000000000000000000000000000000000000000000000000000000000000000000000000000000000000000000000000000000000000000000110000000000000001110000000000110000000000000000000000000000000000001100000000111001110000001110000010000000000000000000000000000000000000000000000000000000000000000000000001100001100000000001100000000001100000000001000000000000000000000000000000000000000000000000000000000000000000000000000000000000000000000000000110000000000101011100000000000011",
"110000000000000000000000000000000000000000000000000000000000000000000000000000000000000000000000000000110000000000000000000000000000000000000000000000000000000000000000000000000000000000000000000000000000000000000000000000000000000000000000000000000000000000000000000000000000000000000000000000000000000000000000000000000000000000000000000000000000000000000000000000000000000000000000000000000000000000000000000000000000111111111111111111110000000000110000000000000000000000000000000000001100001110111001110000001110000010000000000000000000000000000000000000000000000000000000000000000000000001100101100000000001100000000001100000000001000000000000000000000000000000000000000000000000000000000000000000000000000000000000000000000000000110101011010101011100000000000011",
"110000000000000000000000000000000000000000000000000000000000000000000000000000000000000000000000000000110000000000000000000000000000000000000000000000000000000000000000000000000000000000000000000000000000000000000000000000000000000000000000000000000000000000000000000000000000000000000000000000000000000000000000000000000000000000000000000000000000000000000000000000000000000000000000000000000000000000000000000000000000111111111111111111110000000000110000000000000000000000000000000000001100001110111001110011101110000010000000000000000000000000000000000000000000000000000000000000000000000001100101100000000001100000000001100000000001000000000000000000000000000000000000000000000000000000000000000000000000000000000000000000000000000110001010010101011100000000000011",
"110000000000000000000000000000000000000000000000000000000000000000000000000000000000000000000000000000110000000000000000000000000000000000000000000000000000000000000000000000000000000000000000000000000000000000000000000000000000000000000000000000000000000000000000000000000000000000000000000000000000000000000000000000000000000000000000000000000000000000000000000000000000000000000000000000000000000000000000000000000000110000000000000001110000000000110000000000000000000000000000000000001100001110111001110011101110000010000000000000000000000000000000000000000000000000000000000000000000000001100001100000000001100000000001100000000001000000000000000000000000000000000000000000000000000000000000000000000000000000000000000000000000000110000010010101011100000000000011",
"110000000000000000000000000000000000000000000000000000000000000000000000000000000000000000000000000000110000000000000000000000000000000000000000000000000000000000000000000000000000000000000000000000000000000000000000000000000000000000000000000000000000000000000000000000000000000000000000000000000000000000000000000000000000000000000000000000000000000000000000000000000000000000000000000000000000000000000000000000000000110000000000000001110000000000110000000000000000000000000000000000001100001110111001110011101110000010000000000000000000000000000000000000000000000000000000000000000000000001111111111111111111111111111111111111111111000000000000000000000000000000000000000000000000000000000000000000000000000000000000000000000000000110000000000101011100000000000011",
"110000000000000000000000000000000000000000000000000000000000000000000000000000000000000000000000000000110000000000000000000000000000000000000000000000000000000000000000000000000000000000000000000000000000000000000000000000000000000000000000000000000000000000000000000000000000000000000000000000000000000000000000000000000000000000000000000000000000000000000000000000000000000000000000000000000000000000000000000000000000110000011111000001110000000000110000000000000000000000000000000000001100001110111001110011101110000010000000000000000000000000000000000000000000000000000000000000000000000001100001100000000001100000000001100000000001000000000000000000000000000000000000000000000000000000000000000000000000000000000000000000000000000110101011010101011100000000000011",
"110000000000000000000000000000000000000000000000000000000000000000000000000000000000000000000000000000110000000000000000000000000000000000000000000000000000000000000000000000000000000000000000000000000000000000000000000000000000000000000000000000000000000000000000000000000000000000000000000000000000000000000000000000000000000000000000000000000000000000000000000000000000000000000000000000000000000000000000000000000000110000011111000001110000000000110000000000000000000000000000000000001100001110111001110011101110000010000000000000000000000000000000000000000000000000000000000000000000000001100101100000000001100000000001100000000001000000000000000000000000000000000000000000000000000000000000000000000000000000000000000000000000000110100000010101011100000000000011",
"110000000000000000000000000000000000000000000000000000000000000000000000000000000000000000000000000000110000000000000000000000000000000000000000000000000000000000000000000000000000000000000000000000000000000000000000000000000000000000000000000000000000000000000000000000000000000000000000000000000000000000000000000000000000000000000000000000000000000000000000000000000000000000000000000000000000000000000000000000000000110000010001000001110000000000110000000000000000000000000000000000001100000000000000000000000000000010000000000000000000000000000000000000000000000000000000000000000000000001100001100000000001100000000001100000000001000000000000000000000000000000000000000000000000000000000000000000000000000000000000000000000000000110101011010101011100000000000011",
"110000000000000000000000000000000000000000000000000000000000000000000000000000000000000000000000000000110000000000000000000000000000000000000000000000000000000000000000000000000000000000000000000000000000000000000000000000000000000000000000000000000000000000000000000000000000000000000000000000000000000000000000000000000000000000000000000000000000000000000000000000000000000000000000000000000000000000000000000000000000110000010001000001110000000000110000000000000000000000000000000000001100000000000000000000000000000010000000000000000000000000000000000000000000000000000000000000000000000001100001100000000001100000000001100000000001000000000000000000000000000000000000000000000000000000000000000000000000000000000000000000000000000110100010010101011100000000000011",
"110000000000000000000000000000000000000000000000000000000000000000000000000000000000000000000000000000110000000000000000000000000000000000000000000000000000000000000000000000000000000000000000000000000000000000000000000000000000000000000000000000000000000000000000000000000000000000000000000000000000000000000000000000000000000000000000000000000000000000000000000000000000000000000000000000000000000000000000000000000000110000110001000001110000000000110000000000000000000000000000000000001100000000000000000000000000000010000000000000000000000000000000000000000000000000000000000000000000000001111111111111111111111111111111111111111111000000000000000000000000000000000000000000000000000000000000000000000000000000000000000000000000000110000000010101011100000000000011",
"110000000000000000000000000000000000000000000000000000000000000000000000000000000000000000000000000000110000000000000000000000000000000000000000000000000000000000000000000000000000000000000000000000000000000000000000000000000000000000000000000000000000000000000000000000000000000000000000000000000000000000000000000000000000000000000000000000000000000000000000000000000000000000000000000000000000000000000000000000000000110011110001111101110000000000110000000000000000000000000000000000001111111111111111111111111111111110000000000000000000000000000000000000000000000000000000000000000000000000000000000000000000000000000000000000000000000000000000000000000000000000000000000000000000000000000000000000000000000000000000000000000000000110101000010101011100000000000011",
"110000000000000000000000000000000000000000000000000000000000000000000000000000000000000000000000000000110000000000000000000000000000000000000000000000000000000000000000000000000000000000000000000000000000000000000000000000000000000000000000000000000000000000000000000000000000000000000000000000000000000000000000000000000000000000000000000000000000000000000000000000000000000000000000000000000000000000000000000000000000110011000000001101110000000000110000000000000000000000000000000000000000000000000000000000000000000000000000000000000000000000000000000000000000000000000000000000000000000000000000000000000000000000000000000000000000000000000000000000000000000000000000000000000000000000000000000000000000000000000000000000000000000110000010010101001100000000000011",
"110000000000000000000000000000000000000000000000000000000000000000000000000000000000000000000000000000110000000000000000000000000000000000000000000000000000000000000000000000000000000000000000000000000000000000000000000000000000000000000000000000000000000000000000000000000000000000000000000000000000000000000000000000000000000000000000000000000000000000000000000000000000000000000000000000000000000000000000000000000000110000100000110101110000000000110000000000000000000000000000000000000000000000000000000000000000000000000000000000000000000000000000000000000000000000000000000000000000000000000000000000000000000000000000000000000000000000000000000000000000000000000000000000000000000000000000000000000000000000000000000000000000000110000010010101011100000000000011",
"110000000000000000000000000000000000000000000000000000000000000000000000000000000000000000000000000000110000000000000000000000000000000000000000000000000000000000000000000000000000000000000000000000000000000000000000000000000000000000000000000000000000000000000000000000000000000000000000000000000000000000000000000000000000000000000000000000000000000000000000000000000000000000000000000000000000000000000000000000000000110000010001100101110000000000110000000000000000000000000000000000000000000000000000000000000000000000000000000000000000000000000000000000000000000000000000000000000000000000000000000000000000000000000000000000000000000000000000000000000000000000000000000000000000000000000000000000000000000000000000000000000000000110000000010101011100000000000011",
"110000000000000000000000000000000000000000000000000000000000000000000000000000000000000000000000000000110000000000000000000000000000000000000000000000000000000000000000000000000000000000000000000000000000000000000000000000000000000000000000000000000000000000000000000000000000000000000000000000000000000000000000000000000000000000000000000000000000000000000000000000000000000000000000000000000000000000000000000000000000110000010011100101110000000000110000000000000000000000000000000000000000000000000000000000000000000000000000000000000000000000000000000000000000000000000000000000000000000000000000000000000000000000000000000000000000000000000000000000000000000000000000000000000000000000000000000000000000000000000000000000000000000110000011010101011100000000000011",
"110000000000000000000000000000000000000000000000000000000000000000000000000000000000000000000000000000110000000000000000000000000000000000000000000000000000000000000000000000000000000000000000000000000000000000000000000000000000000000000000000000000000000000000000000000000000000000000000000000000000000000000000000000000000000000000000000000000000000000000000000000000000000000000000000000000000000000000000000000000000110000010010000101110000000000110000000000000000000000000000000000000000000000000000000000000000000000000000000000000000000000000000000000000000000000000000000000000000000000000000000000000000000000000000000000000000000000000000000000000000000000000000000000000000000000000000000000000000000000000000000000000000000110000010010101011100000000000011",
"110000000000000000000000000000000000000000000000000000000000000000000000000000000000000000000000000000110000000000000000000000000000000000000000000000000000000000000000000000000000000000000000000000000000000000000000000000000000000000000000000000000000000000000000000000000000000000000000000000000000000000000000000000000000000000000000000000000000000000000000000000000000000000000000000000000000000000000000000000000000110000011111111101110000000000110000000000000000000011110000000011100000000000000000001111000000000000000000001100000000000000000000000000000000000000000000000000000000000000000111110000000000001100000000000000110000000000000000000000000000000000000000000000000000000000000000000000000000000000000000000000000000000110100011010101011100000000000011",
"110000000000000000000000000000000000000000000000000000000000000000000000000000000000000000000000000000110000000000000000000000000000000000000000000000000000000000000000000000000000000000000000000000000000000000000000000000000000000000000000000000000000000000000000000000000000000000000000000000000000000000000000000000000000000000000000000000000000000000000000000000000000000000000000000000000000000000000000000000000000110000000000001001110000000000110000000000000000000110001000000001100000000000000000010001100000000000000000001100000000000000000000000000000000000000000000000000000000000000000100001000000000001100000000000000110000000000000000000000000000000000000000000000000000000000000000000000000000000000000000000000000000000110000000000000001100000000000011",
"110000000000000000000000000000000000000000000000000000000000000000000000000000000000000000000000000000110000000000000000000000000000000000000000000000000000000000000000000000000000000000000000000000000000000000000000000000000000000000000000000000000000000000000000000000000000000000000000000000000000000000000000000000000000000000000000000000000000000000000000000000000000000000000000000000000000000000000000000000000000100000000000000001110000000000110000000000000000000110000000000001100000000000000000010000000000000000000000001100000000000000000000000000000000000000000000000000000000000000000100001000000000001100000000000000110000000000000000000000000000000000000000000000000000000000000000000000000000000000000000000000000000000110101111010101011100000000000011",
"110000000000000000000000000000000000000000000000000000000000000000000000000000000000000000000000000000111111111111111111111111111111111111111111111111111111111111111111111111111111111111111111111111111111111111111111111111111111111111111111111111111111111111111111111111111111111111111111111111111111111111111111111111111111111111111111111111111111111111111111111111111111111111111111111111111111111111111111111111111111111111111111111111110000000000110000000000000000000110000001110001100111000111100000010000001111100111001111001111000000000000000000000000000000000000000000000000000000000000000100001001001100111100111100111001111000000000000000000000000000000000000000000000000000000000000000000000000000000000000000000000000000000110000000000000001100000000000011",
"110000000000000000000000000000000000000000000000000000000000000000000000000000000000000000000000000000111111111111111111111111111111111111111111111111111111111111111111111111111111111111111111111111111111111111111111111111111111111111111111111111111111111111111111111111111111111111111111111111111111111111111111111111111111111111111111111111111111111111111111111111111111111111111111111111111111111111111111111111111111111111111111111111110000000000110000000000000000000011110000001001101000101000000000010011101110000000101000101100100000000000000000000000000000000000000000000000000000000000000111110001001101001101001101000100100000000000000000000000000000000000000000000000000000000000000000000000000000000000000000000000000000000110100011010101011100000000000011",
"110000000000000000000000000000000000000000000000000000000000000000000000000000000000000000000000000000000000000000000000000000000000000000000000000000000000000000000000000000000000000000000000000000000000000000000000000000000000000000000000000000000000000000000000000000000000000000000000000000000000000000000000000000000000000000000000000000000000000000000000000000000000000000000000000000000000000000000000000000000000000000000000000000000000000000110000000000000000000000001000111001101111100111000000010000101100000111101000101100100000000000000000000000000000000000000000000000000000000000000100001001001101001101001101111100100000000000000000000000000000000000000000000000000000000000000000000000000000000000000000000000000000000110000000000000001100000000000011",
"110000000000000000000000000000000000000000000000000000000000000000000000000000000000000000000000000000000000000000000000000000000000000000000000000000000000000000000000000000000000000000000000000000000000000000000000000000000000000000000000000000000000000000000000000000000000000000000000000000000000000000000000000000000000000000000000000000000000000000000000000000000000000000000000000000000000000000000000000000000000000000000000000000000000000000110000000000000000000100001011111001101110000010100000010000101100001101101000101100100000000000000000000000000000000000000000000000000000000000000100001001001101001101001101100100100000000000000000000000000000000000000000000000000000000000000000000000000000000000000000000000000000000110101011110101011100000000000011",
"110000000000000000000000000000001111111111111111111110000000000000000000000000000000000000000000000000000000000000000000000000000000000000000000000000000000000000000000000000000000000000000000000000000000000000000000000000000000000000000000000000000000000000000000000000000000000000000000000000000000000000000000000000000000000000000000000000000000000000000000000000000000000000000000000000000000000000000000000000000000000000000000000000000000000000110000000000000000000110001011001001101100000000100000010001101100001000101000101100100000000000000000000000000000000000000000000000000000000000000100001001001101001101001101000000100000000000000000000000000000000000000000000000000000000000000000000000000000000000000000000000000000000110000000000000001100000000000011",
"110000000000000000000000000000001111111111111111111111000000000000000000000000000000000000000000000000000000000000000000000000000000000000000000000000000000000000000000000000000000000000000000000000000000000000000000000000000000000000000000000000000000000000000000000000000000000000000000000000000000000000000000000000000000000000000000000000000000000000000000000000000000000000000000000000000000000000000000000000000000000000000000000000000000000000110000000000000000000011110000111001100111101111000000001111001100000111101111001100100000000000000000000000000000000000000000000000000000000000000111110000111100111100111100111000011000000000000000000000000000000000000000000000000000000000000000000000000000000000000000000000000000000110101011010101011100000000000011",
"110000000000000000000000000000001000000000000000000111100000000000000000000000000000000000000000000000000000000000000000000000000000000000000000000000000000000000000000000000000000000000000000000000000000000000000000000000000000000000000000000000000000000000000000000000000000000000000000000000000000000000000000000000000000000000000000000000000000000000000000000000000000000000000000000000000000000000000000000000000000000000000000000000000000000000110000000000000000000000000000000000000000000000000000000000000000000000001000000000000000000000000000000000000000000000000000000000000000000000000000000000000000000000001100000000000000000000000000000000000000000000000000000000000000000000000000000000000000000000000000000000000000000110000000000101011100000000000011",
"110000000000000000000000000000001000000000000000000110110000000000000000000000000000000000000000000000000000000000000000000000000000000000000000000000000000000000000000000000000000000000000000000000000000000000000000000000000000000000000000000000000000000000000000000000000000000000000000000000000000000000000000000000000000000000000000000000000000000000000000000000000000000000000000000000000000000000000000000000000000000000000000000000000000000000110000000000000000000000000000000000000000000000000000000000000000000000001000000000000000000000000000000000000000000000000000000000000000000000000000000000000000000000111100000000000000000000000000000000000000000000000000000000000000000000000000000000000000000000000000000000000000000110111111010101011100000000000011",
"110000000000000000000000000000001000000000000000000110011000000000000000000000000000000000000000000000000000000000000000000000000000000000000000000000000000000000000000000000000000000000000000000000000000000000000000000000000000000000000000000000000000000000000000000000000000000000000000000000000000000000000000000000000000000000000000000000000000000000000000000000000000000000000000000000000000000000000000000000000000000000000000000000000000000000110000000000000000000000000000000000000000000000000000000000000000000000001000000000000000000000000000000000000000000000000000000000000000000000000000000000000000000000111000000000000000000000000000000000000000000000000000000000000000000000000000000000000000000000000000000000000000000110000000010101011100000000000011",
"110000000000000000000000000000001000000000000000000110001100000000000000000000000000000000000000000000000000000000000000000000000000000000000000000000000000000000000000000000000000000000000000000000000000000000000000000000000000000000000000000000000000000000000000000000000000000000000000000000000000000000000000000000000000000000000000000000000000000000000000000000000000000000000000000000000000000000000000000000000000000000000000000000000000000000110000000000000000000000000000000000000000000000000000000000000000000000000000000000000000000000000000000000000000000000000000000000000000000000000000000000000000000000000000000000000000000000000000000000000000000000000000000000000000000000000000000000000000000000000000000000000000000110101011010101011100000000000011",
"110000000000000000000000000000001000110111011111100111111100000000000000000000000000000000000000000000000000000000000000000000000000000000000000000000000000000000000000000000000000000000000000000000000000000000000000000000000000000000000000000000000000000000000000000000000000000000000000000000000000000000000000000000000000000000000000000000000000000000000000000000000000000000000000000000000000000000000000000000000000000000000000000000000000000000110000000000000000000000000000000000000000000000000000000000000000000000000000000000000000000000000000000000000000000000000000000000000000000000000000000000000000000000000000000000000000000000000000000000000000000000000000000000000000000000000000000000000000000000000000000000000000000110000000010101011100000000000011",
"110000000000000000000000000000001000000000000000000111111110000000000000000000000000000000000000000000000000000000000000000000000000000000000000000000000000000000000000000000000000000000000000000000000000000000000000000000000000000000000000000000000000000000000000000000000000000000000000000000000000000000000000000000000000000000000000000000000000000000000000000000000000000000000000000000000000000000000000000000000000000000000000000000000000000000110000000000000000000000000000000000000000000000000000000000000000000000000000000000000000000000000000000000000000000000000000000000000000000000000000000000000000000000000000000000000000000000000000000000000000000000000000000000000000000000000000000000000000000000000000000000000000000110100011010101011100000000000011",
"110000000000000000000000000000001000000000000000000000000110000000000000000000000000000000000000000000000000000000000000000000000000000000000000000000000000000000000000000000000000000000000000000000000000000000000000000000000000000000000000000000000000000000000000000000000000000000000000000000000000000000000000000000000000000000000000000000000000000000000000000000000000000000000000000000000000000000000000000000000000000000000000000000000000000000110000000000000000000000000000000000000000000000000000000000000000000000000000000000000000000000000000000000000000000000000000000000000000000000000000000000000000000000000000000000000000000000000000000000000000000000000000000000000000000000000000000000000000000000000000000000000000000110000000010101011100000000000011",
"110000000000000000000000000000001000000000000000000000000110000000000000000000000000000000000000000000000000000000000000000000000000000000000000000000000000000000000000000000000000000000000000000000000000000000000000000000000000000000000000000000000000000000000000000000000000000000000000000000000000000000000000000000000000000000000000000000000000000000000000000000000000000000000000000000000000000000000000000000000000000000000000000000000000000000110000000000000000000000000000000000000000000000000000000000000000000000000000000000000000000000000000000000000000000000000000000000000000000000000000000000000000000000000000000000000000000000000000000000000000000000000000000000000000000000000000000000000000000000000000000000000000000110000001010101001100000000000011",
"110000000000000000000000000000001000111111111110111111000110000000000000000000000000000000000000000000000000000000000000000000000000000000000000000000000000000000000000000000000000000000000000000000000000000000000000000000000000000000000000000000000000000000000000000000000000000000000000000000000000000000000000000000000000000000000000000000000000000000000000000000000000000000000000000000000000000000000000000000000000000000000000000000000000000000110000000000000000000000000000000000000000000000000000000000000000000000000000000000000000000000000000000000000000000000000000000000000000000000000000000000000000000000000000000000000000000000000000000000000000000000000000000000000000000000000000000000000000000000000000000000000000000110101010010101011100000000000011",
"110000000000000000000000000000001000000000000000000000000110000000000000000000000000000000000000000011111111111111111111111111111111111111111111111111111111111111111111111111111111111111111111111111111111111111111111111111111111111111111111111111111111111111111111111111111111111111111111111111111111111111111111111111111111111111111111111111111111111111111111111111111111111111111111111111111111111111111111111111111111111111111111111111111100000000110000000000000000000000000000000000000000000000000000000000000000000000000000000000000000000000000000000000000000000000000000000000000000000000000000000000000000000000000000000000000000000000000000000000000000000000000000000000000000000000000000000000000000000000000000000000000000000110000000000000001100000000000011",
"110000000000000000000000000000001000000000000000000000000110000000000000000000000000000000000000000010000000111111000000000000000000000000000000000000000000001111111100000011100000000000000000000000000000000000000000000000000000000000000000000000000000010000000000100000000000001111111111100000000000000000000000000000001111100000000000000000000000000000001110000000000000000000001111110111100100000000000000000000000000000000000000000001111100000000110000000000000000000000000000000000000000000000000000000000000000000000000000000000000000000000000000000000000000000000000000000000000000000000000000000000000000000000000000000000000000000000000000000000000000000000000000000000000000000000000000000000000000000000000000000000000000000111111111111111111100000000000011",
"110000000000000000000000000000001000111110111011111111000110000000000000000000000000000000000000000010000000000000000000000000000000000000000000000000000000000000000000000000000000000000000000000000000000000000000000000000000000000000000000000000000000000000000000000000000000000000000000000000000000000000000000000000000000000000000000000000000000000000000000000000000000000000000000000000000000000000000000000000000000000000000000000000001100000000110000000000000000000000000000000000000000000000000000000000000000000000000000000000000000000000000000000000000000000000000000000000000000000000000000000000000000000000000000000000000000000000000000000000000000000000000000000000000000000000000000000000000000000000000000000000000000000111111111111111111100000000000011",
"110000000000000000000000000000001000000000010000000001000110000000000000000000000000000000000000000010011111111111111111111111111111111111111111111111111111111111111111111111111111111111111111111111111110000000000000000000000000000000000000000000000000000000000000000000000000000000000000000000000000000000000000000000000000000000000000000011111111111111111111111111111111111111111111111111111111111111111111111111111111111111111111111111111100000000110000000000000000000000000000000000000000000000000000000000000000000000000000000000000000000000000000000000000000000000000000000000000000000000000000000000000000000000000000000000000000000000000000000000000000000000000000000000000000000000000000000000000000000000000000000000000000000110000000000000001100000000000011",
"110000000000000000000000000000001000000000000000000000000110000000000000000000000000000000000000000010111111111111111111111111111111111111111111111111111111111111111111111111111111111111111111111111111110000000000000000000000000000000000000000000000000000000000000000000000000000000000000000000000000000000000000000000000000000000000000000111111111111111111111111111111111111111111111111111111111111111111111111111111111111111111111111111111100000000110000000000000000000000000000000000000000000000000000000000000000000000000000000000000000000000000000000000000000000000000000000000000000000000000000000000000000000000000000000000000000000000000000000000000000000000000000000000000000000000000000000000000000000000000000000000000000000110000000000000001100000000000011",
"110000000000000000000000000000001000000000000000000000000110000000000000000000000000000000000000000010001100000000000001100000000000000000000000000000000000000000000000000000000000000000000000000000000000000000000000000000000000000000000000000000000000000000000000000000000000000000000000000000000000000000000000000000000000000000000000000000000000000000000000000000000000000000000000000000000000000000000000000000000000000000000000000000001100000000110000000000000000000000000000000000000000000000000000000000000000000000000000000000000000000000000000000000000000000000000000000000000000000000000000000000000000000000000000000000000000000000000000000000000000000000000000000000000000000000000000000000000000000000000000000000000000000110000000000000001100000000000011",
"110000000000000000000000000000001000111111011110111101000110000000000000000000000000000000000000000010111000000000000001111111111111111111111111111111111111111111111111111111111111111111111111111111111110000000000000000000000001110000110000110000110000000000000011100000000011000000000000000000000011111100000000000011000000000001110000000111111111111111111111111111111111111111111111111111111111111111111111111111111111111111111111111111111100000000110000000000000000000000000000000000000000000000000000000000000000000000000000000000000000000000000000000000000000000000000000000000000000000000000000000000000000000000000000000000000000000000000000000000000000000000000000000000000000000000000000000000000000000000000000000000000000000110000011111000001100000000000011",
"110000000000000000000000000000001000000000000000000000000110000000000000000000000000000000000000000010000000110000110001100000000000000000000000000000000000000000000000000000000000000000000000000000000000000000000000000000000001110000110000110000110000000000000011000000000111000000000000000000000011100110000000000011000000000001110000000000000000000000000000000000000000000000000000000000000000000000000000000000000000000000000000000000001100000000110000000000000000000000000000000000000000000000000000000000000000000000000000000000000000000000000000000000000000000000000000000000000000000000000000000000000000000000000000000000000000000000000000000000000000000000000000000000000000000000000000000000000000000000000000000000000000000110000010001000001100000000000011",
"110000000000000000000000000000001000000000000000000000000110000000000000000000000000000000000000000010111000111001110001111111111111111111111111111111111111111111111111111111111111111111111111111111111110000000000000000000000001110000000000110000110000000000000011000000000111000000000000000000000011100110000000000000000000000001110000000111111111111111111111111111111111111111111111111111111111111111111111111111111111111111111111111111111100000000110000000000000000000000000000000000000000000000000000000000000000000000000000000000000000000000000000000000000000000000000000000000000000000000000000000000000000000000000000000000000000000000000000000000000000000000000000000000000000000000000000000000000000000000000000000000000000000110000010001000001100000000000011",
"110000000000000000000000000000001000000000000000000000000110000000000000000000000000000000000000000010111000011111100001111111111111111111111111111111111111111111111111111111111111111111111111111111111110000000110011001111100011111101110011111000110001111000011111000000000011000000000000000000000011000110001111000111001111100011111000000111111111111111111111111111111111111111111111111111111111111111111111111111111111111111111111111111111100000000110000000000000000000000000000000000000000000000000000000000000000000000000000000000000000000000000000000000000000000000000000000000000000000000000000000000000000000000000000000000000000000000000000000000000000000000000000000000000000000000000000000000000000000000000000000000000000000110000010001000001100000000000011",
"110000000000000000000000000000001000111111111111111111000110000000000000000000000000000000000000000010000000001111100001100000000000000000000000000000000000000000000000000000000000000000000000000000000000000000110011001111110011111000110011111000110011111100111111000000000011000000000000000000000011000110001111100111001111110011110000000000000000000000000000000000000000000000000000000000000000000000000000000000000000000000000000000000001100000000110000000000000000000000000000000000000000000000000000000000000000000000000000000000000000000000000000000000000000000000000000000000000000000000000000000000000000000000000000000000000000000000000000000000000000000000000000000000000000000000000000000000000000000000000000000000000000000110011110001111001100000000000011",
"110000000000000000000000000000001000000000000000000000000110000000000000000000000000000000000000000010111000001111000001111111111111111111111111111111111111111111111111111111111111111111111111111111111110000000110011001100110001110000110000110000110011001100110011000000000011000000000111111000000011111110001001110011001100111001110000000111111111111111111111111111111111111111111111111111111111111111111111111111111111111111111111111111111100000000110000000000000000000000000000000000000000000000000000000000000000000000000000000000000000000000000000000000000000000000000000000000000000000000000000000000000000000000000000000000000000000000000000000000000000000000000000000000000000000000000000000000000000000000000000000000000000000110011000000011101100000000000011",
"110000000000000000000000000000001000000000000000000000000110000000000000000000000000000000000000000010000000011111100001100000000000000000000000000000000000000000000000000000000000000000000000000000000000000000110011001100110001110000110000110000110011111100110011000000000011000000000000000000000011111100001111110011001100111001110000000000000000000000000000000000000000000000000000000000000000000000000000000000000000000000000000000000001100000000110000000000000000000000000000000000000000000000000000000000000000000000000000000000000000000000000000000000000000000000000000000000000000000000000000000000000000000000000000000000000000000000000000000000000000000000000000000000000000000000000000000000000000000000000000000000000000000110001100000111101100000000000011",
"110000000000000000000000000000001000000000000000000000000110000000000000000000000000000000000000000010111000111001110001111111111111111111111111111111111111111111111111111111111111111111111111111111111110000000110011001100110001110000110000110000110011000000110011000000000011000000000000000000000011000000011001110011001100111001110000000111111111111111111111111111111111111111111111111111111111111111111111111111111111111111111111111111111100000000110000000000000000000000000000000000000000000000000000000000000000000000000000000000000000000000000000000000000000000000000000000000000000000000000000000000000000000000000000000000000000000000000000000000000000000000000000000000000000000000000000000000000000000000000000000000000000000110000110011101101100000000000011",
"110000000000000000000000000000001000110111111101111111000110000000000000000000000000000000000000000010011000110000110001100000000000000000000000000000000000000000000000000000000000000000000000000000000000000000110011001100110001110000110000110000110011001100110011000000000011000000000000000000000011000000011001110011001100111001110000000000000000000000000000000000000000000000000000000000000000000000000000000000000000000000000000000000011100000000110000000000000000000000000000000000000000000000000000000000000000000000000000000000000000000000000000000000000000000000000000000000000000000000000000000000000000000000000000000000000000000000000000000000000000000000000000000000000000000000000000000000000000000000000000000000000000000110000010111001101100000000000011",
"110000000000000000000000000000001000000000000000000000000110000000000000000000000000000000000000000010001000100000000001100000000000000000000000000000000000000000000000000000000000000000000000000000000000000000111111001100110000111000110000111100110011111100111111000000001111110000000000000000000011000000011111110011001100111000111000000000000000000000000000000000000000000000000000000000000000000000000000000000000000000000000000000000011100000000110000000000000000000000000000000000000000000000000000000000000000000000000000000000000000000000000000000000000000000000000000000000000000000000000000000000000000000000000000000000000000000000000000000000000000000000000000000000000000000000000000000000000000000000000000000000000000000110000010110001101100000000000011",
"110000000000000000000000000000001000000000000000000000000110000000000000000000000000000000000000000010111000000000000001111111111111111111111111111111111111111111111111111111111111111111111111111111111110000000011111001100110000011000110000011100110001111000011111000000001111110000000000000000000011000000001111100011001100110000011000000111111111111111111111111111111111111111111111111111111111111111111111111111111111111111111111111111111100000000110000000000000000000000000000000000000000000000000000000000000000000000000000000000000000000000000000000000000000000000000000000000000000000000000000000000000000000000000000000000000000000000000000000000000000000000000000000000000000000000000000000000000000000000000000000000000000000110000011101111101100000000000011",
"110000000000000000000000000000001000000000000000000000000110000000000000000000000000000000000000000010000000000000000001100000000000000000000000000000000000000000000000000000000000000000000000000000000000000000000000000000000000000000000000000000000000000000000000000000000000000000000000000000000000000000000000000000000000000000000000000000000000000000000000000000000000000000000000000000000000000000000000000000000000000000000000000000001100000000110000000000000000000000000000000000000000000000000000000000000000000000000000000000000000000000000000000000000000000000000000000000000000000000000000000000000000000000000000000000000000000000000000000000000000000000000000000000000000000000000000000000000000000000000000000000000000000110000011111111101100000000000011",
"110000000000000000000000000000001000111111111110111111000110000000000000000000000000000000000000000010111111111111111111111111111111111111111111111111111111111111111111111111111111111111111111111111111110000000000000000000000000000000000000000000000000000000000000000000000000000000000000000000000000000000000000000000000000000000000000000111111111111111111111111111111111111111111111111111111111111111111111111111111111111111111111111111111100000000110000000000000000000000000000000000000000000000000000000000000000000000000000000000000000000000000000000000000000000000000000000000000000000000000000000000000000000000000000000000000000000000000000000000000000000000000000000000000000000000000000000000000000000000000000000000000000000110000000000000001100000000000011",
"110000000000000000000000000000001000000000000000000000000110000000000000000000000000000000000000000010000000000000000000000000000000000000000000000000000000000000000000000000000000000000000000000000000000000000000000000000000000000000000000000000000000000000000000000000000000000000000000000000000000000000000000000000000000000000000000000000000000000000000000000000000000000000000000000000000000000000000000000000000000000000000000000000011100000000111111111111111111111111111111111111111111111111111111111111111111111111111111111111111111111111111111111111111111111111111111111111111111111111111111111111111111111111111111111111111111111111111111111111111111111111111111111111111111111111111111111111111111111111111111111111111111111111111111111111111100000000000011",
"110000000000000000000000000000001000000000000000000000000110000000000000000000000000000000000000000010000000000000000000000000000000000000000000000000000000000000000000000000000000000000000000000000000000000000000000000000000000000000000000000000000000000000000000000000000000000000000000000000000000000000000000000000000000000000000000000000000000000000000000000000000000000000000000000000000000000000000000000000000000000000000000000000001100000000111111111111111111111111111111111111111111111111111111111111111111111111111111111111111111111111111111111111111111111111111111111111111111111111111111111111111111111111111111111111111111111111111111111111111111111111111111111111111111111111111111111111111111111111111111111111111111111111111111111111111100000000000011",
"110000000000000000000000000000001000000000000000000000000110000000000000000000000000000000000000000011111111111111111111111111111100111111111111111111111000011111111111100111111111111100011111111111111110000111110000000111111000000001111111111111110000000111100001111111111111111101111111111111111111111100000000000111111111000000011111111111111111111111111111111111111111111111111111111111111111111111111111111111111111111111111111111101111100000000111111111111111111111111111111111111111111111111111111111111111111111111111111111111111111111111111111111111111111111111111111111111111111111111111111111111111111111111111111111111111111111111111111111111111111111111111111111111111111111111111111111111111111111111111111111111111111111111111111111111111100000000000011",
"110000000000000000000000000000001000000000000000000000000110000000000000000000000000000000000000000011111111111111111111111111111111111111111111111111111111111111111111111111111111111111111111111111111111111111111111111111111111111111111111111111111111111111111111111111111111111111111111111111111111111111111111111111111111111111111111111111111111111111111111111111111111111111111111111111111111111111111111111111111111111111111111111111111100000000000000000000000000000000000000000000000000000000000000000000000000000000000000000000000000000000000000000000000000000000000000000000000000000000000000000000000000000000000000000000000000000000000000000000000000000000000000000000000000000000000000000000000000000000000000000000000000000000000000000000000000000000000011",
"110000000000000000000000000000001111111111110001111111111110000000000000000000000000000000000000000011111111111111111111111111111111111111111111111111111111111111111111111111111111111111111111111111111111111111111111111111111111111111111111111111111111111111111111111111111111111111111111111111111111111111111111111111111111111111111111111111111111111111111111111111111111111111111111111111111111111111111111111111111111111111111111111111111100000000000000000000000000000000000000000000000000000000000000000000000000000000000000000000000000000000000000000000000000000000000000000000000000000000000000000000000000000000000000000000000000000000000000000000000000000000000000000000000000000000000000000000000000000000000000000000000000000000000000000000000000000000000011",
"110000000000000000000000000000001111111111111111111111111110000000000000000000000000000000000000000010000000000000000000000000000000000000000000000000000000000000000000001100000000000000000000000000000000000000000000000000000000000000000000000000000000000000000000000000000000000000000000000000000000000000000000000000000000000000000000000000000000000000000000000000000000000000000000000000000000000000000000000000000000001100000000000000001100000000000000000000000000000000000000000000000000000000000000000000000000000000000000000000000000000000000000000000000000000000000000000000000000000000000000000000000000000000000000000000000000000000000000000000000000000000000000000000000000000000000000000000000000000000000000000000000000000000000000000000000000000000000011",
"110000000000000000000000000000000000000000000000000000000000000000000000000000000000000000000000000010000000000000000000000000000000000000000000000000000000000000000000001100000000000000000000000000000000000000000000000000000000000000000000000000000000000000000000000000000000000000000000000000000000000000000000000000000000000000000000000000000000000000000000000000000000000000000000000000000000000000000000000000000000001100000000000000001100000000000000000000000000000000000000000000000000000000000000000000000000000000000000000000000000000000000000000000000000000000000000000000000000000000000000000000000000000000000000000000000000000000000000000000000000000000000000000000000000000000000000000000000000000000000000000000000000000000000000000000000000000000000011",
"110000000000000000000000000000000000000000000000000000000000000000000000000000000000000000000000000010000000000000000000000000000000011111111000000000000000000000000000001100000000000000000000000000000000000000000000000000000000000000000000000000000000000000000000000000000000000000000000000000000000000000000000000000000000000000000000000000000000000000000000000000000000000000000000000000000000000000000000000000000000001100000001100000001100000000000000000000000000000000000000000000000000000000000000000000000000000000000000000000000000000000000000000000000000000000000000000000000000000000000000000000000000000000000000000000000000000000000000000000000000000000000000000000000000000000000000000000000000000000000000000000000000000000000000000000000000000000000011",
"110000000000000000000000000000000000000000000000000000000000000000000000000000000000000000000000000010000111111111111111111111111111111111111111111111111111111111000000001100000000000000000000000000000000000000000000000000000000000000000000000000000000000000000000000000000000000000000000000000000000000000000000000000000110001101100110000000000000000000000000000000000000000000000000000000000000000000000000000000000000001100000011100000001100000000000000000000000000000000000000000000000000000000000000000000000000000000000000000000000000000000000000000000000000000000000000000000000000000000000000000000000000000000000000000000000000000000000000000000000000000000000000000000000000000000000000000000000000000000000000000000000000000000000000000000000000000000000011",
"110000000000000000000000000000000000000000000000000000000000000000000000000000000000000000000000000010000100000000000000000000000000110000000000000000000000000001000000001100000000000000000000000000000000000000000000000000000000000000000000000000000000000000000000000000000000000000000000000000000000000000000000000000000100000001100000000000000000000000000000000000000000000000000000000000000000000000000000000000000000001100000110110000001100000000000000000000000000000000000000000000000000000000000000000000000000000000000000000000000000000000000000000000000000000000000000000000000000000000000000000000000000000000000000000000000000000000000000000000000000000000000000000000000000000000000000000000000000000000000000000000000000000000000000000000000000000000000011",
"110000000000000000000000000000000000000000000010000000000000100000000000000000000000000000000000000010000110000000000000000000000000110000000000001000000000000001000000001100000000000000000000000000000000000000000000000000000000000000000000000000000000000000000000000000000000000000000000000000000000000000000000000000000000000000000000000000000000000000000000000000000000000000000000000000000000000000000000000000000000001100001100011000011100000000000000000000000000000000000000000000000000000000000000000000000000000000000000000000000000000000000000000000000000000000000000000000000000000000000000000000000000000000000000000000000000000000000000000000000000000000000000000000000000000000000000000000000000000000000000000000000000000000000000000000000000000000000011",
"110000000000000000000011111000000000000000000010000011100001100000000000000000000000000000000000000010000100000011011011011011000000110000000000011110000000000001000000001100000000000000000000000000000000000000000000000000000000000000000000000000000000000000000000000000000000000000000000000000000000000000000000000000100000100010110000000000000000000000000000000000000000000000000000000000000000000000000000000000000000001100011100001100011100000000000000000000000000000000000000000000000000000000000000000000000000000000000000000000000000000000000000000000000000000000000000000000000000000000000000000000000000000000000000000000000000000000000000000000000000000000000000000000000000000000000000000000000000000000000000000000000000000000000000000000000000000000000011",
"110000000000000000000011000100000000000000000010000011100011100000000000000000000000000000000000000010000100000011000000000001000000110000000000110011000000000001000000001100000000000000000000000000000000000000000000000000000000000000000000000000000000000000000000000000000000000000000000000000000000000000000000000000000110001000110000000000000000000000000000000000000000000000000000000000000000000000000000000000000000001100011100011100011100000000000000000000000000000000000000000000000000000000000000000000000000000000000000000000000000000000000000000000000000000000000000000000000000000000000000000000000000000000000000000000000000000000000000000000000000000000000000000000000000000000000000000000000000000000000000000000000000000000000000000000000000000000000011",
"110000000000000000000011000100011100011100011110000011010110100011000000000000000000000000000000000010000100000010000000000001000000110000000000111101110000000001000000001100000000000000000000000000000000000000000000000000000000000000000000000000000000000000000000000000000000000000000000000000000000000000000000000000000100000000000000000000000000000000000000000000000000000000000000000000000000000000000000000000000000001100011100011100001100000000000000000000000000000000000000000000000000000000000000000000000000000000000000000000000000000000000000000000000000000000000000000000000000000000000000000000000000000000000000000000000000000000000000000000000000000000000000000000000000000000000000000000000000000000000000000000000000000000000000000000000000000000000011",
"110000000000000000000011111100111100011100111110000011001100101111100000000000000000000000000000000010000100000000000000000000000000110000000001111111111000000001000000001100000000000000000000000000000000000000000000000000000000000000000000000000000000000000000000000000000000000000000000000000000000000000000000000100001000000000000000000000000000000000000000000000000000000000000000000000000000000000000000000000000000001100000100010000001100000000000000000000000000000000000000000000000000000000000000000000000000000000000000000000000000000000000000000000000000000000000000000000000000000000000000000000000000000000000000000000000000000000000000000000000000000000000000000000000000000000000000000000000000000000000000000000000000000000000000000000000000000000000011",
"110000000000000000000011111000100110000010100010000011001000101100100000000000000000000000000000000010000100000010000000000001000000110000000011101110011110000001000000001100000000000000000000000000000000000000000000000000000000000000000000000000000000000000000000000000000000000000000000000000000000010011000000010000110000100001000000000000000000000000000000000000000000000000000000000000000000000000000000000000000000001100000100010000001100000000000000000000000000000000000000000000000000000000000000000000000000000000000000000000000000000000000000000000000000000000000000000000000000000000000000000000000000000000000000000000000000000000000000000000000000000000000000000000000000000000000000000000000000000000000000000000000000000000000000000000000000000000000011",
"110000000000000000000011010000111110011110100010000011000000101111100000000000000000000000000000000010000100000000000000000001000000110000000111001111101111000001000000001100000000000000000000000000000000000000000000000000000000000000000000000000000000000000000000000000000000000000000000000000000000011011001000000000000000110010000000000000000000000000000000000000000000000000000000000000000000000000000000000000000000001100000100010000001100000000000000000000000000000000000000000000000000000000000000000000000000000000000000000000000000000000000000000000000000000000000000000000000000000000000000000000000000000000000000000000000000000000000000000000000000000000000000000000000000000000000000000000000000000000000000000000000000000000000000000000000000000000000011",
"110000000000000000000011001000100000100110100010000011000000101100000000000000000000000000000000000010000100000010000000000001000000110000001110101101110011000001000000001100000000000000000000000000000000000000000000000000000000000000000000000000000000000000000000000000000000000000000000000000000101000000000000000011000100000000000000000000000000000000000000000000000000000000000000000000000000000000000000000000000000001100000111110000001100000000000000000000000000000000000000000000000000000000000000000000000000000000000000000000000000000000000000000000000000000000000000000000000000000000000000000000000000000000000000000000000000000000000000000000000000000000000000000000000000000000000000000000000000000000000000000000000000000000000000000000000000000000000011",
"110000000000000000000011001000100000100110100010000011000000101100000000000000000000000000000000000010000100000010000000000001000000110000011101011010111011000001000000001100000000000000000000000000000000000000000000000000000000000000000000000000000000000000000000000000000000000000000000000001100000000100001000101100000000000000000000000000000000000000000000000000000000000000000000000000000000000000000000000000000000001100000111110000001100000000000000000000000000000000000000000000000000000000000000000000000000000000000000000000000000000000000000000000000000000000000000000000000000000000000000000000000000000000000000000000000000000000000000000000000000000000000000000000000000000000000000000000000000000000000000000000000000000000000000000000000000000000000011",
"110000000000000000000011000110011100011110011110000011000001100111100000000000000000000000000000000010000110000010000000000001000000110000111010101101011011000001000000001100000000000000000000000000000000000000000000000000111100011110000000000000000000000000000000000000000000000000000000000001000011000100100001000000000000000000000000000000000000000000000000000000000000000000000000000000000000000000000000000000000000001100000000000000001100000000000000000000000000000000000000000000000000000000000000000000000000000000000000000000000000000000000000000000000000000000000000000000000000000000000000000000000000000000000000000000000000000000000000000000000000000000000000000000000000000000000000000000000000000000000000000000000000000000000000000000000000000000000011",
"110000000000000000000000000000000000000000000000000000000000000000000000000000000000000000000000000010000110000010000000000001000000110000011101011010111011000001000000001100000000000000000000000000000000000000000000000000000110111000000000000000000000000000000000000000000000000000000000000000000000000000100000000001000000000000000000000000000000000000000000000000000000000000000000000000000000000000000000000000000000001100000000000000001100000000000000000000000000000000000000000000000000000000000000000000000000000000000000000000000000000000000000000000000000000000000000000000000000000000000000000000000000000000000000000000000000000000000000000000000000000000000000000000000000000000000000000000000000000000000000000000000000000000000000000000000000000000000011",
"110000000000000000000000000000000000000000000000000000000000000000000000000000000000000000000000000010000110000010000000000001000000110000011110110111111011000001000000001100000000000000000000000000000000000000000000000000000111110000000000000000000000000000000000000000000000000000000000000100001000010000000100000001000000000000000000000000000000000000000000000000000000000000000000000000000000000000000000000000000000001111111111111111111100000000000000000000000000000000000000000000000000000000000000000000000000000000000000000000000000000000000000000000000000000000000000000000000000000000000000000000000000000000000000000000000000000000000000000000000000000000000000000000000000000000000000000000000000000000000000000000000000000000000000000000000000000000000011",
"110000000000000000000000000000000000000000000000000000000000000000000000000000000000000000000000000010000110000010000000000001000000110000000111101111100111000001000000001100000000000000000000000000000000000000000000000000000001100000000000000000000000000000000000000000000000000000000000001100110000001000000110010000000000000000000000000000000000000000000000000000000000000000000000000000000000000000000000000000000000001111111111111111111100000000000000000000000000000000000000000000000000000000000000000000000000000000000000000000000000000000000000000000000000000000000000000000000000000000000000000000000000000000000000000000000000000000000000000000000000000000000000000000000000000000000000000000000000000000000000000000000000000000000000000000000000000000000011",
"110000000000000000000000000000000000000000000000000000000000000000000000000000000000000000000000000010000110000010000000000001000000110000000011010111000011100001000000001100000000000000000000000000000000000000000000000000000000000000000000000000000000000000000000000000000000000000010000001000000010000000001000000000000000000000000000000000000000000000000000000000000000011110001111000000000000000000000000000000000000001100000000000100001100000000000000000000000000000000000000000000000001111111111111111111111111111111111111111111111111111111111111111111111111111111111111111111111111111111111111111111111111111111111111111111111111111111111111111111111111111000000000000000000000000000000000000000000000000000000000000000000000000000000000000000000000000000000011",
"110000000000000000000000000000000000000000000000000000000000000000000000000000000000000000000000000010000110000011011011011011000000110000000001111110000001000001000000001100000000000000000000000000000000000000000000000000000000000000000000000000000000000000000000000000000000000011010011000000100011100010000000000000000000000000000000000000000000000000000000000000000000000111011000000000000000000000000000000000000000001100101010101000111100000000000000000000000000000000000000000000000001100000000000000000000000000000000000000000000000000000000000000000000000000000000000000000000000000000000000000000000000000000000000000000000000000000000000000000000000011000000000000000000000000000000000000000000000000000000000000000000000000000000000000000000000000000000011",
"110000000000000000000000111000000010001000001110000000100010000011100000000000000000000000000000000010000110000000000000000000000000110000000000111100000000000001000000001100000000000000000000000000000000000000000000000000000000000000000000000000000000000000000000000000000000000000000000000110000000000100000000000000000000000000000000000000000000000000000000000000000000000011110000000000000000000000000000000000000000001100101000100110111100000000000000000000000000000000000000000000000001100000000000000000000000000000000000000000000000000000000000000000000000000000000000000000000000000000000000000000000000000000000000000000000000000000000000000000000000011000000000000000000000000000000000000000000000000000000000000000000000000000000000000000000000000000000011",
"110000000000000000000011111100000010001000001110000000100111000011100000000000000000000000000000000010000110000000000000000000000000110000000000000000000000000001000000001100000000000000000000000000000000000000000000000000000000000000000000000000000000000000000000000000000000000000000000010000001000000000000000000000000000000000000000000000000000000000000000000000000000000001100000000000000000000000000000000000000000001100101010100000011100000000000000000000000000000000000000000000000001101111111111111111111111111111111111111111111111111111111111110000000000000000000000000000000000000000000111111111111111111111111111111111111111111111111111111111111111111000000000000000000000000000000000000000000000000000000000000000000000000000000000000000000000000000000011",
"110000000000000000000000000100000100011000110001000001001000110100010000000000000000000000000000000010000110000000000000000000000000110000000000000000000000000001000000001100000000000000000000000000000000000000000000000000000000000000000000000000000000000000000000000000000000100100001000000000001000000000000000000000000000000000000000000000000000000000000000000000000000000000000000000000000000000000000000000000000000001100000000001010111100000000000000000000000000000000000000000000000001100010000000000000011000000000000000000000000000000000000000000000000000000000000000000000000000000000000000000000000000000000000000000000000000000000000000000000000000011000000000000000000000000000000000000000000000000000000000000000000000000000000000000000000000000000000011",
"110000000000000000000000001000001100001000000001000001001000110100010000000000000000000000000000000010000111111111111111111111111111111111111111111111111111111111000000001100000000000000000000000000000000000000000000000000000000000000000000000000000000000000000000000000000011001111000000010011000000000000000000000000000000000000000000000000000000000000000000000000000000000000000000000000000000000000000000000000000000001100101010100100011100000000000000000000000000000000000000000000000001101110000000000000011111111111111111111111111111111111111111110000000001111000000000000110000000000000000111111111111111111111111111111111111111111111111111111111111111111000000000000000000000000000000000000000000000000000000000000000000000000000000000000000000000000000000011",
"110000000000000000000000111000011000001000000011000010001111100011110000000000000000000000000000000010000110000000000000000000000000110000000000000000000000000001000000001100000000000000000000000000000000000000000000000000000000000000000000000000000000000000000000000000000000000000000000000011000000000000000000000000000000000000000000000000000000000000000000000000000000000000000000000000000000000000000000000000000000001100000000101110111100000000000000000000000000000000000000000000000001101110001000000000011111111111111111111111111111111111111111110000000001111100000000000110000000000000000111111111111111111111111111111111111111111111111111111111111111111000000000000000000000000000000000000000000000000000000000000000000000000000000000000000000000000000000011",
"110000000000000000000000001100011000001000000110000110001111110111110000000000000000000000000000000010000110000000000000000000000000110000000000000000000000000001000000001100000000000000000000000000000000000000000000000000000000000000000000000000000000000000000000000000000000000000000010000000000000000000000000000000000000000000000000000000000000000000000000000000000000000000000000000000000000000000000000000000000000001100101001001000011100000000000000000000000000000000000000000000000001100000001100001100011000000000000000000000000000000000000000000000000011001110000000000110000000000000000000000000000000000000000000000000000000000000000000000000000000011000000000000000000000000000000000000000000000000000000000000000000000000000000000000000000000000000000011",
"110000000000000000000000000100110000001000001000001100001000110100010000000000000000000000000000000010000100000000000000000000000000110000000000000000000000000001000000001100000000000000000000000000000000000000000000000000000000000000000000000000000000000000000000000000000000000000010000000000000000000000000000000000000000000000000000000000000000000000000000000000000000000000000000000000000000000000000000000000000000001100010010101110111100000000000000000000000000000000000000000000000001101110000110011000011111111111111111111111111111111111111111110000000011000000000000000110000000000000000111111111111111111111111111111111111111111111111111111111111111111000000000000000000000000000000000000000000000000000000000000000000000000000000000000000000000000000000011",
"110000000000000000000011000101100000001000011000011000001000110100010000000000000000000000000000000010000100000000000000000000000000110000000000000000000000000001000000001100000000000000000000000000000000000000000000000000000000000000000000000000000000000000000000000000001100101100110000000000000000000000000000000000000000000000000000000000000000000000001111000111100000000000000000000000000000000000000000000000000000001100101001010100011100000000000000000000000000000000000000000000000001100000000111111000011000000000000000000000000000000000000000000000000011000000001111000110001111100000000000000000000000000000000000000000000000000000000000000000000000011000000000000000000000000000000000000000000000000000000000000000000000000000000000000000000000000000000011",
"110000000000000000000001111001100000001000011111011000000111100011100000000000000000000000000000000010000100000000000000000110000000110000001000000000000000000001000000001100000000000000000000000000000000000000000000000000000000000000000000000000000000000000000000000000000000000000000000000000000000000000000000000000000000000000000000000000000000000000000011111100000000000000000000000000000000000000000000000000000000001100010010101010111100000000000000000000000000000000000000000000000001101111000011100000011111111111111111111111111111111111111111110000000011000000010001100111011101110000000111111111111111111111111111111111111111111111111111111111111111111000000000000000000000000000000000000000000000000000000000000000000000000000000000000000000000000000000011",
"110000000000000000000000010000000000000000000000000000000000000001100000000000000000000000000000000010000100000000000000001110000000110000001000000000000000000001000000001100000000000000000000000000000000000000000000000000000000000000000000000000000000000000000000000000000000000000000000000000000000000000000000000000000000000000000000000000000000000000000001111000000000000000000000000000000000000000000000000000000000001100101010010100011100000000000000000000000000000000000000000000000001100010000111110000011000000000000000000000000000000000000000000000000011000000001111100110011100000000000000000000000000000000000000000000000000000000000000000000000000011000000000000000000000000000000000000000000000000000000000000000000000000000000000000000000000000000000011",
"110000000000000000000000000000000000000000000000000000000000000000000000000000000000000000000000000010000100000000000000011011000000110000000110000000000000000001000000001100000000000000000000000000000000000000000000000000000000000000000000000000000000000000000000000000000000010010000000000000000000000000000000000000000000000000000000000000000000000000000000110000000000000000000000000000000000000000000000000000000000001110000101001010011100000000000000000000000000000000000000000000000001100010001110111000011000000000000000000000000000000000000000000000000011000000011001100110011100000000000000000000000000000000000000000000000000000000000000000000000000011000000000000000000000000000000000000000000000000000000000000000000000000000000000000000000000000000000011",
"110000000000000000000000000000000000000000000000000000000000000000000000000000000000000000000000000010000100000000000000111110000000110000000011000000000000000001000000001100000000000000000000000000000000000000000000000000000000000000000000000000000000000000000000000000010011010010000000000000000000000000000000000000000000000000000000000000000000000000000000000000000000000000000000000000000000000000000000000000000000001110100000010100011100000000000000000000000000000000000000000000000001101110001100001100011111111111111111111111111111111111111111110000000011000110011001100110011100110000000111111111111111111111111111111111111111111111111111111111111111111000000000000000000000000000000000000000000000000000000000000000000000000000000000000000000000000000000011",
"110000000000000000000000000000000000000000000000000000000000000000000000000000000000000000000000000010000100000000000001100110000000110000000001100000000000000001000000001100000000000000000000000000000000000000111100011110000000000000000000000000000000000000000000000000010010000000000000000000000000000000000000000000000000000000000000000000000000000000000000000000000000000000000000000000000000000000000000000000000000001110001001000100111100000000000000000000000000000000000000000000000001100000001000000100011000000000000000000000000000000000000000000000000011001110011111100110011101110000000000000000000000000000000000000000000000000000000000000000000000011000000000000000000000000000000000000000000000000000000000000000000000000000000000000000000000000000000011",
"110000000000000000000000000000000000000000000000000000000000000000000000000000000000000000000000000010000100000000000011001100000000110000000000110000000000000001000000001100000000001111000011100000000000000000111110111110000000000000000000000000000000000000000000000000000000000000000000000000000000000000000000000000000000000000000000000000000000000000000000000000000000000000000000000000000000000000000000000000000000001100110110001010011100000000000000000000000000000000000000000000000001101111000000000000011111111111111111111111111111111111111111110000000001111100001111100111000111100000000111111111111111111111111111111111111111111111111111111111111111111000000000000000000000000000000000000000000000000000000000000000000000000000000000000000000000000000000011",
"110000000000000000000000000000000000000011100010000100000000000000000000000000000000000000000000000010000100000000000110011000000000110000000000011000000000000001000000001100000000001111000111100000000000000000000111111000000000000000000000000000000000000000000000000000000000000000000000000000000000000000000000000000000000000000000000000000000000000000000000000000000000000000000000000000000000000000000000000000000000001100000001010100111100000000000000000000000000000000000000000000000001100010000000000000011000000000000000000000000000000000000000000000000000000000000000000000000000000000000000000000000000000000000000000000000000000000000000000000000000011000000000000000000000000000000000000000000000000000000000000000000000000000000000000000000000000000000011",
"110000000000000000000000000000000000000011100010001100000000000000000000000000000000000000000000000010000100000000000100110000000000110000000000001100000000000001000000001100000000000001101110000000000000000000000011110000000000000000000000000000000000000000000000000000000000000000000000000000000000000000000000000000000000000000000000000000000000000000000000000000000000000000000000000000000000000000000000000000000000001100101010101010111100000000000000000000000000000000000000000000000001100011111111111111111000000000000000000000000000000000000000000000000000000000000000000000000000000000000000000000000000000000000000000000000000000000000000000000000000011000000000000000000000000000000000000000000000000000000000000000000000000000000000000000000000000000000011",
"110000000000000000000000000000000000000100010010011000000000000000000000000000000000000000000000000010000110000000011001000000000000110000000000000110000000000001000000001100000000000000111100000000000000000000000001000000000000000000000000000000000000000000000000000000000000000000000000000000000000000000000000000000000000000000000000000000000000000000000000000000000000000000000000000000000000000000000000000000000000001100010101010100011100000000000000000000000000000000000000000000000001101111111111111111111111111111111111111111111111111111111111110000000000000000000000000000000000000000000111111111111111111111111111111111111111111111111111111111111111111000000000000000000000000000000000000000000000000000000000000000000000000000000000000000000000000000000011",
"110000000000000000000000000000000000000000010010110000000000000000000000000000000000000000000000000010000100000000110010000000000000110000000000000001000000000001000000001100000000000000011000000000000000000000000000000000000000000000000000000000000000000000000000000000111111110000000000000000000000000000000000000000000000000000000000000000000000000000000000000000000000000000000000000000000000000000000000000000000000001100101010101010111100000000000000000000000000000000000000000000000001100000000000000000000000000000000000000000000000000000000000000000000000000000000000000000000000000000000000000000000000000000000000000000000000000000000000000000000000011000000000000000000000000000000000000000000000000000000000000000000000000000000000000000000000000000000011",
"110000000000000000000000000000000000000000100011000000000000000000000000000000000000000000000000000010000100000001100100000000000000110000000000000000100000000001000000001100000000000000000000000000000000000000000000000000000000000000000000000000000000000000000000000000110000010000000000000000000000000000000000000000000000000000000000000000000000000000000000000000000000000000000000000000000000000000000000000000000000001100010101010010011100000000000000000000000000000000000000000000000001100000000000000000000000000000000000000000000000000000000000000000000000000000000000000000000000000000000000000000000000000000000000000000000000000000000000000000000000011000000000000000000000000000000000000000000000000000000000000000000000000000000000000000000000000000000011",
"110000000000000000000000000000000000000001000010100000000000000000000000000000000000000000000000000010000100000001101000000000000000110000000000000000010000000001000000001100000000000000000000000000000000000000000000000000000000000000000000000000000000000000000000000000110000010000000000000000000000000000000000000000000000000000000000000000000000000000000000000000000000000000000000000000000000000000000000000000000000001100100010010100111100000000000000000000000000000000000000000000000001111111111111111111111111111111111111111111111111111111111111111111111111111111111111111111111111111111111111111111111111111111111111111111111111111111111111111111111111111000000000000000000000000000000000000000000000000000000000000000000000000000000000000000000000000000000011",
"110000000000000000000000000000000000000011000010110000000000000000000000000000000000000000000000000010000100000011111000000000000000110000000000000000011000000001000000001100000000000000000000000000000000000000000000000000000000000000000000000000000000000000000000000000110000010000000000000000000000000000000000000000000000000000000000000000000000000000000000000000000000000000000000000000000000000000000000000000000000001100000001001010011100000000000000000000000000000000000000000000000001111111111111111111111111111111111111111111111111111111111000000000000000010000000000000000000000000111111111111111111111111111111111111111111110001111110000000000000000011000000000000000000000000000000000000000000000000000000000000000000000000000000000000000000000000000000011",
"110000000000000000000000000000000000000110000010011000000000000000000000000000000000000000000000000010000100000011000000000000000000110000000000000000001100000001000000001100000000000000000000000000000000000000000000000000000000000000000000000000000000000000000000000011111111111100000000000000000000000000000000000000000000000000000000000000000000000000000000000000000000000000000000000000000000000000000000000000000000001100101010010100111100000000000000000000000000000000000000000000000001100000000000000000000000000000000000000000000000000000000000000000000000000000000000000000000000000000000000000000000000000000000000000000000000000000000000000000000000011000000000000000000000000000000000000000000000000000000000000000000000000000000000000000000000000000000011",
"110000000000000000000000000000000000000111110010000100000000000000000000000000000000000000000000000010000100000010000000000000000000110000000000000000000100000001000000001100000000000000000000000000000000000000000000000000000000000000000000000000000000000000000000000011111111111100000000000000000000000000000000000000000000000000000000000000011111110000000000000000000000000000000000000000000000000000000000000000000000001110010101101001011100000000000000000000000000000000000000000000000001100000000000000000000000000000000000000000000000000000000000000000000000000000000000000000000000000000000000000000000000000000000000000000000000000000000000000000000000011000000000000000000000000000000000000000000000000000000000000000000000000000000000000000000000000000000011",
"110000000000000000000000000000000000000000000000000000000000000000000000000000000000000000000000000010000100000000000000000000000000110000000000000000000000000001000000001100000000000000000000000000000000000000000000000000000000000000000000000000000000000000000000000011010100101100000000000000000000000000000000000000000000000000000000000001111111111110000000000000000000000000000000000000000000000000000000000000000000001110101010010100111100000000000000000000000000000000000000000000000001100000000000000000000000000000000000000000000000000000000000000000000000000000000000000000000000000000000000000000000000000000000000000000000000000000000000000000000000011000000000000000000000000000000000000000000000000000000000000000000000000000000000000000000000000000000011",
"110000000000000000000000000000000000000000000000000000000000000000000000000000000000000000000000000010000100000000000000000000000000110000000000000000000000000001000000001100000000000000000000000000000000000000000000000000000000000000000000000000000000000000000000000011011111011100000000000000000000000000000000000000000000001111110000000111101001000111100001111110000000000000000000000000000000000000000000000000000000001110010100000101011100000000000000000000000000000000000000000000000001100000000000000000000000000000000000000000000000000000000000000000000000000000000000000000000000000000000000000000000000000000000000000000000000000000000000000000000000011000000000000000000000000000000000000000000000000000000000000000000000000000000000000000000000000000000011",
"110000000000000000000000000000000000000000000000000000000000000000000000000000000000000000000000000010000100000000000000000000000000110000000000000000000000000001000000001100000000000000000000000000000000000000000000000000000000000000000000000000000000000000000000000011110100101100000000000000000000000000000000000000000000111111111110001110000000000001100111111111110000000000000000000000000000000000000000000000000000001100101010101000111100000000000000000000000000000000000000000000000001100000000111111111111111111111111111111111111111111111111111111111111111111111111111111111111111111111111111111111111111111111111111111111111111111111111111111110000000011000000000000000000000000000000000000000000000000000000000000000000000000000000000000000000000000000000011",
"110000000000000000000000000000000000000000000000000000000000000000000000000000000000000000000000000010000111111111111111111111111111111111111111111111111111111111000000001100000000000000000000000000000000000000000000000000000000000000000000000000000000000000000000000011111111111100000000000000000000000000000000000000000011111111101111011101001100101000111110110110111000000000000000000000000000000000000000000000000000001110010101010100011100000000000000000000000000000000000000000000000001100000001100000000000000000000000000000000000000000000000000000000000000000000000000000000000000000000000000000000000000000000000000000000000000000000000000000111000000011000000000000000000000000000000000000000000000000000000000000000000000000000000000000000000000000000000011",
"110000000000000000000000000000000000000000000000000000000000000000000000000000000000000000000000000010000111111111111111111111111111111111111111111111111111111111000000001100000000000000000000000000000000000000000000000000000000000000000000000000000000000000000000000011111111111100000000000000000000000000000000000000000011110111101111111101001100100110111100100010111100000000000000000000000000000000000000000000000000001100101010101010111100000000000000000000000000000000000000000000000001100000001000000000000000000000000000000000000000000000000000000000000000000000000000000000000000000000000000000000000000000000000000000000000000000000000000000011000000011000000000000000000000000000000000000000000000000000000000000000000000000000000000000000000000000000000011",
"110000000000000000000000000000000000000000000000000000000000000000000000000000000000000000000000000010000110000000000000000000000000110000000000000000000000000001000000001100000000000000000000000000000000000000000000000000000000000000000000000000000000000000000000000000100000010000000000000000000000000000000000000000000111010010011001111011011101110111010000000001011100000011100000000000000000000000000000000000000000001100100001010100011100000000000000000000000000000000000000000000000001100000001000000000000000000000000000000000000000000000000000000000000000000000000000000000000000000000000000000000000000000000000000000000000000000000000000000011000000011000000000000000000000000000000000000000000000000000000000000000000000000000000000000000000000000000000011",
"110000000000000000000000000000000000000000000000000000000000000000000000000000000000000000000000000010000110000000000000000000000000110000000000000000000000000001000000001100000000000000000000000000000000000000000000000000000000000000000000000000000000000000000000000000100000010000000000000000000000000000000000000000000111011111000000111110011010000000000101110111001100011111110000000000000000000000000000000000000000001100001010101010111100000000000000000000000000000000000000000000000001100000001000000000000000000000000000000000000000000000000000000000000000000000000000000000000000000000000000000000000000000000000000000000000000000000000000000011000000011000000000000000000000000000000000000000000000000000000000000000000000000000000000000000000000000000000011",
"110000000000000000000000000000000000000000000000000000000000000000000000000000000000000000000000000010000110000000000000000000000000110000000000000000000000000001000000001100000000000000000000000000000000000000000000000000000000000000000000000000000000000000000000000000100000010000000000000000000000000000000000000000001110010000001000000011000000010000010000010100001111111111111100000000000000000000000000000000000000001100100101010101011100000000000000000000000000000000000000000000000001100000001000000000000000000000000000000000000000000000000000000000000000000000000000000000000000000000000000000000000000000000000000000000000000000000000000000011000000011000000000000000000000000000000000000000000000000000000000000000000000000000000000000000000000000000000011",
"110000000000000000000000000000000000000000000000000000000000000000000000000000000000000000000000000010000110000000000110000000000000110000000000000000000000000001000000001100000000000000000000000000000000000000000000000000000000000000000000000000000000000000000000000000100000010000000000000000000000000000000000000000001110010010000011011000011100110111000110100011011111011000111111000000000000000000000000000000000000001100001010100000111100000000000000000000000000000000000000000000000001100000001000000000000000000000000000000000000000000000000000000000000000000000000000000000000000000000000000000000000000000000000000000000000000011111000000000011000000011000000000000000000000000000000000000000000000000000000000000000000000000000000000000000000000000000000011",
"110000000000000000000000000000000000000000000000000000000000000000000000000000000000000000000000000010000110000000001111100000000000110000000000000000000000000001000000001100000000000000000000000000000000000000000000000000000000000000000000000000000000000000000000000000100000010000000000000000000000000000000000000000001101010011001011010011011110110111101011110011010010001111010111100000000000000000000000000000000000001100010101011111011100000000000000000000000000000000000000000000000001100000001000000000000000000000000000000000000000000000000000000000000000000000000000000000000000000000000000000000000000000000000000000000000000110001100000000011000000011000000000000000000000000000000000000000000000000000000000000000000000000000000000000000000000000000000011",
"110000000000000000000000000000000000000000000000000000000000000000000000000000000000000000000000000010000100000000111111110000000000110000011111111111111110000001000000001100000000000000000000000000000000000000000000000000000000000000000000000000000000000000000000000000100000110000000000000000000000000000000000000000001100000000010000000000000000000000000000000000000000000000000011100000000000000000000000000000000000001100001010010000111100000000000000000000000000000000000000000000000001100000001000000000000000000000000000000000000000000000000000000000000000000000000000000000000000000000000000000000000000000000000000000000000000110001100000000011000000011000000000000000000000000000000000000000000000000000000000000000000000000000000000000000000000000000000011",
"110000000000000000000000000000000000000000000000000000000000000000000000000000000000000000000000000010000100000000111111111000000000110000010000000000000110000001000000001100000000000000000000000000000000000000001111111111111111111111111111111111111111111111111111111111100000011111111000000000000000000000000000000000001111001101001011001001011100110011000101110011011011011011011001110000000000000000000000000000000000001100010100001000011100000000000000000000000000000000000000000000000001100000001000000000000000000000000000000000000000000000000000000000000000000000000000000000000000000000000000000000000000000000000000000000000000110001100000000011000000011000000000000000000000000000000000000000000000000000000000000000000000000000000000000000000000000000000011",
"110000000000000000000000000000000000000000000000000000000000000000000000000000000000000000000000000010000100000001111111111000000000110000010000000000000110000001000000001100000000000000000000000000000000000000001111111111111111111111111111111111111111111111111111111111100000011111111000000000000000000000000000000000111111011101110011011101011100110111101001110011010011011100111001110000000000000000000000000000000000001100001100101000111100000000000000000000000000000000000000000000000001100000001000000000000000000000000000000000000000000000000000000000000000000000000000000000000000000000000000000000000000000000000000000000000000110001100000000011000000011000000000000000000000000000000000000000000000000000000000000000000000000000000000000000000000000000000011",
"110000000000000000000000000000000000000000000000000000000000000000000000000000000000000000000000000010000100000011111111111000000000110000010000000000000110000001000000001100000000000000000000000000000000000000001111000010110000101000011010000010000001010001101000001011100000011100001100000000000000000000000000000001111110011100111011011100001100110011101000110011000010011000011011110000000000000000000000000000000000001100101011010000111100000000000000000000000000000000000000000000000001100000001000000000000000000000000000000000000000000000000000000000000000000000000000000000000000000000000000000000000000000000000000000000000000110001100000000011000000011000000000000000000000000000000000000000000000000000000000000000000000000000000000000000000000000000000011",
"110000000000000000000000000000000000000000000000000000000000000000000000000000000000000000000000000010000100000011111111111000000000110000010000000000000110000001000000001100000000000000000000000000000000000000001100000011110000111100111011111110010011110011100111001101100000011110101100000000000000000000000000000011110010100101000000011001000010000100000000000100011001000011000000110000000000000000000000000000000000001100010100101000011100000000000000000000000000000000000000000000000001100000001000000000000000000000000000000000000000000000000000000000000000000000000000000000000000000000000000000000000000000000000000000000000000110001100000000011000000011000000000000000000000000000000000000000000000000000000000000000000000000000000000000000000000000000000011",
"110000000000000000000000000000000000000000000000000000000000000000000000000000000000000000000000000010000110000001111111110000000000110000010000000000000110000001000000001100000000000000000000000000000000000000011111111111111111111111111111111111111111111111111111111111111111111111111110000000000000000000000000000111010111001111011011111100101000110111001000110111011011011000110111110000000000000000000000000000000000001100101011010110111100000000000000000000000000000000000000000000000001100000001000000000000000000000000000000000000000000000000000000000000000000000000000000000000000000000000000000000000000000000000000000000000000110001100000000011000000011000000000000000000000000000000000000000000000000000000000000000000000000000000000000000000000000000000011",
"110000000000000000000000000000000000000000000000000000000000000000000000000000000000000000000000000010000110000000111111100000000000110000010000000000000110000001000000001100000000000000000000000000000000000000011000011000000100000010000001000000100000001000000100000010111111110000010110000000000000000000000000001111010110100111001011111110001000110011001000110111000011011100110011111100000000000000000000000000000000001100000100100100011100000000000000000000000000000000000000000000000001100000001000000000000000000000000000000000000000000000000000000000000000000000000000000000000000000000000000000000000000000000000000000000000000110001100000000011000000011000000000000000000000000000000000000000000000000000000000000000000000000000000000000000000000000000000011",
"110000000000000000000000000000000000000000000000000000000000000000000000000000000000000000000000000010000110000000011111111000000000110000010000000000000110000001000000001100000000000000000000000000000000000000011000011000000100000010000001000000100000001000000100000011100010010000010010000000000000000000000000011100000000000100000001111000000000000000000000000100000000010000000000111110000000000000000000000000000000001100101000001010111100000000000000000000000000000000000000000000000001100000001000000000000000000000000000000000000000000000000000000000000000000000000000000000000000000000000000000000000000000000000000000000000000110001100011000011000000011000000000000000000000000000000000000000000000000000000000000000000000000000000000000000000000000000000011",
"110000000000000000000000000000000000000000000000000000000000000000000000000000000000000000000000000010000110000000001111011000000000110000010000000000000110000001000000001100000000000000000000000000000000000001111111111111111111111111111111111111111101111111111111101111111011111111111111000000000000000000000000011111011110111110011011111011001100110111101010110011011111001110110111001011100000000000000000000000000000001100001010010101011100000000000000000000000000000000000000000000000001100000001000000000000000000000000000000000000000000000000000000000000000000000000000000000000000000000000000000000000000000000000000000000000000011111000111000011000000011000000000000000000000000000000000000000000000000000000000000000000000000000000000000000000000000000000011",
"110000000000000000000000000000000000000000000000000000000000000000000000000000000000000000000000000010000110000000000000001100000000110000011000000000000110000001000000001100000000000000000000000000000000000001100011000001100000110000011000000100000011000001100000011000000100000011000011000000000000000000000000011111010111110011001011011100101100100111100010110011000100001100110011010001110000000000000000000000000000001111100101001010111100000000000000000000000000000000000000000000000001100000001000000000000000000000000000000000000000000000000000000000000000000000000000000000000000000000000000000000000000000000000000000000000000000000000000000011000000011000000000000000000000000000000000000000000000000000000000000000000000000000000000000000000000000000000011",
"110000000000000000000000000000000000000000000000000000000000000000000000000000000000000000000000000010000110000000000000000110000000110000011111111111111110000001000000001100000000000000000000000000000000000001100011000001100000110000011000001100000011000001100000011000001110000011000011000000000000000000000000011000101000100000110000000011000001000000010000000000000011101100100000000001110000000000000000000000000000001110001010100100011100000000000000000000000000000000000000000000000001100000001000000000000000000000000000000000000000000000000000000000000000000000000000000000000000000000000000000000000000000000000000000000000000000000000000000011000000011000000000000000000000000000000000000000000000000000000000000000000000000000000000000000000000000000000011",
"110000000000000000000000000000000000000000000000000000000000000000000000000000000000000000000000000010000100000000000000000011100000110000000000000000000000000001000000001100000000000000000000000000000000000011111111111111111111111111111111111111111111111111111111111111111111111111111111100000000000000000000000011110000010101010010011100101011100110111000101111101010011010001110111000110111000000000000000000000000000001110110101001101011100000000000000000000000000000000000000000000000001100000001000000000000000000000000000000000000000000000000000000000000000000000000000000000000000000000000000000000000000000000000000000000000000000000000000000011000000011000000000000000000000000000000000000000000000000000000000000000000000000000000000000000000000000000000011",
"110000000000000000000000000000000000000000000000000000000000000000000000000000000000000000000000000010000100000000000000000001100000110000000000000000000000000001000000001100000000000000000000000000000000000011111111111111111111111111111111111111111111111111111111111111111111111111111111110000000000000000000000011110010111001111001011001100011101110111100101111111001001011000110111010110111000000000000000000000000000001110001010101010011100000000000000000000000000000000000000000000000001100000001100000000000000000000000000000000000000000000000000000000000000000000000000000000000000000000000000000000000000000000000000000000000000000000000000000111000000011000000000000000000000000000000000000000000000000000000000000000000000000000000000000000000000000000000011",
"110000000000000000000000000000000000000000000000000000000000000000000000000000000000000000000000000010000100000000000000000000000000110000000000000000000000000001000000001100000000000000000000000000000000000011000100001000000100000011000001100000110000001000000100000001000000110000001000110000000000000000000000001100000010100100011011001101001001000111010000111011000001011100011110000110111000000000000000000000000000001110110011110101011100000000000000000000000000000000000000000000000001100000000111111111111111111111111111111111111111111111111111111111111111111111111111111111111111111111111111111111111111111111111111111111111111111111111111111110000000011000000000000000000000000000000000000000000000000000000000000000000000000000000000000000000000000000000011",
"110000000000000000000000000000000000000000000000000000000000000000000000000000000000000000000000000010000100000000000000000000000000110000000000000000000000000001000000001100000000000000000000000000000000000011000100001000000100000010000001100000110000001000000100000001000000110000011000110000000000000000000000001110010000100010000010000000001100110000001010010110010010011000011100000000111000000000000000000000000000001100001000001000011100000000000000000000000000000000000000000000000001100000000111111111111111111111111111111111111111111111111111111111111111111111111111111111111111111111111111111111111111111111111111111111111111111111111111111110000000011000000000000000000000000000000000000000000000000000000000000000000000000000000000000000000000000000000011",
"110000000000000000000000000000000000000000000000000000000000000000000000000000000000000000000000000010000100000000000000000000000000110000000000000000000000000001000000001100000000000000000000000000000000000010001100001100000111000011100001111110111000111000010111000001100000010000001000110000000000000000000000000111010110100111010011011011011100110011111010110111010110000001110011110110011000000000000000000000000000001100101101001010111100000000000000000000000000000000000000000000000001100000000000000000000000000000000000000000000000000000000000000000000000000000000000000000000000000000000000000000000000000000000000000000000000000000000000000000000000011000000000000000000000000000000000000000000000000000000000000000000000000000000000000000000000000000000011",
"110000000000000000000000000000000000000000000000000000000000000000000000000000000000000000000000000010000111111111111111111111111111111111111111111111111111111111000000001100000000000000000000000000000000000111111111111111111111111111111111111111111111111111111111111111111111111111111111111000000000000000000000000111100001000000001000001100000000000000000000000000000000001100000000000010011000000000000000000000000000001100010010100001011100000000000000000000000000000000000000000000000001100000000000000000000000000000000000000000000000000000000000000000000000000000000000000000000000000000000000000000000000000000000000000000000000000000000000000000000000011000000000000000000000000000000000000000000000000000000000000000000000000000000000000000000000000000000011",
"110000000000000000000000000000000000000000000000000000000000000000000000000000000000000000000000000010000111111111111111111111111111111111111111111111111111111111000000001100000000000000000000000000000000000111100001100011110000110000011000001100000011000001100000011000001100000011000001111000000000000000000000001111100110010111011011000001011110010111100110110011000111001100110011110110111000000000000000000000000000001101101001001110111100000000000000000000000000000000000000000000000001100000000000000000000000000000000000000000000000000000000000000000000000000000000000000000000000000000000000000000000000000000000000000000000000000000000000000000000000011000000000000000000000000000000000000000000000000000000000000000000000000000000000000000000000000000000011",
"110000000000000000000000000000000000000000000000000000000000000000000000000000000000000000000000000010000100000000000000000000000000110000000000000000000000000001000000001100000000000000000000000000000000000110100001100000110000010000011000000100000011000001100000011000001100000011000001101000000000000000000000011111010110010111000011011001011100110011001010110111010011011000110111001010111000000000000000000000000000001110000010010000011100000000000000000000000000000000000000000000000001100000000000000000000000000000000000000000000000000000000000000000000000000000000000000000000000000000000000000000000000000000000000000000000000000000000000000000000000011000000000000000000000000000000000000000000000000000000000000000000000000000000000000000000000000000000011",
"110000000000000000000000000000000000000000000000000000000000000000000000000000000000000000000000000010000100000000000000000000000000110000000000000000000000000001000000001100000000000000000000000000000000001100100001111000110001011000011000000100010011000111001100011100000110000011000001101100000000000000000000011100010110010110000101011100001100110011010101110111010011011000110111001100111000000000000000000000000000001110000000101101111100000000000000000000000000000000000000000000000001100000000000000000000000000000000000000000000000000000000000000000000000000000000000000000000000000000000000000000000000000000000000000000000000000000000000000000000000011000000000000000000000000000000000000000000000000000000000000000000000000000000000000000000000000000000011",
"110000000000000000000000000000000000000000000000000000000000000000000000000000000000000000000000000010000100000000000000000000000000110000000000000000000000000001000000001100000000000000000000000000000000011101111111111111111111111111111111111111111111111111111111111111111111111111111111111100000000000000000000111000000000100010010000000001000000000000000000000000001000000000000000000010110000000000000000000000000000001110101001010000011100000000000000000000000000000000000000000000000001100000000000000000000000000000000000000000000000000000000000000000000000000000000000000000000000000000000000000000000000000000000000000000000000000000000000000000000000011000000000000000000000000000000000000000000000000000000000000000000000000000000000000000000000000000000011",
"110000000000000000000000000000000000000000000000000000000000000000000000000000000000000000000000000010000100000000000000000000000000110000000000000000000000000001000000001100000000000000000000000000000000011111111111111111111111111111111111111111111111111111111111111111111111111111111111111100000000000000000000111011010111001111001011011100101101110111100110110011010011011101010111001101110000000000000000000000000000001110010010101101011100000000000000000000000000000000000000000000000001100000000011111111111111111111111000000001111111111111111111111100000000111111111111111111111110000000001111111111111111111111100000000001111111111111111111111100000000011000000000000000000000000000000000000000000000000000000000000000000000000000000000000000000000000000000011",
"110000000000000000000000000000000000000000000000000000000000000000000000000000000000000000000000000010000100000010001001000010000000110000000000111111000000000001000000001100000000000000000000000000000000011000001000000110000010000011000000100000100011000001000001000001100000010000001000000100000000000000000001110111000111000111000011011100001110110011101000110011000111001100110111001011100000000000000000000000000000001110101010010000011100000000000000000000000000000000000000000000000001100000000110000000000000000000001110000111000000000000000000000110000011100000000000000000000011000000011000000000000000000000111000000011000000000000000000000111000000011000000000000000000000000000000000000000000000000000000000000000000000000000000000000000000000000000000011",
"110000000000000000000000000000000000000000000000000000000000000000000000000000000000000000000000000010000100000011100000100000000000110000000011111111110000000001000000001100000000000000000000000000000000111000001000000110000010000011000000100000100011000001000001000001100000010000001000000110000000000000000001110000000010000010011000001001100000000000000000100000001000000000100010000111000000000000000000000000000000001110010000101110011100000000000000000000000000000000000000000000000001100000001100000000000000000000000110000110000000000000000000000011000011000000000000000000000001000000010000000000000000000000011000000010000000000000000000000011000000011000000000000000000000000000000000000000000000000000000000000000000000000000000000000000000000000000000011",
"110000000000000000000000000000000000000000000000000000000000000000000000000000000000000000000000000010000100000001000000000100000000110000000111100001111000000001000000001100000000000000000000000000000000111111111111111111111111111111111111111111111111111111111111111111111111111111111111111110000000000000000001000010001001000101010011001100101000110011100011111011010011000100101001111110000000000000000000000000000000001110101000010100011100000000000000000000000000000000000000000000000001100000000100000000000000000000000110000110000000000000000000000011000011000000000000000000000001000000010000000000000000000000011000000010000000000000000000000011000000011000000000000000000000000000000000000000000000000000000000000000000000000000000000000000000000000000000011",
"110000000000000000000000000000000000000000000000000000000000000000000000000000000000000000000000000010000100000010001001000000000000110000001110000000011100000001000000001100000000000000000000000000000000111111111111111111111111111111111111111111111111111111111111111111111111111111111111111111000000000000000001110111010111101101000011101100001100110111100010111011010111101110011001111100000000000000000000000000000000001110001001000101011100000000000000000000000000000000000000000000000001100000000100000000000000000000000110000110000000000000000000000011000011000000000000000000000001000000010000000000000000000000011000000010000000000000000000000011000000011000000000000000000000000000000000000000000000000000000000000000000000000000000000000000000000000000000011",
"110000000000000000000000000000000000000000000000000000000000000000000000000000000000000000000000000010000100000110010100110001000000110000001100000000001100000001000000001100000000000000000000000000000000110010000000100000110000111000001100000010011000011000001100001100000110000011000001100011000000000000000001110111010111110110001011111100001100010110001100111111000100001110011011111000000000000000000000000000000000001110010110101101011100000000000000000000000000000000000000000000000001100000000100000000111111100000000110000110000000001111000000000010000011000000000111100000000001000000010000000000000000000000011000000010000000001111100000000011000000011000000000000000000000000000000000000000000000000000000000000000000000000000000000000000000000000000000011",
"110000000000000000000000000000000000000000000000000000000000000000000000000000000000000000000000000010000100000000001011000001000000110000011000000000000110000001000000001100000000000000000000000000000001100011000000100000110000011000001100000110000000001000001100001100000110000011000000100001100000000000000001000110001001111100010001111000100010000110010010001110001101111100100001011100000000000000000000000000000000001110101001000000011100000000000000000000000000000000000000000000000001100000000100000000000001100000000110000110000000010000100000000010000011000000011000010000000001000000010000000000000000000000011000000010000000011000110000000011000000011000000000000000000000000000000000000000000000000000000000000000000000000000000000000000000000000000000011",
"110000000000000000000000000000000000000000000000000000000000000000000000000000000000000000000000000010000100000111110011111100000000110000011000000000000110000001000000001100000000000000000000000000000001111111111111111111111111111111111111111111111111111111111111111111111111111111111111111111100000000000000001110000010010101110000011111100001100110001000001111101010000111100011010001100000000000000000000000000000000001110010110101101011100000000000000000000000000000000000000000000000001100000000100000000000011100000000110000110000000010000100000000010000011000000011000010000000001000000010000000000011000000000011000000010000000011000110000000011000000011000000000000000000000000000000000000000000000000000000000000000000000000000000000000000000000000000000011",
"110000000000000000000000000000000000000000000000000000000000000000000000000000000000000000000000000010000100000100000111000000000000110000011000000000000110000001000000001100000000000000000000000000000001101000011000011111000110100011000100110000111111110001100001110011111000011000001110001111100000000000000000110111010111011110010011111101001100110111100101111011010011001000110011001110000000000000000000000000000000001110101001000000011100000000000000000000000000000000000000000000000001100000000100000000000011000000000110000110000000010000100000000010000011000000011000010000000001000000010000000000010000000000011000000010000000010000000000000011000000011000000000000000000000000000000000000000000000000000000000000000000000000000000000000000000000000000000011",
"110000000000000000000000000000000000000000000000000000000000000000000000000000000000000000000000000010000100000000001000110001000000110000011000000000000110000001000000001100000000000000000000000000000001001000011000001100000110000011000000100000100001000001100001100000110000010000001000001001100000000000000000111111010011110110001011111110101101010111100101110011000111000101110011001110000000000000000000000000000000001110011000010101011100000000000000000000000000000000000000000000000001100000000100000000000011000000000110000110000000010000100000000010000011000000011000010000000001000000010000000000000000000000011000000010000000010000000000000011000000011000000000000000000000000000000000000000000000000000000000000000000000000000000000000000000000000000000011",
"110000000000000000000000000000000000000000000000000000000000000000000000000000000000000000000000000010000100000010010000010000000000110000001100000000001100000001000000001100000000000000000000000000000011000000011000001100000110000001000000100000100001000001100001000000100000010000001000001000110000000000000000111100001000100001000100111110000000000100001000001000000000001000100001110110000000000000000000000000000000001110101010100100011100000000000000000000000000000000000000000000000001100000000100000000000110000000000110000110000000001111000000000010000011000000000111110000000001000000010000000111111111000000011000000010000000010000000000000011000000011000000000000000000000000000000000000000000000000000000000000000000000000000000000000000000000000000000011",
"110000000000000000000000000000000000000000000000000000000000000000000000000000000000000000000000000010000100000010010000011000000000110000000110000000011000000001000000001100000000000000000000000000000011111111111111111111111111111111111111111111111111111111111111111111111111111111111111111111110000000000000000011110010001000100011000111111001100100011001010110011011000011100011011000110000000000000000000000000000000001110001001010101011100000000000000000000000000000000000000000000000001100000000100000000000110000000000110000110000000010000100000000010000011000000000000010000000001000000010000000111111111000000011000000010000000010000000000000011000000011000000000000000000000000000000000000000000000000000000000000000000000000000000000000000000000000000000011",
"110000000000000000000000000000000000000000000000000000000000000000000000000000000000000000000000000010000100000000000000000100000000110000000011100001110000000001000000001100000000000000000000000000000011111111111111111111111111111111111111111111111111111111111111111111111111111111111111111111110000000000000000000111110111001111000111111111010000110111100010110111000011011000011100011110000000000000000000000000000000001110101010101010111100000000000000000000000000000000000000000000000001100000000100000000001100000000000110000110000000010000100000000010000011000000000000010000000001000000010000000000000000000000011000000010000000010000000000000011000000011000000000000000000000000000000000000000000000000000000000000000000000000000000000000000000000000000000011",
"110000000000000000000000000000000000000000000000000000000000000000000000000000000000000000000000000010000100000001000000000010000000110000000000111111000000000001000000001100000000000000000000000000000000000111111111111111111111111111111111111111111111111111111111111111111111111111111111110000000000000000000000000001110001001110000011101111101100110111100101110111000110000000110110001110000000000000000000000000000000001110010100100101011100000000000000000000000000000000000000000000000001100000000100000000001100000000000110000110000000010000100000000010000011000000000000110000000001000000010000000000011000000000011000000010000000010000000000000011000000011000000000000000000000000000000000000000000000000000000000000000000000000000000000000000000000000000000011",
"110000000000000000000000000000000000000000000000000000000000000000000000000000000000000000000000000010000100000010011001000001100000110000000000000000000000000001000000001100000000000000000000000000000000000110000000000000000000000000000000000000000000000000000000000000000000000000000000110000000000000000000000000001101110011111001011001111110010100111110100000111011011011100100001001100000000000000000000000000000000001100101011010010111100000000000000000000000000000000000000000000000001100000000100000000001100000000000110000110000000010000100000000010000011000000000001100000000001000000010000000000011000000000011000000010000000011000110000000011000000011000000000000000000000000000000000000000000000000000000000000000000000000000000000000000000000000000000011",
"110000000000000000000000000000000000000000000000000000000000000000000000000000000000000000000000000010000100000000000000000000000000110000000000000000000000000001000000001100000000000000000000000000000000000110000000000000000000000000000000000000000000000000000000000000000000000000000000110000000000000000000000000001100010100000011000001111111000111111110100110000010011011000110011011100000000000000000000000000000000001100100000100101011100000000000000000000000000000000000000000000000001100000000100000000001100000000000110000110000000001111000000000010000011000000000111000000000001000000010000000000000000000000011000000010000000001111100000000011000000011000000000000000000000000000000000000000000000000000000000000000000000000000000000000000000000000000000011",
"110000000000000000000000000000000000000000000000000000000000000000000000000000000000000000000000000010000110000000000000000000000000110000000000000000000000000001000000001100000000000000000000000000000000000110000000000000000000000000000000000000000000000000000000000000000000000000000000110000000000000000000000000001100010010010000011000111111101111101110100110111000010011000000111011100000000000000000000000000000000001100010101011010111100000000000000000000000000000000000000000000000001100000000100000000000000000000000110000110000000000000000000000010000011000000000000000000000001000000010000000000000000000000011000000010000000000000000000000011000000011000000000000000000000000000000000000000000000000000000000000000000000000000000000000000000000000000000011",
"110000000000000000000000000000000000000000000000000000000000000000000000000000000000000000000000000010000110000000000000000000000000110000000000000000000000000001000000001100000000000000000000000000000000000110000000000000000100000011100100000001000001110000000000010000000000001001011000110000000000000000000000000001110110010111000011110111111111110110111000110111011001011100010001111000000000000000000000000000000000001110101010110101011100000000000000000000000000000000000000000000000001100000000100000000000000000000000110000110000000000000000000000010000011000000000000000000000001000000010000000000000000000000011000000010000000000000000000000011000000011000000000000000000000000000000000000000000000000000000000000000000000000000000000000000000000000000000011",
"110000000000000000000000000000000000000000000000000000000000000000000000000000000000000000000000000010000100000000000000000000000000110000000000000000000000000001000000001100000000000000000000000000000000000110011011111110111100001111101110001111010011100110001101111100000111001111011000110000000000000000000000000000110000010000111000000001111111101011111101100110010011011111111111110000000000000000000000000000000000001110010010101000111100000000000000000000000000000000000000000000000001100000001100000000000000000000000110000110000000000000000000000010000011000000000000000000000001000000010000000000000000000000011000000010000000000000000000000011000000011000000000000000000000000000000000000000000000000000000000000000000000000000000000000000000000000000000011",
"110000000000000000000000000000000000000000000000000000000000000000000000000000000000000000000000000010000111111111111111111111111111111111111111111111111111111111000000001100000000000000000000000000000000000110000000000000000000000000000000000000000000000000000000000000000000000000000000110000000000000000000000000000011100010000111001001101101111110100111100110001001100010011111111000000000000000000000000000000000000001110101001010101011100000000000000000000000000000000000000000000000001100000001110000000000000000000001110000111000000000000000000000110000011100000000000000000000011000000011000000000000000000000111000000011000000000000000000000111000000011000000000000000000000000000000000000000000000000000000000000000000000000000000000000000000000000000000011",
"110000000000000000000000000000000000000000000000000000000000000000000000000000000000000000000000000010000100000000000000000000000000110000000000000000000000000001000000001100000000000000000000000000000000000110000000000000000000000000000000000000000000000000000000000000000000000000000000110000000000000000000000000000001111001111111100110000110111101001111110110011011011110000000000000000000000000000000000000000000000001110010000101010111100000000000000000000000000000000000000000000000001100000000011111111111111111111111000000001111111111111111111111100000001111111111111111111111110000000001111111111111111111111100000000001111111111111111111111100000000011000000000000000000000000000000000000000000000000000000000000000000000000000000000000000000000000000000011",
"110000000000000000000000000000000000000000000000000000000000000000000000000000000000000000000000000010000100000000000000000000000000110000000000000000000000000001000000001100000000000000000000000000000000000110000000000000000000000000000000000000000000000000000000000000000000000000000000110000000000000000000000000000001111111111011101000010111011101010111111011011000011100000000000000000000000000000000000000000000000001110101000000100011100000000000000000000000000000000000000000000000001100000000011111111111111111111111000000001111111111111111111111100000000111111111111111111111110000000000111111111111111111111100000000001111111111111111111111100000000011000000000000000000000000000000000000000000000000000000000000000000000000000000000000000000000000000000011",
"110000000000000000000000000000000000000000000000000000000000000000000000000000000000000000000000000010000100000000000000000000000000110000000000000000000000000001000000001100000000000000000000000000000000000110000000000000000000000000000000000000000000000000000000000000000000000000000000110000000000000000000000000000000111111110001111000110111101110111111111110010001111100000000000000000000000000000000000000000000000001110101011011010111100000000000000000000000000000000000000000000000001100000000000000000000000000000000000000000000000000000000000000000000000000000000000000000000000000000000000000000000000000000000000000000000000000000000000000000000000011000000000000000000000000000000000000000000000000000000000000000000000000000000000000000000000000000000011",
"110000000000000000000000000000000000000000000000000000000000000000000000000000000000000000000000000010000100000000000000000000000000110000000000000000000000000001000000001100000000000000000000000000000000000110000000000000000000000000000000000000000000000000000000000000000000000000000000110000000000000000000000000000000000000000001111110101011010101110011111111011111111000000000000000000000000000000000000000000000000001110000000100100111100000000000000000000000000000000000000000000000001100000000000000000000000000000000000000000000000000000000000000000000000000000000000000000000000000000000000000000000000000000000000000000000000000000000000000000000000011000000000000000000000000000000000000000000000000000000000000000000000000000000000000000000000000000000011",
"110000000000000000000000000000000000000000000000000000000000000000000000000000000000000000000000000010000100000000000000000000000000110000000000000000000000000001000000001100000000000000000000000000000000000110000000111111111111111111000000000000000000000000000011111111111111111100000000110000000000000000000000000000000000000000000111110110111101110101111110111111111110000000000000000000000000000000000000000000000000001110101001011010011100000000000000000000000000000000000000000000000001100000000000000000000000000000000000000000000000000000000000000000000000000000000000000000000000000000000000000000000000000000000000000000000000000000000000000000000000011000000000000000000000000000000000000000000000000000000000000000000000000000000000000000000000000000000011",
"110000000000000000000000000000000000000000000000000000000000000000000000000000000000000000000000000010000100000001111111111110000000110000000000000111100000000001000000001100000000000000000000000000000000000110000000111000001110000011000000001100001101110000000011000001110000001100000000110000000000000000000000000000000000000000000011111111111011101110111111001111110000000000000000000000000000000000000000000000000000001110010010100110011100000000000000000000000000000000000000000000000001100000000011111111111111111111111000000001111111111111111111111100000000111111111111111111111100000000000111111111111111111111100000000001111111111111111111111100000000011000000000000000000000000000000000000000000000000000000000000000000000000000000000000000000000000000000011",
"110000000000000000000000000000000000000000000000000000000000000000000000000000000000000000000000000010000100000001110011000110000000110000000000011101011100000001000000001100000000000000000000000000000000000010000000111000011110000011000000001111011101110000000011000001110000011100000000110000000000000000000000000000000000000000000000111111111001010101111110110010000000000000000000000000000000000000000000000000000000001111101010100100011100000000000000000000000000000000000000000000000001100000000111111111111111111111111000000011111111111111111111111100000001111111111111111111111110000000001111111111111111111111110000000001111111111111111111111100000000011000000000000000000000000000000000000000000000000000000000000000000000000000000000000000000000000000000011",
"110000000000000000000000000000000000000000000000000000000000000000000000000000000000000000000000000010000100000001000011000010000000110000000000110010101110000001000000001100000000000000000000000000000000000010000000111000111111101011000000000000000000000000000011010111110110001100000000110000000000000000000000000000000000000000000000000000110110101111111111101110000000000000000000000000000000000000000000000000000000001110001010011010111100000000000000000000000000000000000000000000000001100000000110000000000000000000001110000111000000000000000000000110000011100000000000000000000011000000011000000000000000000000111000000011000000000000000000000111000000011000000000000000000000000000000000000000000000000000000000000000000000000000000000000000000000000000000011",
"110000000000000000000000000000000000000000000000000000000000000000000000000000000000000000000000000010000100000000000011000000000000110000000001101101011010000001000000001100000000000000000000000000000000000010000000111010011110100011000000000000000000000000000011101001110000011100000000110000000000000000000000000000000000000000000000000000111100101011001100011110000000000000000000000000000000000000000000000000000000001111100000100101011100000000000000000000000000000000000000000000000001100000001100000000000000000000000110000110000000000000000000000011000011000000000000000000000001000000010000000000000000000000011000000010000000000000000000000011000000011000000000000000000000000000000000000000000000000000000000000000000000000000000000000000000000000000000011",
"110000000000000000000000000000000000000000000000000000000000000000000000000000000000000000000000000010000100000000000011000000000000110000000011010010111110000001000000001100000000000000000000000000000000000110000000111000111110000111000000000000000000000000000011110011110100011100000000110000000000000000000000000000000000000000000000000000111111110110110110101110000000000000000000000000000000000000000000000000000000001110000000001010111100000000000000000000000000000000000000000000000001100000001100000000000000000000000110000110000000000000000000000011000011000000000000000000000001000000010000000000000000000000011000000010000000000000000000000011000000011000000000000000000000000000000000000000000000000000000000000000000000000000000000000000000000000000000011",
"110000000000000000000000000000000000000000000000000000000000000000000000000000000000000000000000000010000100000000000011000000000000110000000111111101111110000001000000001100000000000000000000000000000000000110000000111000001110000011000000000000000000000000000011000001110000001100000000110000000000000000000000000000000000000000000000000000111011101011011110111110000000000000000000000000000000000000000000000000000000001110001010100010011100000000000000000000000000000000000000000000000001100000001100000000000000000000000110000110000000011111100000000011000011000000000011100000000001000000010000000000000000000000011000000010000001111000111111000011000000011000000000000000000000000000000000000000000000000000000000000000000000000000000000000000000000000000000011",
"110000000000000000000000000000000000000000000000000000000000000000000000000000000000000000000000000010000100000000000011000000000000110000001111111111011100000001000000001100000000000000000000000000000000000110000000111111111110111111000000000000000000000000000011111111111111111100000000110000000000000000000000000000000000000000000000000000111101101111101010011100000000000000000000000000000000000000000000000000000000001110100001010100111100000000000000000000000000000000000000000000000001100000001100000000000111000000000110000110000000011111100000000010000011000000000011100000000001000000010000000000000000000000011000000010000001111000111111000011000000011000000000000000000000000000000000000000000000000000000000000000000000000000000000000000000000000000000011",
"110000000000000000000000000000000000000000000000000000000000000000000000000000000000000000000000000010000100000000000011000000000000110000011100000010110000000001000000001100000000000000000000000000000000000110000000111111111111111111000000000000000000000000000011111111111111111100000000110000000000000000000000000000000000000000000000000000011010010101101011101100000000000000000000000000000000000000000000000000000000001110011010101010011100000000000000000000000000000000000000000000000001100000000100000000000111000000000110000110000000010000000000000010000011000000000100000000000001000000010000000010000001000000011000000010000110001101100000000011000000011000000000000000000000000000000000000000000000000000000000000000000000000000000000000000000000000000000011",
"110000000000000000000000000000000000000000000000000000000000000000000000000000000000000000000000000010000100000000000011000000000000110000011000000011100000000001000000001100000000000000000000000000000000000110000000111000001110000001000000000000000000000000000011000001110000001100000000110000000000000000000000000000000000000000000000000000011101101111101110111100000000000000000000000000000000000000000000000000000000001110100101010100111100000000000000000000000000000000000000000000000001100000000100000000001110000000000110000110000000010000000000000010000011000000001100000000000001000000010000000011000011000000011000000010000110000101100000000011000000011000000000000000000000000000000000000000000000000000000000000000000000000000000000000000000000000000000011",
"110000000000000000000000000000000000000000000000000000000000000000000000000000000000000000000000000010000100000000000011000000000000110000011000000011000000000001000000001101000000110000001100000001000000000011100000111010011110101011000000111111111111111100000011001011110000111100000000110000000011000000110000000100000001000000010000000000011110110010011101011100000000110000001100000001000000010000000100000001000000001110011010101011011100000000000000000000000000000000000000000000000001100000000100000000011010000000000110000110000000010001000000000011000011000000011000000000000001000000010000000001101110000000011000000010000110000001100000000011000000011000000000000000000000000000000000000000000000000000000000000000000000000000000000000000000000000000000011",
"110000000000000000000000000000000000000000000000000000000000000000000000000000000000000000000000000010000100000000000011000000000000110000001100000110000000000001000000001101000001111000011100000011100000000010000000111000001110000011000000111100110001011100000011000101110000001100000000110000000011100000111000001110000011100000111000000000011011101111101110111100000001111000011110000011100000111000001110000011000000001100100101100100111100000000000000000000000000000000000000000000000001100000001100000000110011000000000110000110000000011111000000000011000011000000011111100000000001000000010000000000111100000000011000000010000110000001111100000011000000011000000000000000000000000000000000000000000000000000000000000000000000000000000000000000000000000000000011",
"110000000000000000000000000000000000000000000000000000000000000000000000000000000000000000000000000010000100000000000111100000000000110000000111111100000000000001000000001100100001111000111010000110100000000010000000111000011111101011000000111000000000011100000011010001110100011100000000110000000111100000111000011110000111100001101100000000011110111010111010111100000001011000010111000111100001101100011011000110000000001100011001001010011100000000000000000000000000000000000000000000000001100000001100000001100011000000000110000110000000000000100000000011000011000000011111110000000001000000010000000000011000000000011000000010000110000001111100000011000000011000000000000000000000000000000000000000000000000000000000000000000000000000000000000000000000000000000011",
"110000000000000000000000000000000000000000000000000000000000000000000000000000000000000000000000000010000100000000000000000000000000110000000000000000000000000001000000001100100001011000110010000100110000000010000000111000011110000011000000111110101010011100000011000001110000001100000000110000000100100001011100010011000100110001100100000000011111100101101101011100000011011000010111000110110001100100010011000110000000001100100010100100111100000000000000000000000000000000000000000000000001100000001100000001111111100000000110000110000000000000100000000011000011000000011000010000000001000000010000000000101100000000011000000010000110000001100000000011000000011000000000000000000000000000000000000000000000000000000000000000000000000000000000000000000000000000000011",
"110000000000000000000000000000000000000000000000000000000000000000000000000000000000000000000000000010000100000000000000000000000000110000000000000000000000000001000000001100100011011000110010000100110000000010000000111111111111111111000000111010000000011100000011111111111111111100000000110000000100100001011100010011000100110001101100000000011101011101101011111100000011011000010011000110110001101100010011000100000000001100100001011100011100000000000000000000000000000000000000000000000001100000001100000000000011000000000110000110000000000000100000000011000011000000011000010000000001000000010000000001000110000000011000000010000110000001100000000011000000011000000000000000000000000000000000000000000000000000111110000000000000000000000000000000000000000000000011",
"110000000000000000000000000000000000000000000000000000000000000000000000000000000000000000000000000010000100000000000000000000000000110000000000000000000000000001000000001100111111011111110111111101111111011110000000111111111111111111000000111000000000011100000011111111111111111100000000111110111100111111011111110011111100111111101111101101011101010101101011111101101111011110111011111110111111101111110011111110000000001100010010101010111100000000000000000000000000000000000000000000000001100000001100000000000011000000000110000110000000010000100000000010000011000000011000010000000001000000010000000010000111000000011000000010000110001101100000000011000000011000000000000000000000000000000000000000000000000011111111100000000000000000000000000000000000000000000011",
"110000000000000000000000000000000000000000000000000000000000000000000000000000000000000000000000000010000100000000000000000000000000110000000000000000000000000001000000001100111111001111110011111100111111101110000000000000000000000000000000111100101001011100000000000000000000000000000000111111111100111111001111110011111100111111100111111111111110110110110101011111111111001111110011111110111111101111110011111110000000001100101000010101011100000000000000000000000000000000000000000000000001100000001100000000000011000000000110000110000000011101100000000010000011000000011010110000000001000000010000000000000011000000011000000010000110001101100000000011000000011000000000000000000000000000000000000000000000000111000000110000000000000000000000000000000000000000000011",
"110000000000000000000000000000000000000000000000000000000000000000000000000000000000000000000000000010000100000000000000000000000000110000000000000000000000000001000000001100100001011000010010000100110000000010000000000000000000000000000000111000000000011100000000000000000000000000000000110001000100100001011000010111000101100001100100000000011001001101101011011100000001011000010011000110100001101100010011000100000000001100010000101010011100000000000000000000000000000000000000000000000001100000000100000000000011000000000110000110000000001111000000000010000011000000000111100000000001000000010000000000000000000000011000000010000001111001111111000011000000011000000000000000000000000000000000000000000111111100000000011111110000000000000000000000000000000000000011",
"110000000000000000000000000000000000000000000000000000000000000000000000000000000000000000000000000010000111111111111111111111111111111111111111111111111111111111000000001100100001011000010010010101110100110010000000000000000000000000000000111010100110111100000000000000000000000000000000110011100100100101001001010011010100100101011100100110011110110111010110011101001001011001010111000110110101101101010011100110000000001100101000010100011100000000000000000000000000000000000000000000000001100000000100000000000000000000000110000110000000000000000000000010000011000000000000000000000001000000010000000000000000000000011000000010000000000000000000000011000000011000000000000000000000000000000000000001111110001100111110011011111111000000000000000000000000000000000011",
"110000000000000000000000000000000000000000000000000000000000000000000000000000000000000000000000000010000000000000000000000000000000000000000000000000000000000000000000001100100001001000010010000100110000000010000000000000000000000000000000111000001000011100000000000000000000000000000000110000000100100001011000010011000100100001000100000000011101001101101011111100000001001000010011000110110001101100010011000100000000001100010100001010111100000000000000000000000000000000000000000000000001100000000100000000000000000000000110000110000000000000000000000010000011000000000000000000000001000000010000000000000000000000011000000010000000000000000000000011000000011000000000000000000000000000000000001111000000101100100010011010001111111000000000000000000000000000000011",
"110000000000000000000000000000000000000000000000000000000000000000000000000000000000000000000000000010000000000000000000000000000000000000000000000000000000000000000000001100100001011000010010000101110000100010000000000000000000000000000000111110000001111100000000000000000000000000000000110100100100100101001001010111000100100101000100100010011110111011010111011100010001011001010111000110110001101100010011000110000000001100101011101010011100000000000000000000000000000000000000000000000001100000000110000000000000000000001110000111000000000000000000000110000011000000000000000000000011000000011000000000000000000000111000000011000000000000000000000011000000011000000000000000000000000000000000011111001111001101000011011001001001011110000000000000000000000000000011",
"110000000000000000000000000000000000000000000000000000000000000000000000000000000000000000000000000010000000000000000000000000000000000000000000000000000000000000000000001100100001011000110010000100110100100110011111001110100001110011011100111111010001111100011100111010000110011111011000110100100100100001011000010011000100100001000100000000011100101111101100101101000001011000010011000110110001101100010011000110000000001100000010010101011100000000000000000000000000000000000000000000000001100000000110111111111111111111111110000111111111111111111111110110000011111100000111111111111111000000011111111111111111111111111000000011111111111111111111000111000000011000000000000000000000000000000001111111111111111111111111011111011111011111000000000000000000000000000011",
"110000000000000000000000000000000000000000000000000000000000000000000000000000000000000000000000000010000000000000000000000000000000000000000000000000000000000000000000001100100001001000010010000100110000000010011111001111100001110011111100111111101001111100011110111010000110011011011000110000000100100001001000010011000100100001000100001000011111111101111111111100000001001000010011000110110001101100010011000110000000001100011010101010111100000000000000000000000000000000000000000000000001100000000011111111111111111111111000000001111111111111111111111100000000111111111111111111111110000000001111111111111111111111100000000001111111111111111111111100000000011000000000000000000000000000000001111111111111110111111111111011111111111111000000000000000000000000000011",
"110000000000000000000000000000000000000000000000000000000000000000000000000000000000000000000000000010000000000000000000000000000000000000000000000000000000000000000000001100100001011011010010000100110000110010000000000000000000000000000000111000000001011100000000000000000000000000000000110101000100100001011100010111000101100001001101100010011110100111110110011100011001011001010111010110110101101101010011110110000000001100100101010101011100000000000000000000000000000000000000000000000001100000000000000000000000000000000000000000000000000000000000000000000000000000000000000000000000000000000000000000000000000000000000000000000000000000000000000000000000011000000000000000000000000000000011001000000000000000000000000000000000001001000000000000000000000000000011",
"110000000000000000000000000000000000000000000000000000000000000000000000000000000000000000000000000010000000000000000000000000000000000000000000000000000000000000000000001100100001001000010010000100110100000010000000000000000000000000000000111000100000011100000000000000000000000000000000110000000100100001001100010011000100100001100100010000011001011010101001001100000001001000010011000110110001101100010011000100000000001110011010001010111100000000000000000000000000000000000000000000000001100000000000000000000000000000000000000000000000000000000000000000000000000000000000000000000000000000000000000000000000000000000000000000000000000000000000000000000000011000000000000000000000000000000011000011011011010010010110110001011001100001000000000000000000000000000011",
"110000000000000000000000000000000000000000000000000000000000000000000000000000000000000000000000000010000000000000000000000000000000000000000000000000000000000000000000001100100001011000010010000101110000000010000000000000000000000000000000111010100010011100000000000000000000000000000000110100100100101001011010010110110100101101101100000010011110110111110110111100001001011000010111000110110001101100010011000110000000001110101000100100011100000000000000000000000000000000000000000000000001100000000000000000000000000000000000000000000000000000000000000000000000000000000000000000000000000000000000000000000000000000000000000000000000000000000000000000000000011000000000000000000000000000000011110000000000100100001001001010000000001111000000000000000000000000000011",
"110000000000000000000000000000000000000000000000000000000000000000000000000000000000000000000000000010000001111111111111111111111111000001111111100111111000000000000000001100111111001111110011111100111111011110000000000000000000000000000000111010010000011100000000000000000000000000000000111100111100111111011111110011111100111111100111111101111101011111110011101111001111011111110011111110111111101111110011111110000000001110010010000100111100000000000000000000000000000000000000000000000001100000000000000000000000000000000000000000000000000000000000000000000000000000000000000000000000000000000000000000000000000000000000000000000000000000000000000000000000011000000000000000000000000000000001111100000000000100000001000000100000101111000000000000000000000000000011",
"110000000000000000000000000000000000000000000000000000000000000000000000000000000000000000000000000010000001111111111111111111111111000001111111111111111111111111000000001100111111001111110011111100111111001110000000000000000000000000000000111000000000011100000000000000000000000000000000111111111100111111001111110011111100111111000111111101111101011101101010101111011111011111110011111110111111001111110011111110000000001100000100001101011100000000000000000000000000000000000000000000000001100000000011111111111111111111111000000001111111111111111111111100000000111111111111111111111100000000000111111111111111111111100000000001111111111111111111111100000000011000000000000000000000000000000001111111000000000000000000000000100011111111000000000000000000000000000011",
"110000000000000000000000000000000000000000000000000000000000000000000000000000000000000000000000000010000001100000000000000000000001000001100000000000000000000001000000001100100001011000010010000101110000000010000000000000000000000000000000111000101000011100000000000000000000000000000000110000000101100001011000010010000100100001100100000000011010101111110111111110100001011000010111000110110001101100010011000110000000001100101010100010111100000000000000000000000000000000000000000000000001100000000110000000000000000000001100000011000000000000000000000110000001100000000000000000000010000000011000000000000000000000111000000011000000000000000000000110000000011000000000000000000000000000000000111111111111111100000000000111111111111110000000000000000000000000000011",
"110000000000000000000000000000000000000000000000000000000000000000000000000000000000000000000000000010000001101111111111111111111111000001100000000000000000000001000000001100100001001000110010000100110000010010000100111011000011000010001000111010110110111100000011001100000111001101010000110011000100100001001000010010000100100001100100100100011100011001001000010110000011001000010011000110110001001100010011000100000000001100010100101100011100000000000000000000000000000000000000000000000001100000001100000000000000000000000110000110000000000000000000000011000011000000000000000000000001000000010000000000000000000000011000000010000000000000000000000011000000011000000000000000000000000000000000110011111111111111111111111111111111000110000000000000000000000000000011",
"110000000000000000000000000000000000000000000000000000000000000000000000000000000000000000000000000010000001101111111111111111111111000001100000000000000000000001000000001100101001111010011110110111110101101110000100111011000001000011001000111100000000011100000011000100000111001111110000110111110111101101111001011110110111101101111101010110111010100111110111011011011001111011011111010111110101111111011110110111000000001100101011010101111100000000000000000000000000000000000000000000000001100000001100000000000000000000000110000110000000000000000000000011000011000000000000000000000001000000010000000000000000000000011000000010000000000000000000000011000000011000000000000000000000000000000000110001110011111111111111111111000111001110000000000000000000000000000011",
"110000000000000000000000000000000000000000000000000000000000000000000000000000000000000000000000000010000001101111111111111111111111000001100000000000000000000001000000001100101001111011011110110111110101101110000000000000000000000000000000111100011111011100000000000000000000000000000000110101010111101101111011011110110111101101111101011010111101011010110111101111011001111001011110010111110101111111011110110111000000001100010100101010011100000000000000000000000000000000000000000000000001100000001100000000000000000000000110000110000000000000000000000010000011000000000000000000000001000000010000000000000000000000011000000010000000000000000000000011000000011000000000000000000000000000000000110110010001001111111111110011001001101110000000000000000000000000000011",
"110000000000000000000000000000000000000000000000000000000000000000000000000000000000000000000000000010000001101111111111111111111111000001100000000000000000000001000000001100000001000000000000000000000000000010000000000000000000000000000011111111111111111111100000000000000000000000000000110000000000000000000000000000000000000000000000000001111010110101001011010111000000000000000000010000000000000000000000010000000000001100101010101100011100000000000000000000000000000000000000000000000001100000001100000000001100000000000110000110000000001111000000000010000011000000000111100000000001000000010000000000000000000000011000000010000000000000000000000011000000011000000000000000000000000000000000111100011011001101000011100001010000111110000000000000000000000000000011",
"110000000000000000000000000000000000000000000000000000000000000000000000000000000000000000000000000010000001101111111111111111111111000001100000000000000000000001000000001100000000100001000100001101001010010011110001001010010000110001010011111111111111111111100101001001000000110000100010110011000010000100101001100001100001010100001010001001101010101111110101001011000101010100101000110101011000011001010010000001000000001100100001000000011100000000000000000000000000000000000000000000000001100000001100000000001100000000000110000110000000011111100000000010000011000000011111110000000001000000010000000000000000000000011000000010000000000010000000000011000000011000000000000000000000000000000000111000001110000011000011000001110000011110000000000000000000000000000011",
"110000000000000000000000000000000000000000000000000000000000000000000000000000000000000000000000000010000001101111111111111111111111000001100000000000000000000001000000001100000000000000011000000000010000000011000010100101001001001010100011010110101101011011100101010010101011010101001110110100001000010001000000000000000110000000000000000001111101010010101010110101100000000100001100000001000000010001000010001100000000001100011010101101011100000000000000000000000000000000000000000000000001100000001100000000011100000000000110000110000000010000100000000010000011000000011000010000000001000000010000000000000000000000011000000010000000000010000000000011000000011000000000000000000000000000000000111100001110000111100110110011111000111110000000000000000000000000000011",
"110000000000000000000000000000000000000000000000000000000000000000000000000000000000000000000000000010000001101111111111111111111111000001100000000000000000000001000000001101000000000001000001000001000100010111101011111010101111101110110011001001010010100101100110111110101111101111110111110000000001000000000100010001000000010001000010100011001010101101110011100010110001001100010010001000001001000000001000010001000000001100100101000000011100000000000000000000000000000000000000000000000001100000001100000000001100000000000110000110000000000000100000000010000011000000000000010000000001000000010000000000000000000000011000000010000000011111110000000011000000011000000000000000000000000000000000111110011011001101100100111011011100111110000000000000000000000000000011",
"110000000000000000000000000000000000000000000000000000000000000000000000000000000000000000000000000010000001101111111111111111111111000001100000000000000000000001000000001100000000100000000000000000000001011111111111111111111111111111111111111111111111111111111111111111111111111111111111111101100000000100000000010000000000000000000010001110111111010010010100111101011100000000100000000000000001000100000000000001000000001100011010101111011100000000000000000000000000000000000000000000000001100000000100000000001100000000000110000110000000000001100000000010000011000000000000110000000001000000010000000000000000000000011000000010000000011111110000000011000000011000000000000000000000000000000000110011110001111100111100011110000111101110000000000000000000000000000011",
"110000000000000000000000000000000000000000000000000000000000000000000000000000000000000000000000000010000001101111111111111111111111000001100000000000000000000001000000001100100000100000000000000000000000000000000000000000000000000000000011111111111111111111100000000000000000000000000000000000000001000000000000000000000000000000000000011111111110101111111010111111111111000000000000000000000000000000000000000000000000001100110101000000011100000000000000000000000000000000000000000000000001100000001100000000001100000000000110000110000000000001000000000010000011000000000011100000000001000000010000000111111111000000011000000010000000000010000000000011000000011000000000000000000000000000000000110001100000110000011000001100000011001110000000000000000000000000000011",
"110000000000000000000000000000000000000000000000000000000000000000000000000000000000000000000000000010000001101111111111111111111111000001100000000000000000000001000000001100100000100001000000000000100000000000001000000000000000000000000011111111111111111111100010000001000000001000000100000001000001000000000000000010000000100000000010111111111110101111111110111111111111100000100000000100000000000000000000100000000000001100101010101100111100000000000000000000000000000000000000000000000001100000001100000000001100000000000110000110000000000010000000000010000011000000000010110000000001000000010000000111111111000000011000000010000000000010000000000011000000011000000000000000000000000000000000110001110000111000111100011110000111101110000000000000000000000000000011",
"110000000000000000000000000000000000000000000000000000000000000000000000000000000000000000000000000010000001101111111111111111111111000001100000000000000000000001000000001100010000111011000011000001100100001001000000000000000001000000010000000000000000000000000000000010000000000001000000000100000000000100011000000000000000100001000111111111001111011111111101111001111111100000100010000000110000000000000000001000000000001100001000000001011100000000000000000000000000000000000000000000000001100000001100000000001100000000000110000110000000000100000000000010000011000000000000010000000001000000010000000000000000000000011000000010000000000010000000000011000000011000000000000000000000000000000000011110011001001101000110110011001100101100000000000000000000000000000011",
"110000000000000000000000000000000000000000000000000000000000000000000000000000000000000000000000000010000001101111111111111111111111000001100000000000000000000001000000001100001101110111000000000000000000000000000000000000100000000000000011000010000000000000001000000000000000000000000000000000000000000000000000000000010000000000110111111000001111111100001111011100000111111100010000000000000000000010000000000000000000001100100000101100111100000000000000000000000000000000000000000000000001100000001100000000001100000000000110000110000000001000000000000010000011000000000000010000000001000000010000000000000000000000011000000010000000000000000000000011000000011000000000000000000000000000000000011100001010000111000011100001011000111100000000000000000000000000000011",
"110000000000000000000000000000000000000000000000000000000000000000000000000000000000000000000000000010000001101111111111111111111111000001100000000000000000000001000000001101001110110110010100100000100001000110001000001000000010001001000101011000100001100000010000011000110010001100011000110000000001000000000110001000000110001100110111000000001101110000000111101100000000000000010000000100010001000110001001000011000000001100001010000011011100000000000000000000000000000000000000000000000001100000001100000000001100000000000110000110000000010000000000000010000011000000011000010000000001000000010000000000000000000000011000000010000000011111111000000011000000011000000000000000000000000000000000011000000110000110000011000000110000001100000000000000000000000000000011",
"110000000000000000000000000000000000000000000000000000000000000000000000000000000000000000000000000010000001101111111111111111111111000001100000000000000000000001000000001100000000000000000000000000000000000000000000000000000000000000000000000000000000000000000000000000000000000000000000000001100011000010000000000000000000000000000000000000011111100000000001111110000000000000000000000000000000000000000000000000000000001100110100101100111100000000000000000000000000000000000000000000000001100000001100000000011110000000000110000110000000011111100000000010000011000000001111100000000001000000010000000000000000000000011000000010000000000000000000000011000000011000000000000000000000000000000000011000001110001101100110110001111000011100000000000000000000000000000011",
"110000000000000000000000000000000000000000000000000000000000000000000000000000000000000000000000000010000001101111111111111111111111000001100000000000000000000001000000001100000000000000000000000000000000000000000000000000100000001000000000000000000000000001000000000000000000000000000000000001110011000110000000000000000000000000000000000000011110000000000000011110000001000000000000000000000000000000000000000000000000001100001000001010011100000000000000000000000000000000000000000000000001100000001100000000000000000000000110000110000000000000000000000010000011000000000000000000000001000000010000000000000000000000011000000010000000000000000000000011000000011000000000000000000000000000000000011100011011011000110100111011001100111100000000000000000000000000000011",
"110000000000000000000000000000000000000000000000000000000000000000000000000000000000000000000000000010000001101111111111111111111111000001100000000000000000000001000000001100000000000000000000000100001000000001000001000000100000001000000000000000000000000000000000000001000000000000000100000000110011001100000000000000100000000000000000000000011000000000000000001000000000000000000000000000100000000100000000011000000000001100010000010100111100000000000000000000000000000000000000000000000001100000001100000000000000000000000110000110000000000000000000000010000011000000000000000000000001000000010000000000000000000000011000000010000000000000000000000011000000011000000000000000000000000000000000011110110001110000011000011110000111101100000000000000000000000000000011",
"110000000000000000000000000000000000000000000000000000000000000000000000000000000000000000000000000010000001101111111111111111111111000001100000000000000000000001000000001100000000000010000000000000000000000000000000000000000010000000100000000000001000010000000100000000100001000010000000000000011011111100000000000000000010000000000000000000000000000000000100000000010010000000010001000000000000000000000000000000000000001100001000101000011100000000000000000000000000000000000000000000000001100000001100000000000000000000000110000110000000000000000000000010000011000000000000000000000001000000010000000000000000000000011000000010000000000000000000000011000000011000000000000000000000000000000000011011100001110000111000001110000011101100000000000000000000000000000011",
"110000000000000000000000000000000000000000000000000000000000000000000000000000000000000000000000000010000001101111111111111111111111000001100000000000000000000001000000001100000000000010000010000000000000001000001000000100000010000000000010000100000000010001000000010000000010000000000000110000001111111000000000010000000000001000000000000000000000000010000000000000000000000000000000000100000100000000000000000001000000001100101001011010011100000000000000000000000000000000000000000000000001100000001110000000000000000000001110000111000000000000000000000110000011100000000000000000000011000000011000000000000000000000111000000011000000000000000000000111000000011000000000000000000000000000000000011011100001111000110100001110000011101100000000000000000000000000000011",
"110000000000000000000000000000000000000000000000000000000000000000000000000000000000000000000000000010000001101111111111111111111111000001100000000000000000000001000000001100000000000000000000000000000000000000000000000000000000000000000000000000000000000000000000000000000000000000000000000000000000000000000000000000000000000000000000000000000000000000000000000000000000000000000000000000000000000000010000000000000000001100010100100100111100000000000000000000000000000000000000000000000001100000000011111111111111111111111000000011111111111111111111111100000001111111111111111111111110000000001111111111111111111111100000000001111111111111111111111100000000011000000000000000000000000000000000011110110110001101100110111011001100111100000000000000000000000000000011",
"110000000000000000000000000000000000000000000000000000000000000000000000000000000000000000000000000010000001100000000000000000000001000001100000000000000000000011000000001100000000000000000000000000000000000000000000000000000000000000000000000000000000010000000000000000000000000000000000000000000000000000000000000000000000000000000000000000000000000000000000000000000000000000000001000000000000011000010001100000000000001100101010011010011100000000000000000000000000000000000000000000000001100000000011111111111111111111111000000001111111111111111111111100000000111111111111111111111110000000000111111111111111111111100000000001111111111111111111111100000000011000000000000000000000000000000000011100011110000111000011110001101100111100000000000000000000000000000011",
"110000000000000000000000000000000000000000000000000000000000000000000000000000000000000000000000000010000001111111111111111111111111000001111111111111111111111111000000001100000001100010000000000001100000000010000000010000100000001000000000000000000000010000000000000000000000000000000000000000000000000000010000100000010000000001100000000010000000100000000100000001000000000000010000000000000000001100010011100000000000001100000100101000111100000000000000000000000000000000000000000000000001100000000000000000000000000000000000000000000000000000000000000000000000000000000000000000000000000000000000000000000000000000000000000000000000000000000000000000000000011000000000000000000000000000000000011100001100000110000001100000111000011000000000000000000000000000000011",
"110000000000000000000000000000000000000000000000000000000000000000000000000000000000000000000000000010000000000000000000000000000000000000000000000000000000000000000000001100010000000000000000110001100011000000000000000000000000000000000010000100000000000000100010000100110000100000000100000000000000000000000000001000000000110001100011000000000000000000000000010000000010001000000000000100000000000110010110000000000000001100101010000101011100000000000000000000000000000000000000000000000001100000000000000000000000000000000000000000000000000000000000000000000000000000000000000000000000000000000000000000000000000000000000000000000000000000000000000000000000011000000000000000000000000000000000011100110110001111000011110000111000011000000000000000000000000000000011",
"110000000000000000000000000000000000000000000000000000000000000000000000000000000000000000000000000010000000000000000000000000000000000000000000000000000000000000000000001100010000000000000000011001100011000000001000010000000011000001000000000100001000000000000000000000000000000010000000000000000000000000000000000000000000110001100011000000010000000010000000000000000000000000000000000100000000000111010110000000000000001100000000101110111100000000000000000000000000000000000000000000000001100000000000000000000000000000000000000000000000000000000000000000000000000000000000000000000000000000000000000000000000000000000000000000000000000000000000000000000000011000000000000000000000000000000000011100110011011001100110111001101100011000000000000000000000000000000011",
"110000000000000000000000000000000000000000000000000000000000000000000000000000000000000000000000000010000000000000000000000000000000000000000000000000000000000000000000001100000000000000000000011001100010000000000000000000000000000001000000000000000000010000000000000000000000000000000000000000000000000000000100000000000000111001100111000000000000000000000000000000000000000000100000000000001000000011010110000000000000001100101110101000111100000000000000000000000000000000000000000000000001100000000000000000000000000000000000000000000000000000000000000000000000000000000000000000000000000000000000000000000000000000000000000000000000000000000000000000000000011000000000000000000000000000000000011101100011011000111100001011000110011000000000000000000000000000000011",
"110000000000000000000000000000000000000000000000000000000000000000000000000000000000000000000000000010000000000000000000000011111111111111111111111111111111111111000000001100000000000000000000001001100100000000000000000000000000000000000000000000000000000000000000000000000000000000000000000000000000000000000000000000000000011101100110000000000000000000000000000000000000000000000000000000000000000000000000000000000000001100000000000000011100000000000000000000000000000000000000000000000001100000000011111111111111111111111000000001111111111111111111111100000000111111111111111111111110000000001111111111111111111111100000000001111111111111111111111100000000011000000000000000000000000000000000001111000001110000011000001110000011111000000000000000000000000000000011",
"110000000000000000000000000000000000000000000000000000000000000000000000000000000000000000000000000010000000000000000000000010000000000000000000000000000000000001000000001100110001100000000000000101101100000000000000000000100001000001000000000000001000000001000010000000000000000000000000000000100010000100001000000000100000001101101100000000010000100010000100000000100000000000000000000000000000000000000000000001000000001100101010101110111100000000000000000000000000000000000000000000000001100000000110000000000000000000001110000111000000000000000000000110000011100000000000000000000011000000011100000000000000000000111000000011000000000000000000000111000000011000000000000000000000000000000000001111100011011000111100001110000111110000000000000000000000000000000011",
"110000000000000000000000000000000000000000000000000000000000000000000000000000000000000000000000000010000000000000000000000010000000000000000000000000000000000001000000001100000000000010000010000000000000011000010000100000000000000001000010000100000000100001000010001000100001000000000100000000000010000000000000010000000000001101101100000100000000000000000000010000100010000100000000000100011000100010000000100000000000001100000000000000001100000000000000000000000000000000000000000000000001100000000100000000000000000000000110000110000000000000000000000011000011000000000000000000000001000000010000000000000000000000011000000010000000000000000000000011000000011000000000000000000000000000000000001100110111011101100110011011001101010000000000000000000000000000000011",
"110000000000000000000000000000000000000000000000000000000000000000000000000000000000000000000000000010000000000000000000000010011010110100101101011101010110101001000000001100000000000000000000000000000000000000000000000000000000000000000010000000000000000000000000000000000000000000000000000001000000000000000000000000000010000000000000000000000000000000000000000000000000000000000000000000000000100000001000000000000000001110101010101101111100000000000000000000000000000000000000000000000001100000000100000000000000000000000110000110000000000000000000000011000011000000000000000000000001000000010000000000000000000000011000000010000000000000000000000011000000011000000000000000000000000000000000001110011110001111000011110001111000110000000000000000000000000000000011",
"110000000000000000000000000000000000000000000000000000000000000000000000000000000000000000000000000010000000000000000000000010001001001101011010011001010010101001000000001100000000000000000000000000000000000000000000000000000000000000000000000000000000000000000000000000000000000000000000010000000000000000000000000000000000000000000000000000000000000010000000000000000000000000000000000000000000000000000000000000000000001111111111111111111100000000000000000000000000000000000000000000000001100000000100000000000000000000000110000110000000000000000000000011000011000000000000000000000001000000010000000000000000000000011000000010000000000000000000000011000000011000000000000000000000000000000000001110011100000111000011100001111000010000000000000000000000000000000011",
"110000000000000000000000000000000000000000000000000000000000000000000000000000000000000000000000000010000000000000000000000010010101001011010010101100101011010001000000001100000000000000000000000000000000000000000000000000000000011000000000000000000000000000000000000000000000001100000000000000000000000000000000000000000000000000000000000000000000000000000000000000000000000000010000000000000000000000000000000000000000001111111111111111111100000000000000000000000000000000000000000000000001100000000100000000011110000000000110000110000000000000000000000011000011000000000000000000000001000000010000000000000000000000011000000010000000000001111111000011000000011000000000000000000000000000000000001110011110001111100010110001011000110000000000000000000000000000000011",
"110000000000000000000000000000000000000000000000000000000000000000000000000000000000000000000000000010000000000000000000000010001010110100101101011010010110101001000000001100100001000010000100010001000100000100000000100000001100011000100000000000011000010001000010000000000110001100011000000000000010000100001000011000100000000000000100001000010000100000000100001001100000011000010001110000011001000000000000000001000000001100000000000000001100000000000000000000000000000000000000000000000001100000000100000000100011000000000110000110000000000000000000000011000011000000000000000000000001000000010000000000000000000000011000000010000000000001100000000011000000011000000000000000000000000000000000000110110011011001100100110011001100110000000000000000000000000000000011",
"110000000000000000000000000000000000000000000000000000000000000000000000000000000000000000000000000010000000000000000000000010010101101001010010100101101011010001000000001100000000000010000000000000000000000000010000100000001100011001110000000000000000000000000000000100000111001100011000000011000000000000000000010000100001000010000000000000010000000010000000010000000100011100010001110000000000000100001000100000000000001100000000000000001100000000000000000000000000000000000000000000000001100000000100000001100011100000000110000110000000000000000000000011000011000000000000000000000001000000010000000000011000000000011000000010000000000011000000000011000000011000000000000000000000000000000000000111100001111000011100001110000111110000000000000000000000000000000011",
"110000000000000000000000000000000000000000000000000000000000000000000000000000000000000000000000000010000000000000000000000010001010010000100101001010010100101001000000001100000000000000000000000000000000000000000000000000000010011001100000001000000000000000000000000000000011001100110000000000000000000000000000000000000000000000000000000000000000000000000000000000000000001110010011000000000000000100000000000000000000001100000110000000001100000000000000000000000000000000000000000000000001100000001100000001100011100000000110000110000000000000000000000011000011000000011111111000000001000000010000000000011000000000011000000010000000000011000000000011000000011000000000000000000000000000000000000111000001110000111100001100000011110000000000000000000000000000000011",
"110000000000000000000000000000000000000000000000000000000000000000000000000000000000000000000000000010000000000000000000000010010110100101010010010100100100111001000000001100000000000000000000000000000000000000000000000000000011011011000000000000000000000000000000000000000011101101100000000000000000000000000000000000000000000000000000000000000000000000000000000000000000000111010110000000000000000000000000000000000000001100000111110000001100000000000000000000000000000000000000000000000001100000001100000001100011100000000110000110000000000000000000000010000011000000011111111000000001000000010000000000011000000000011000000010000000000011000000000011000000011000000000000000000000000000000000000111100011011001100100011011000110110000000000000000000000000000000011",
"110000000000000000000000000000000000000000000000000000000000000000000000000000000000000000000000000010000000000000000000000010010101001011010110000101001011010001000000001100000000000000000000000000000000000000000000000001000011011011000010000000000000000000000010000000000001101101100000000000000000000000000000000000000000000000000000000000000000000000000000000000000000000011010110000000000000000000000000000001000000001100000100010000001100000000000000000000000000000000000000000000000001100000001100000001100101100000000110000110000000000000000000000010000011000000000000000000000001000000010000000111111111000000011000000010000000000111000000000011000000011000000000000000000000000000000000000110110010001111000110100011001100110000000000000000000000000000000011",
"110000000000000000000000000000000000000000000000000000000000000000000000000000000000000000000000000010000000000000000000000010001010110100101101001010001110011001000000001100100001100011000100000000000100000100010001100001000001011011000010000000011000010001000010000000100000101101100010010000100011000100001000010000100001000000000100001000010000000010000100001000100001000011010110000100001001000000011000100001000000001100000100010000001100000000000000000000000000000000000000000000000001100000001100000001101001100000000110000110000000000000000000000010000011000000000000000000000001000000010000000111111111000000011000000010000001100110000000000011000000011000000000000000000000000000000000000110111100001110000011000001111000110000000000000000000000000000000011",
"110000000000000000000000000000000000000000000000000000000000000000000000000000000000000000000000000010000000000000000000000010010101001011010010110110100100101001000000001100000000000000000100110001000000000000000000000000000000000000000000000000000000000000000000000000000000000000000000000000000000000000000000010000000000000010000000001000000000100000000000000000000001000000000000000000010001000100000000100000000000001100000100010000001100000000000000000000000000000000000000000000000001100000001100000001111001100000000110000110000000000000000000000010000011000000011111111000000001000000010000000000011000000000011000000010000000110110000000000011000000011000000000000000000000000000000000000110011000011011000110110000110000110000000000000000000000000000000011",
"110000000000000000000000000000000000000000000000000000000000000000000000000000000000000000000000000010000000000000000000000010011010110100101101001101011011010001000000001100000000000000000000000000000000000000010000000100000000000000000100000100000000000000000000001000000010000000000100001000000000000000001000000000100000100000000000000000010000000001000000010000100000000000000000010000000000000000001000000000000000001100011100011100001100000000000000000000000000000000000000000000000001100000001100000001100001100000000110000110000000000000000000000010000011000000000000000000000001000000010000000000011000000000011000000010000000010110000000000011000000011000000000000000000000000000000000000110000110110001100100110001010001110000000000000000000000000000000011",
"110000000000000000000000000000000000000000000000000000000000000000000000000000000000000000000000000010000000000000000000000010010101101011010010010010100010101001000000001100000000000000000000000000000000000000000000000000000000000000000000000000000000000000000000000000000000000000000000000000000000000000000000000000000000000000000000000000000000000000000000000000000000000000000000000000000000000000000000000000000000001100011000001100001100000000000000000000000000000000000000000000000001100000001100000001100001100000000110000110000000000110000000000010000011000000000000000000000001000000010000000000011000000000011000000010000000011100000000000011000000011000000000000000000000000000000000000110100011100000111000011011001001110000000000000000000000000000000011",
"110000000000000000000000000000000000000000000000000000000000000000000000000000000000000000000000000010000000000000000000000010001110110110101100100001001111111001000000001100000000000000000000000000000000000000000000000000000000000000000000000000000000000000000000000000000000000000000000000000000000000000000000000000000000000000000000000000000000000000000000000000000000000000000000000000000000000000000000000000000000001100001100011000001100000000000000000000000000000000000000000000000001100000001100000000011110000000000110000110000000000110000000000010000011000000000000000000000001000000010000000000000000000000011000000010000000001100000000000011000000011000000000000000000000000000000000000011100011110000111100001110000111100000000000000000000000000000000011",
"110000000000000000000000000000000000000000000000000000000000000000000000000000000000000000000000000010000000000000000000000010000010000100100100100001001001010001000000001100100001000011000010000010000100000100011000100000010000000001000001000001011000010000100000100000100000100000010000010000110001110001000000001000000001000010000110000010000001000011000010000001000010000010000000000010000010000010000001000001000000001100001100011000001100000000000000000000000000000000000000000000000001100000001100000000000000000000000110000110000000000000000000000010000011000000000000000000000001000000010000000000000000000000011000000010000000001100000000000011000000011000000000000000000000000000000000000011110110110001111100001101011111100000000000000000000000000000000011",
"110000000000000000000000000000000000000000000000000000000000000000000000000000000000000000000000000010000000000000000000000010000000000000000000000000000000000001000000001100000000000000000000000000000000000000000000000000000000000000000000000000000000000000000000000000000000000000000000000000000000000000000000000000000000000000000000000000000000000000000000000000000000000000000000000000000000000000000000000000000000001100000110110000001100000000000000000000000000000000000000000000000001100000000100000000000000000000000110000110000000000000000000000010000011000000000000000000000001000000010000000000000000000000011000000010000000000000000000000011000000011000000000000000000000000000000000000001111111111011000110011011111111000000000000000000000000000000000011",
"110000000000000000000000000000000000000000000000000000000000000000000000000000000000000000000000000010000000000000000000000011111111111111111111111111111111111111000000001100000000000000000000000000000000000000000000000000000000000000000000000000000000000000000000000000000000000000000000000000000000000000000000000000000000000000000000000000000000000000000000000000000000000000000000000000000000000000000000000000000000001100000011110000001100000000000000000000000000000000000000000000000001100000000100000000000000000000000110000110000000000000000000000010000011000000000000000000000001000000010000000000000000000000011000000010000000000000000000000011000000011000000000000000000000000000000000000000001111111111111111111111111000000000000000000000000000000000000011",
"110000000000000000000000000000000000000000000000000000000000000000000000000000000000000000000000000010000000000000000000000011111111111111111111111111111111111111000000001100000000000000000000000000000000000000000000000000000000000000000000000000000000000000000000000000000000000000000000000000000000000000000000000000000000000000000000000000000000000000000000000000000000000000000000000000000000000000000000000000000000001100000011100000001100000000000000000000000000000000000000000000000001100000000110000000000000000000001110000111000000000000000000000110000011100000000000000000000011000000011100000000000000000000111000000011000000000000000000000111000000011000000000000000000000000000000000000000000000011111111111111111000000000000000000000000000000000000000011",
"110000000000000000000000000000000000000000000000000000000000000000000000000000000000000000000000000010000000000000000000000000000000000000000000000000000000000000000000001100000000000000000000000000000000000000000000000000000000000000000000000000000000000000000000000000000000000000000000000000000000000000000000000000000000000000000000000000000000000000000000000000000000000000000000000000000000000000000000000000000000001100000000000000001100000000000000000000000000000000000000000000000001100000000011111111111111111111111000000001111111111111111111111100000001111111111111111111111110000000001111111111111111111111100000000001111111111111111111111100000000011000000000000000000000000000000000000000000000000000000000000000000000000000000000000000000000000000000011",
"110000000000000000000000000000000000000000000000000000000000000000000000000000000000000000000000000010000000000000000000000000000000000000000000000000000000000000000000001100000000000000000000000000000000000000000000000000000000000000000000000000000000000000000000000000000000000000000000000000000000000000000000000000000000000000000000000000000000000000000000000000000000000000000000000000000000000000000000000000000000001100000000000000001100000000000000000000000000000000000000000000000001100000000011111111111111111111111000000001111111111111111111111100000000111111111111111111111110000000000111111111111111111111100000000001111111111111111111111100000000011000000000000000000000000000001111111111111111111111111111111111111111111111111000000000000000000000000011",
"110000000000000000000000000000000000000000000000000000000000000000000000000000000000000000000000000010000000000000000000000000000000000000000000000000000000000000000000001100000000000000000000000000000000000000000000000000000000000000000000000000000000000000000000000000000000000000000000000000000000000000000000000000000000000000000000000000000000000000000000000000000000000000000000000000000000000000000000000000000000001100000000000000011100000000000000000000000000000000000000000000000001100000000000000000000000000000000000000000000000000000000000000000000000000000000000000000000000000000000000000000000000000000000000000000000000000000000000000000000000011000000000000000000000000000001111111111111111111111111111111111111111111111111000000000000000000000000011",
"110000000000000000000000000000000000000000000000000000000000000000000000000000000000000000000000000011111111111111111111111111111111111111111111111111111111111111111111111111111111111111111111111111111111111111111111111111111111111111111111111111111111111111111111111111111111111111111111111111111111111111111111111111111111111111111111111111111111111111111111111111111111111111111111111111111111111111111111111111111111111111111111111111111100000000000000000000000000000000000000000000000001100000000000000000000000000000000000000000000000000000000000000000000000000000000000000000000000000000000000000000000000000000000000000000000000000000000000000000000000011000000000000000000000000000001111111111111111111111111111111111111111111111111000000000000000000000000011",
"110000000000000000000000000000000000000000000000000000000000000000000000000000000000000000000000000010000000000000000111001010110111111101010110101101010110101110111111111011110110101011010101111101101010111101011010111101011110101101011110111111101101011110111010110101101011011011110101111010110111011110111101101111011101011010110110101101010010110110101101001111011010111110101011010101101010110101011100000000000000001100000000000000001100000000000000000000000000000000000000000000000001100000000000000000000000000000000000000000000000000000000000000000000000000000000000000000000000000000000000000000000000000000000000000000000000000000000000000000000000011000000000000000000000000000001111000011111111111111111111111111111111111101111000000000000000000000000011",
"110000000000000000000000000000000000000000000000000000000000000000000000000000000000000000000000000010000000000000000110000000000000010000100001000010100000000000001000010000101000000000001010100000000000100100001000010010100001000000000000100001000000000000000101000010100100101001000010000100100101001010010000000000000000000000001000000100100000101001000000000010100100001000000000001000000000000000001100000000000000001100000000000000001100000000000000000000000000000000000000000000000001100000000000000000000000000000000000000000000000000000000000000000000000000000000000000000000000000000000000000000000000000000000000000000000000000000000000000000000000011000000000000000000000000000001111000011111011111111111111111111111111111101111000000000000000000000000011",
"110000000000000000000000000000000000000000000000000000000000000000000000000000000000000000000000000010000000010000000110010101011010100101010011000101010010110101010100101001010010110110100101010010110101011010110101101001010000100000101001010010100101011101011010100001001010010100101101001001011010010100001001010100101011010110010100100001101010010000010110101101001010010100101000010010010101001010011100000000000000001100000000000000001100000000000000000000000000000000000000000000000001100000000000000000000000000000000000000000000000000000000000000000000000000000000000000000000000000000000000000000000000000000000000000000000000000000000000000000000000011000000000000000000000000000001111011101111111111111111111111111111111111101111000000000000000000000000011",
"110000000000000000000000000000000000000000000000000000000000000000000000000000000000000000000000000010000000110000000110000010100101000000000000101010000000101010000001010000010000101001010001000000000000000101000000010010010000101001010010100000100001011010100000000001000100000000000010010100100001001000000010101001010100101000000000000010110100001000101001010000000010101000101010000100101010100100001100000001100000001100000000000001111100000000000000000000000000000000000000000000000001100000000000000000000000000000000000000000000000000000000000000000000000000000000000000000000000000000000000000000000000000000000000000000000000000000000000000000000000011000000000000000000000000000001111011110110011100011110111100011011001100001111000000000000000000000000011",
"110000000000000000000000000000000000000000000000000000000000000000000000000000000000000000000000000010000001110000000110010101001001010010100001010000100101010100101000010000101001010010100010101101000001100101000010100000101001010110100001001001000010010101010101010010101100001011010000101000000101010010100100000000101001010100001010101101010100101010100101000010000101010000010100101001010000000101001100000001110000001100000000000001101100000000000000000000000000000000000000000000000001100000000000000000000000000000000000000000000000000000000000000000000000000000000000000000000000000000000000000000000000000000000000000000000000000000000000000000000000011000000000000000000000000000001111011110110011100011100011100011010001100001111000000000000000000000000011",
"110000000000000000000000000000000000000000000000000000000000000000000000000000000000000000000000000010000011011111100110001001000010100001010010101101010010101010010100101001010010100101010101010010100101000010010101010001010110101100001001010010100101001000000010100101001010010100101101010001000010100101001010010110010010101010010101010010101011010101010010100101001010010000100101010010100101001010011100111111011100001100000000000010001100000000000000000000000000000000000000000000000001111111111111111111111111111111111111111111111111111111111111111111111111111111111111111111111111111111111111111111111111111111111111111111111111111111111111111111111111111000000000000000000000000000001111011110111011011111011101111101001111011101111000000000000000000000000011",
"110000000000000000000000000000000000000000000000000000000000000000000000000000000000000000000000000010000110000001100110110100101101001010101001010010100101010101001001010010101101001011011010101101011010100101001010100000101001001010010010100101100010110100101101011010110100101001010010100110100101011010010100101000101001010000101010101001010100101010101001001010110100101001010010101001011010110101001100110000001110001100000000000100001100000000000000000000000000000000000000000000000001111111111111111111111111111111111111111111111111111111111111111111111111111111111111111111111111111111111111111111111111111111111111111111111111111111111111111111111111111000000000000000000000000000001111011110111011100111011111100001011111011101111000000000000000000000000011",
"110000000000000000000000000000000000000000000000000000000000000000000000000000000000000000000000000010001100000001100110001001010010100101010010100101011010001010010110101101010010100010100101011010100101001010110101000001010010010100101101001011010001001001011010100101001011010110101001000001011010100101101011010101010110101001010101010010101001010110101010110101001001010010101001010010100101001010011100110000000110001100000000001000001100000000000000000000000000000000000000000000000000000000000000000000000000000000000000000000000000000000000000000000000000000000000000000000000000000000000000000000000000000000000000000000000000000000000000000000000000000000000000000000000000000000001111011101111011111001011101011101011111011101111000000000000000000000000011",
"110000000000000000000000000000000000000000000000000000000000000000000000000000000000000000000000000010000111011111100110010100101101001010100101000010100010100101001001010010100101000101001010000101001010100101001010000010101000101001010010010100101101010010100101001010010100101001010010010100100101001010010100101000101001010010101010101101010010101001010101001010010100101101010100101101001010010100001100111111011100001100000000010000011100000000000000000000000000000000000000000000000000000000000000000000000000000000000000000000000000000000000000000000000000000000000000000000000000000000000000000000000000000000000000000000000000000000000000000000000000000000000000000000000000000000001111000011111011000111100011100001011111100001111000000000000000000000000011",
"110000000000000000000000000000000000000000000000000000000000000000000000000000000000000000000000000010000011111111000110001001001010110101001010100101000101011000010100100000110111011010000101000010010101000010000010010101010101010110100101101001010010101101001010010100101101010001010000101000010010000100001001010001010010100000100101010010101101010101101000100100000001000011001010001010010100000100011100011111111000001100000001100000111100000000000000000000000000000000000000000000000000000000000000000000000000000000000000000000000000000000000000000000000000000000000000000000000000000000000000000000000000000000000000000000000000000000000000000000000000000000000000000000000000000000001111000011111011000111100011100001011111100001111000000000000000000000000011",
"110000000000000000000000000000000000000000000000000000000000000000000000000000000000000000000000000010000000110000000110000100010010000001010100101001001010010010110100100001001010100100100100001010101001000010000101001010101000000100100010000000100001011010000100100001001010010000000100001000010000000000001000010100000001000001001010000101010000010010010100001100101000000010100101000110001001001000001100000001110000001100000001000001101100000000000000000000000000000000000000000000000000000000000000000000000000000000000000000000000000000000000000000000000000000000000000000000000000000000000000000000000000000000000000000000000000000000000000000000000000000000000000000000000000000000001111111111111111111111111111111111111111111111111000000000000000000000000011",
"110000000000000000000000000000000000000000000000000000000000000000000000000000000000000000000000000010000000010000000110010100001101001010100001001010000100101001001010010010010010101001011010010100101010100101001010010101010010101001010010000100100000100100100101001010100100101001011010010100101101001010010100101010101101010010110100100101010010101101101011010101010010100101001010010100001010100100011100000001100000001100000010000010011100000000000000000000000000000000000000000000000000000000000000000000000000000000000000000000000000000000000000000000000000000000000000000000000000000000000000000000000000000000000000000000000000000000000000000000000000000000000000000000000000000000001111111111111111111111111111111111111111111111111000000000000000000000000011",
"110000000000000000000000000000000000000000000000000000000000000000000000000000000000000000000000000010000000000000000110001010010010110101011010100101001011010110110100101010101001010110100101101011010101001010100101001010101101010110101101001011010010100101001010100101001010010100100101101010010010100101001011010101010010101001001001010010101101010010010100101010101001010010110101101010100101001010001100000000000000001100000100000110111100000000000000000000000000000000000000000000000000000000000000000000000000000000000000000000000000000000000000000000000000000000000000000000000000000000000000000000000000000000000000000000000000000000000000000000000000000000000000000000000000000000001111111111111111111111111111111111111111111111111000000000000000000000000011",
"110000000000000000000000000000000000000000000000000000000000000000000000000000000000000000000000000010000000000000000110010101001001001010100101011010010110101001001010010101010110101011010010010100101010100101011010110101010010101101011010110100101101011010110101011010100100101011010010010101101001011010110100101010101101010110100110101101010010101001101010110101010010101010001010010101001010110101011100000000000000001100001000001101111100000000000000000000000000000000000000000000000000000000000000000000000000000000000000000000000000000000000000000000000000000000000000000000000000000000000000000000000000000000000000000000000000000000000000000000000000000000000000000000000000000000000000000000000000000000000000000000000000000000000000000000000000000000000011",
"110000000000000000000000000000000000000000000000000000000000000000000000000000000000000000000000000011111111111111111111111111111111111111111111111111111111111111111111111111111111111111111111111111111111111111111111111111111111111111111111111111111111111111111111111111111111111111111111111111111111111111111111111111111111111111111111111111111111111111111111111111111111111111111111111111111111111111111111111111111111111111111111111111111100000000000000000000000000000000000000000000000000000000000000000000000000000000000000000000000000000000000000000000000000000000000000000000000000000000000000000000000000000000000000000000000000000000000000000000000000000000000000000000000000000000000000000000000000000000000000000000000000000000000000000000000000000000000011",
"110000000000000000000000000000000000000000000000000000000000000000000000000000000000000000000000000011111111111111111111111111111111111111111111111111111111111111111111111111111111111111111111111111111111111111111111111111111111111111111111111111111111111111111111111111111111111111111111111111111111111111111111111111111111111111111111111111111111111111111111111111111111111111111111111111111111111111111111111111111111111111111111111111111100000000000000000000000000000000000000000000000000000000000000000000000000000000000000000000000000000000000000000000000000000000000000000000000000000000000000000000000000000000000000000000000000000000000000000000000000000000000000000000000000000000000000000000000000000000000000000000000000000000000000000000000000000000000011",
"110000000000000000000000000000000000000000000000000000000000000000000000000000000000000000000000000000000000000000000000000000000000000000000000000000000000000000000000000000000000000000000000000000000000000000000000000000000000000000000000000000000000000000000000000000000000000000000000000000000000000000000000000000000000000000000000000000000000000000000000000000000000000000000000000000000000000000000000000000000000000000000000000000000000000000000000000000000000000000000000000000000000000000000000000000000000000000000000000000000000000000000000000000000000000000000000000000000000000000000000000000000000000000000000000000000000000000000000000000000000000000000000000000000000000000000000000000000000000000000000000000000000000000000000000000000000000000000011",
"110000000000000000000000000000000000000000000000000000000000000000000000000000000000000000000000000000000000000000000000000000000000000000000000000000000000000000000000000000000000000000000000000000000000000000000000000000000000000000000000000000000000000000000000000000000000000000000000000000000000000000000000000000000000000000000000000000000000000000000000000000000000000000000000000000000000000000000000000000000000000000000000000000000000000000000000000000000000000000000000000000000000000000000000000000000000000000000000000000000000000000000000000000000000000000000000000000000000000000000000000000000000000000000000000000000000000000000000000000000000000000000000000000000000000000000000000000000000000000000000000000000000000000000000000000000000000000000011",
"110000000000000000000000000000000000000000000000000000000000000000000000000000000000000000000000000000000000000000000000000000000000000000000000000000000000000000000000000000000000000000000000000000000000000000000000000000000000000000000000000000000000000000000000000000000000000000000000000000000000000000000000000000000000000000000000000000000000000000000000000000000000000000000000000000000000000000000000000000000000000000000000000000000000000000000000000000000000000000000000000000000000000000000000000000000000000000000000000000000000000000000000000000000000000000000000000000000000000000000000000000000000000000000000000000000000000000000000000000000000000000000000000000000000000000000000000000000000000000000000000000000000000000000000000000000000000000000011",
"110000000000000000000000000000000000000000000000000000000000000000000000000000000000000000000000000000000000000000000000000000000000000000000000000000000000000000000000000000000000000000000000000000000000000000000000000000000000000000000000000000000000000000000000000000000000000000000000000000000000000000000000000000000000000000000000000000000000000000000000000000000000000000000000000000000000000000000000000000000000000000000000000000000000000000000000000000000000000000000000000000000000000000000000000000000000000000000000000000000000000000000000000000000000000000000000000000000000000000000000000000000000000000000000000000000000000000000000000000000000000000000000000000000000000000000000000000000000000000000000000000000000000000000000000000000000000000000011",
"110000000000000000000000000000000000000000000000000000000000000000000000000000000000000000000000000000000000000000000000000000000000000000000000000000000000000000000000000000000000000000000000000000000000000000000000000000000000000000000000000000000000000000000000000000000000000000000000000000000000000000000000000000000000000000000000000000000000000000000000000000000000000000000000000000000000000000000000000000000000000000000000000000000000000000000000000000000000000000000000000000000000000000000000000000000000000000000000000000000000000000000000000000000000000000000000000000000000000000000000000000000000000000000000000000000000000000000000000000000000000000000000000000000000000000000000000000000000000000000000000000000000000000000000000000000000000000000011",
"110000000000000000000000000000000000000000000000000000000000000000000000000000000000000000000000000000000000000000000000000000000000000000000000000000000000000000000000000000000000000000000000000000000000000000000000000000000000000000000000000000000000000000000000000000000000000000000000000000000000000000000000000000000000000000000000000000000000000000000000000000000000000000000000000000000000000000000000000000000000000000000000000000000000000000000000000000000000000000000000000000000000000000000000000000000000000000000000000000000000000000000000000000000000000000000000000000000000000000000000000000000000000000000000000000000000000000000000000000000000000000000000000000000000000000000000000000000000000000000000000000000000000000000000000000000000000000000011",
"110000000000000000000000000000000000000000000000000000000000000000000000000000000000000000000000000000000000000000000000000000000000000000000000000000000000000000000000000000000000000000000000000000000000000000000000000000000000000000000000000000000000000000000000000000000000000000000000000000000000000000000000000000000000000000000000000000000000000000000000000000000000000000000000000000000000000000000000000000000000000000000000000000000000000000000000000000000000000000000000000000000000000000000000000000000000000000000000000000000000000000000000000000000000000000000000000000000000000000000000000000000000000000000000000000000000000000000000000000000000000000000000000000000000000000000000000000000000000000000000000000000000000000000000000000000000000000000011",
"110000000000000000000000000000000000000000000000000000000000000000000000000000000000000000000000000000000000000000000000000000000000000000000000000000000000000000000000000000000000000000000000000000000000000000000000000000000000000000000000000000000000000000000000000000000000000000000000000000000000000000000000000000000000000000000000000000000000000000000000000000000000000000000000000000000000000000000000000000000000000000000000000000000000000000000000000000000000000000000000000000000000000000000000000000000000000000000000000000000000000000000000000000000000000000000000000000000000000000000000000000000000000000000000000000000000000000000000000000000000000000000000000000000000000000000000000000000000000000000000000000000000000000000000000000000000000000000011",
"110000000000000000000000000000000000000000000000000000000000000000000000000000000000000000000000000000000000000000000000000000000000000000000000000000000000000000000000000000000000000000000000000000000000000000000000000000000000000000000000000000000000000000000000000000000000000000000000000000000000000000000000000000000000000000000000000000000000000000000000000000000000000000000000000000000000000000000000000000000000000000000000000000000000000000000000000000000000000000000000000000000000000000000000000000000000000000000000000000000000000000000000000000000000000000000000000000000000000000000000000000000000000000000000000000000000000000000000000000000000000000000000000000000000000000000000000000000000000000000000000000000000000000000000000000000000000000000011",
"110000000000000000000000000000000000000000000000000000000000000000000000000000000000000000000000000000000000000000000000000000000000000000000000000000000000000000000000000000000000000000000000000000000000000000000000000000000000000000000000000000000000000000000000000000000000000000000000000000000000000000000000000000000000000000000000000000000000000000000000000000000000000000000000000000000000000000000000000000000000000000000000000000000000000000000000000000000000000000000000000000000000000000000000000000000000000000000000000000000000000000000000000000000000000000000000000000000000000000000000000000000000000000000000000000000000000000000000000000000000000000000000000000000000000000000000000000000000000000000000000000000000000000000000000000000000000000000011",
"110000000000000000000000000000000000000000000000000000000000000000000000000000000000000000000000000000000000000000000000000000000000000000000000000000000000000000000000000000000000000000000000000000000000000000000000000000000000000000000000000000000000000000000000000000000000000000000000000000000000000000000000000000000000000000000000000000000000000000000000000000000000000000000000000000000000000000000000000000000000000000000000000000000000000000000000000000000000000000000000000000000000000000000000000000000000000000000000000000000000000000000000000000000000000000000000000000000000000000000000000000000000000000000000000000000000000000000000000000000000000000000000000000000000000000000000000000000000000000000000000000000000000000000000000000000000000000000011",
"110000000000000000000000000000000000000000000000000000000000000000000000000000000000000000000000000000000000000000000000000000000000000000000000000000000000000000000000000000000000000000000000000000000000000000000000000000000000000000000000000000000000000000000000000000000000000000000000000000000000000000000000000000000000000000000000000000000000000000000000000000000000000000000000000000000000000000000000000000000000000000000000000000000000000000000000000000000000000000000000000000000000000000000000000000000000000000000000000000000000000000000000000000000000000000000000000000000000000000000000000000000000000000000000000000000000000000000000000000000000000000000000000000000000000000000000000000000000000000000000000000000000000000000000000000000000000000000011",
"110000000000000000000000000000000000000000000000000000000000000000000000000000000000000000000000000000000000000000000000000000000000000000000000000000000000000000000000000000000000000000000000000000000000000000000000000000000000000000000000000000000000000000000000000000000000000000000000000000000000000000000000000000000000000000000000000000000000000000000000000000000000000000000000000000000000000000000000000000000000000000000000000000000000000000000000000000000000000000000000000000000000000000000000000000000000000000000000000000000000000000000000000000000000000000000000000000000000000000000000000000000000000000000000000000000000000000000000000000000000000000000000000000000000000000000000000000000000000000000000000000000000000000000000000000000000000000000011",
"110000000000000000000000000000000000000000000000000000000000000000000000000000000000000000000000000000000000000000000000000000000000000000000000000000000000000000000000000000000000000000000000000000000000000000000000000000000000000000000000000000000000000000000000000000000000000000000000000000000000000000000000000000000000000000000000000000000000000000000000000000000000000000000000000000000000000000000000000000000000000000000000000000000000000000000000000000000000000000000000000000000000000000000000000000000000000000000000000000000000000000000000000000000000000000000000000000000000000000000000000000000000000000000000000000000000000000000000000000000000000000000000000000000000000000000000000000000000000000000000000000000000000000000000000000000000000000000011",
"110000000000000000000000000000000000000000000000000000000000000000000000000000000000000000000000000000000000000000000000000000000000000000000000000000000000000000000000000000000000000000000000000000000000000000000000000000000000000000000000000000000000000000000000000000000000000000000000000000000000000000000000000000000000000000000000000000000000000000000000000000000000000000000000000000000000000000000000000000000000000000000000000000000000000000000000000000000000000000000000000000000000000000000000000000000000000000000000000000000000000000000000000000000000000000000000000000000000000000000000000000000000000000000000000000000000000000000000000000000000000000000000000000000000000000000000000000000000000000000000000000000000000000000000000000000000000000000011",
"110000000000000000000000000000000000000000000000000000000000000000000000000000000000000000000000000000000000000000000000000000000000000000000000000000000000000000000000000000000000000000000000000000000000000000000000000000000000000000000000000000000000000000000000000000000000000000000000000000000000000000000000000000000000000000000000000000000000000000000000000000000000000000000000000000000000000000000000000000000000000000000000000000000000000000000000000000000000000000000000000000000000000000000000000000000000000000000000000000000000000000000000000000000000000000000000000000000000000000000000000000000000000000000000000000000000000000000000000000000000000000000000000000000000000000000000000000000000000000000000000000000000000000000000000000000000000000000011",
"110000000000000000000000000000000000000000000000000000000000000000000000000000000000000000000000000000000000000000000000000000000000000000000000000000000000000000000000000000000000000000000000000000000000000000000000000000000000000000000000000000000000000000000000000000000000000000000000000000000000000000000000000000000000000000000000000000000000000000000000000000000000000000000000000000000000000000000000000000000000000000000000000000000000000000000000000000000000000000000000000000000000000000000000000000000000000000000000000000000000000000000000000000000000000000000000000000000000000000000000000000000000000000000000000000000000000000000000000000000000000000000000000000000000000000000000000000000000000000000000000000000000000000000000000000000000000000000011",
"110000000000000000000000000000000000000000000000000000000000000000000000000000000000000000000000000000000000000000000000000000000000000000000000000000000000000000000000000000000000000000000000000000000000000000000000000000000000000000000000000000000000000000000000000000000000000000000000000000000000000000000000000000000000000000000000000000000000000000000000000000000000000000000000000000000000000000000000000000000000000000000000000000000000000000000000000000000000000000000000000000000000000000000000000000000000000000000000000000000000000000000000000000000000000000000000000000000000000000000000000000000000000000000000000000000000000000000000000000000000000000000000000000000000000000000000000000000000000000000000000000000000000000000000000000000000000000000011",
"110000000000000000000000000000000000000000000000000000000000000000000000000000000000000000000000000000000000000000000000000000000000000000000000000000000000000000000000000000000000000000000000000000000000000000000000000000000000000000000000000000000000000000000000000000000000000000000000000000000000000000000000000000000000000000000000000000000000000000000000000000000000000000000000000000000000000000000000000000000000000000000000000000000000000000000000000000000000000000000000000000000000000000000000000000000000000000000000000000000000000000000000000000000000000000000000000000000000000000000000000000000000000000000000000000000000000000000000000000000000000000000000000000000000000000000000000000000000000000000000000000000000000000000000000000000000000000000011",
"110000000000000000000000000000000000000000000000000000000000000000000000000000000000000000000000000000000000000000000000000000000000000000000000000000000000000000000000000000000000000000000000000000000000000000000000000000000000000000000000000000000000000000000000000000000000000000000000000000000000000000000000000000000000000000000000000000000000000000000000000000000000000000000000000000000000000000000000000000000000000000000000000000000000000000000000000000000000000000000000000000000000000000000000000000000000000000000000000000000000000000000000000000000000000000000000000000000000000000000000000000000000000000000000000000000000000000000000000000000000000000000000000000000000000000000000000000000000000000000000000000000000000000000000000000000000000000000011",
"110000000000000000000000000000000000000000000000000000000000000000000000000000000000000000000000000000000000000000000000000000000000000000000000000000000000000000000000000000000000000000000000000000000000000000000000000000000000000000000000000000000000000000000000000000000000000000000000000000000000000000000000000000000000000000000000000000000000000000000000000000000000000000000000000000000000000000000000000000000000000000000000000000000000000000000000000000000000000000000000000000000000000000000000000000000000000000000000000000000000000000000000000000000000000000000000000000000000000000000000000000000000000000000000000000000000000000000000000000000000000000000000000000000000000000000000000000000000000000000000000000000000000000000000000000000000000000000011",
"110000000000000000000000000000000000000000000000000000000000000000000000000000000000000000000000000000000000000000000000000000000000000000000000000000000000000000000000000000000000000000000000000000000000000000000000000000000000000000000000000000000000000000000000000000000000000000000000000000000000000000000000000000000000000000000000000000000000000000000000000000000000000000000000000000000000000000000000000000000000000000000000000000000000000000000000000000000000000000000000000000000000000000000000000000000000000000000000000000000000000000000000000000000000000000000000000000000000000000000000000000000000000000000000000000000000000000000000000000000000000000000000000000000000000000000000000000000000000000000000000000000000000000000000000000000000000000000011",
"110000000000000000000000000000000000000000000000000000000000000000000000000000000000000000000000000000000000000000000000000000000000000000000000000000000000000000000000000000000000000000000000000000000000000000000000000000000000000000000000000000000000000000000000000000000000000000000000000000000000000000000000000000000000000000000000000000000000000000000000000000000000000000000000000000000000000000000000000000000000000000000000000000000000000000000000000000000000000000000000000000000000000000000000000000000000000000000000000000000000000000000000000000000000000000000000000000000000000000000000000000000000000000000000000000000000000000000000000000000000000000000000000000000000000000000000000000000000000000000000000000000000000000000000000000000000000000000011",
"110000000000000000000000000000000000000000000000000000000000000000000000000000000000000000000000000000000000000000000000000000000000000000000000000000000000000000000000000000000000000000000000000000000000000000000000000000000000000000000000000000000000000000000000000000000000000000000000000000000000000000000000000000000000000000000000000000000000000000000000000000000000000000000000000000000000000000000000000000000000000000000000000000000000000000000000000000000000000000000000000000000000000000000000000000000000000000000000000000000000000000000000000000000000000000000000000000000000000000000000000000000000000000000000000000000000000000000000000000000000000000000000000000000000000000000000000000000000000000000000000000000000000000000000000000000000000000000011",
"110000000000000000000000000000000000000000000000000000000000000000000000000000000000000000000000000000000000000000000000000000000000000000000000000000000000000000000000000000000000000000000000000000000000000000000000000000000000000000000000000000000000000000000000000000000000000000000000000000000000000000000000000000000000000000000000000000000000000000000000000000000000000000000000000000000000000000000000000000000000000000000000000000000000000000000000000000000000000000000000000000000000000000000000000000000000000000000000000000000000000000000000000000000000000000000000000000000000000000000000000000000000000000000000000000000000000000000000000000000000000000000000000000000000000000000000000000000000000000000000000000000000000000000000000000000000000000000011",
"110000000000000000000000000000000000000000000000000000000000000000000000000000000000000000000000000000000000000000000000000000000000000000000000000000000000000000000000000000000000000000000000000000000000000000000000000000000000000000000000000000000000000000000000000000000000000000000000000000000000000000000000000000000000000000000000000000000000000000000000000000000000000000000000000000000000000000000000000000000000000000000000000000000000000000000000000000000000000000000000000000000000000000000000000000000000000000000000000000000000000000000000000000000000000000000000000000000000000000000000000000000000000000000000000000000000000000000000000000000000000000000000000000000000000000000000000000000000000000000000000000000000000000000000000000000000000000000011",
"110000000000000000000000000000000000000000000000000000000000000000000000000000000000000000000000000000000000000000000000000000000000000000000000000000000000000000000000000000000000000000000000000000000000000000000000000000000000000000000000000000000000000000000000000000000000000000000000000000000000000000000000000000000000000000000000000000000000000000000000000000000000000000000000000000000000000000000000000000000000000000000000000000000000000000000000000000000000000000000000000000000000000000000000000000000000000000000000000000000000000000000000000000000000000000000000000000000000000000000000000000000000000000000000000000000000000000000000000000000000000000000000000000000000000000000000000000000000000000000000000000000000000000000000000000000000000000000011",
"110000000000000000000000000000000000000000000000000000000000000000000000000000000000000000000000000000000000000000000000000000000000000000000000000000000000000000000000000000000000000000000000000000000000000000000000000000000000000000000000000000000000000000000000000000000000000000000000000000000000000000000000000000000000000000000000000000000000000000000000000000000000000000000000000000000000000000000000000000000000000000000000000000000000000000000000000000000000000000000000000000000000000000000000000000000000000000000000000000000000000000000000000000000000000000000000000000000000000000000000000000000000000000000000000000000000000000000000000000000000000000000000000000000000000000000000000000000000000000000000000000000000000000000000000000000000000000000011",
"110000000000000000000000000000000000000000000000000000000000000000000000000000000000000000000000000000000000000000000000000000000000000000000000000000000000000000000000000000000000000000000000000000000000000000000000000000000000000000000000000000000000000000000000000000000000000000000000000000000000000000000000000000000000000000000000000000000000000000000000000000000000000000000000000000000000000000000000000000000000000000000000000000000000000000000000000000000000000000000000000000000000000000000000000000000000000000000000000000000000000000000000000000000000000000000000000000000000000000000000000000000000000000000000000000000000000000000000000000000000000000000000000000000000000000000000000000000000000000000000000000000000000000000000000000000000000000000011",
"110000000000000000000000000000000000000000000000000000000000000000000000000000000000000000000000000000000000000000000000000000000000000000000000000000000000000000000000000000000000000000000000000000000000000000000000000000000000000000000000000000000000000000000000000000000000000000000000000000000000000000000000000000000000000000000000000000000000000000000000000000000000000000000000000000000000000000000000000000000000000000000000000000000000000000000000000000000000000000000000000000000000000000000000000000000000000000000000000000000000000000000000000000000000000000000000000000000000000000000000000000000000000000000000000000000000000000000000000000000000000000000000000000000000000000000000000000000000000000000000000000000000000000000000000000000000000000000011",
"110000000000000000000000000000000000000000000000000000000000000000000000000000000000000000000000000000000000000000000000000000000000000000000000000000000000000000000000000000000000000000000000000000000000000000000000000000000000000000000000000000000000000000000000000000000000000000000000000000000000000000000000000000000000000000000000000000000000000000000000000000000000000000000000000000000000000000000000000000000000000000000000000000000000000000000000000000000000000000000000000000000000000000000000000000000000000000000000000000000000000000000000000000000000000000000000000000000000000000000000000000000000000000000000000000000000000000000000000000000000000000000000000000000000000000000000000000000000000000000000000000000000000000000000000000000000000000000011",
"110000000000000000000000000000000000000000000000000000000000000000000000000000000000000000000000000000000000000000000000000000000000000000000000000000000000000000000000000000000000000000000000000000000000000000000000000000000000000000000000000000000000000000000000000000000000000000000000000000000000000000000000000000000000000000000000000000000000000000000000000000000000000000000000000000000000000000000000000000000000000000000000000000000000000000000000000000000000000000000000000000000000000000000000000000000000000000000000000000000000000000000000000000000000000000000000000000000000000000000000000000000000000000000000000000000000000000000000000000000000000000000000000000000000000000000000000000000000000000000000000000000000000000000000000000000000000000000011",
"110000000000000000000000000000000000000000000000000000000000000000000000000000000000000000000000000000000000000000000000000000000000000000000000000000000000000000000000000000000000000000000000000000000000000000000000000000000000000000000000000000000000000000000000000000000000000000000000000000000000000000000000000000000000000000000000000000000000000000000000000000000000000000000000000000000000000000000000000000000000000000000000000000000000000000000000000000000000000000000000000000000000000000000000000000000000000000000000000000000000000000000000000000000000000000000000000000000000000000000000000000000000000000000000000000000000000000000000000000000000000000000000000000000000000000000000000000000000000000000000000000000000000000000000000000000000000000000011",
"110000000000000000000000000000000000000000000000000000000000000000000000000000000000000000000000000000000000000000000000000000000000000000000000000000000000000000000000000000000000000000000000000000000000000000000000000000000000000000000000000000000000000000000000000000000000000000000000000000000000000000000000000000000000000000000000000000000000000000000000000000000000000000000000000000000000000000000000000000000000000000000000000000000000000000000000000000000000000000000000000000000000000000000000000000000000000000000000000000000000000000000000000000000000000000000000000000000000000000000000000000000000000000000000000000000000000000000000000000000000000000000000000000000000000000000000000000000000000000000000000000000000000000000000000000000000000000000011",
"110000000000000000000000000000000000000000000000000000000000000000000000000000000000000000000000000000000000000000000000000000000000000000000000000000000000000000000000000000000000000000000000000000000000000000000000000000000000000000000000000000000000000000000000000000000000000000000000000000000000000000000000000000000000000000000000000000000000000000000000000000000000000000000000000000000000000000000000000000000000000000000000000000000000000000000000000000000000000000000000000000000000000000000000000000000000000000000000000000000000000000000000000000000000000000000000000000000000000000000000000000000000000000000000000000000000000000000000000000000000000000000000000000000000000000000000000000000000000000000000000000000000000000000000000000000000000000000011",
"110000000000000000000000000000000000000000000000000000000000000000000000000000000000000000000000000000000000000000000000000000000000000000000000000000000000000000000000000000000000000000000000000000000000000000000000000000000000000000000000000000000000000000000000000000000000000000000000000000000000000000000000000000000000000000000000000000000000000000000000000000000000000000000000000000000000000000000000000000000000000000000000000000000000000000000000000000000000000000000000000000000000000000000000000000000000000000000000000000000000000000000000000000000000000000000000000000000000000000000000000000000000000000000000000000000000000000000000000000000000000000000000000000000000000000000000000000000000000000000000000000000000000000000000000000000000000000000011",
"110000000000000000000000000000000000000000000000000000000000000000000000000000000000000000000000000000000000000000000000000000000000000000000000000000000000000000000000000000000000000000000000000000000000000000000000000000000000000000000000000000000000000000000000000000000000000000000000000000000000000000000000000000000000000000000000000000000000000000000000000000000000000000000000000000000000000000000000000000000000000000000000000000000000000000000000000000000000000000000000000000000000000000000000000000000000000000000000000000000000000000000000000000000000000000000000000000000000000000000000000000000000000000000000000000000000000000000000000000000000000000000000000000000000000000000000000000000000000000000000000000000000000000000000000000000000000000000011",
"110000000000000000000000000000000000000000000000000000000000000000000000000000000000000000000000000000000000000000000000000000000000000000000000000000000000000000000000000000000000000000000000000000000000000000000000000000000000000000000000000000000000000000000000000000000000000000000000000000000000000000000000000000000000000000000000000000000000000000000000000000000000000000000000000000000000000000000000000000000000000000000000000000000000000000000000000000000000000000000000000000000000000000000000000000000000000000000000000000000000000000000000000000000000000000000000000000000000000000000000000000000000000000000000000000000000000000000000000000000000000000000000000000000000000000000000000000000000000000000000000000000000000000000000000000000000000000000011",
"110000000000000000000000000000000000000000000000000000000000000000000000000000000000000000000000000000000000000000000000000000000000000000000000000000000000000000000000000000000000000000000000000000000000000000000000000000000000000000000000000000000000000000000000000000000000000000000000000000000000000000000000000000000000000000000000000000000000000000000000000000000000000000000000000000000000000000000000000000000000000000000000000000000000000000000000000000000000000000000000000000000000000000000000000000000000000000000000000000000000000000000000000000000000000000000000000000000000000000000000000000000000000000000000000000000000000000000000000000000000000000000000000000000000000000000000000000000000000000000000000000000000000000000000000000000000000000000011",
"110000000000000000000000000000000000000000000000000000000000000000000000000000000000000000000000000000000000000000000000000000000000000000000000000000000000000000000000000000000000000000000000000000000000000000000000000000000000000000000000000000000000000000000000000000000000000000000000000000000000000000000000000000000000000000000000000000000000000000000000000000000000000000000000000000000000000000000000000000000000000000000000000000000000000000000000000000000000000000000000000000000000000000000000000000000000000000000000000000000000000000000000000000000000000000000000000000000000000000000000000000000000000000000000000000000000000000000000000000000000000000000000000000000000000000000000000000000000000000000000000000000000000000000000000000000000000000000011",
"110000000000000000000000000000000000000000000000000000000000000000000000000000000000000000000000000000000000000000000000000000000000000000000000000000000000000000000000000000000000000000000000000000000000000000000000000000000000000000000000000000000000000000000000000000000000000000000000000000000000000000000000000000000000000000000000000000000000000000000000000000000000000000000000000000000000000000000000000000000000000000000000000000000000000000000000000000000000000000000000000000000000000000000000000000000000000000000000000000000000000000000000000000000000000000000000000000000000000000000000000000000000000000000000000000000000000000000000000000000000000000000000000000000000000000000000000000000000000000000000000000000000000000000000000000000000000000000011",
"111111111111111111111111111111111111111111111111111111111111111111111111111111111111111111111111111111111111111111111111111111111111111111111111111111111111111111111111111111111111111111111111111111111111111111111111111111111111111111111111111111111111111111111111111111111111111111111111111111111111111111111111111111111111111111111111111111111111111111111111111111111111111111111111111111111111111111111111111111111111111111111111111111111111111111111111111111111111111111111111111111111111111111111111111111111111111111111111111111111111111111111111111111111111111111111111111111111111111111111111111111111111111111111111111111111111111111111111111111111111111111111111111111111111111111111111111111111111111111111111111111111111111111111111111111111111111111111111",
"111111111111111111111111111111111111111111111111111111111111111111111111111111111111111111111111111111111111111111111111111111111111111111111111111111111111111111111111111111111111111111111111111111111111111111111111111111111111111111111111111111111111111111111111111111111111111111111111111111111111111111111111111111111111111111111111111111111111111111111111111111111111111111111111111111111111111111111111111111111111111111111111111111111111111111111111111111111111111111111111111111111111111111111111111111111111111111111111111111111111111111111111111111111111111111111111111111111111111111111111111111111111111111111111111111111111111111111111111111111111111111111111111111111111111111111111111111111111111111111111111111111111111111111111111111111111111111111111"
};
