/* XPM */
static const char *commodore_desktop[] = {
"768 512 2 1",
"0 c #FFFFFF",
"1 c #000000",
"111111111111111111111111111111111111111111111111111111111111111111111111111111111111111111111111111111111111111111111111111111111111111111111111111111111111111111111111111111111111111111111111111111111111111111111111111111111111111111111111111111111111111111111111111111111111111111111111111111111111111111111111111111111111111111111111111111111111111111111111111111111111111111111111111111111111111111111111111111111111111111111111111111111111111111111111111111111111111111111111111111111111111111111111111111111111111111111111111111111111111111111111111111111111111111111111111111111111111111111111111111111111111111111111111111111111111111111111111111111111111111111111111111111111111111111111111111111111111111111111111111111111111111111111111111111111111111111110",
"100000000000000000000000000000000000000000000000000000000000000000000000000000000000000000000000000000000000000000000000000000000000000000000000000000000000000000000000000000000000000000000000000000000000000000000000000000000000000000000000000000000000000000000000000000000000000000000000000000000000000000000000000000000000000000000000000000000000000000000000000000000000000000000000000000000000000000000000000000000000000000000000000000000000000000000000000000000000000000000000000000000000000000000000000000000000000000000000000000000000000000000000000000000000000000000000000000000000000000000000000000000000000000000000000000000000000000000000000000000000000000000000000000000000000000000000000000010000000000000000000000000000100000000000000000000000000000000010",
"100000000000000000000000000000000000000000000000000000000000000000000000000000000000000000000000000000000000000000000000000000000000000000000000000000000000000000000000000000000000000000000000000000000000000000000000000000000000000000000000000000000000000000000000000000000000000000000000000000000000000000000000000000000000000000000000000000000000000000000000000000000000000000000000000000000000000000000000000000000000000000000000000000000000000000000000000000000000000000000000000000000000000000000000000000000000000000000000000000000000000000000000000000000000000000000000000000000000000000000000000000000000000000000000000000000000000000000000000000000000000000000000000000000000000000000000000000010000000000000000000000000000100000000000000000000000000000000010",
"100000000000000000000000000000000000000000000000000000000000000000000000000000000000000000000000000000000000000000000000000000000000000000000000000000000000000000000000000000000000000000000000000000000000000000000000000000000000000000000000000000000000000000000000000000000000000000000000000000000000000000000000000000000000000000000000000000000000000000000000000000000000000000000000000000000000000000000000000000000000000000000000000000000000000000000000000000000000000000000000000000000000000000000000000000000000000000000000000000000000000000000000000000000000000000000000000000000000000000000000000000000000000000000000000000000000000000000000000000000000000000000000000000000000000000000000000000010000000000000000000000000000100000000000000000000000000000000010",
"100000000000000000000000000000000000000000000000000000000000000000000000000000000000000000000000000000000000000000000000000000000000000000000000000000000000000000000000000000000000000000000000000000000000000000000000000000000000000000000000000000000000000000000000000000000000000000000000000000000000000000000000000000000000000000000000000000000000000000000000000000000000000000000000000000000000000000000000000000000000000000000000000000000000000000000000000000000000000000000000000000000000000000000000000000000000000000000000000000000000000000000000000000000000000000000000000000000000000000000000000000000000000000000000000000000000000000000000000000000000000000000000000000000000000000000000000000010000011111111111111100000000100000111111111111111100000000000010",
"100000000000000000000000000000000000000000000000000000000000000000000000000000000000000000000000000000000000000000000000000000000000000000000000000000000000000000000000000000000000000000000000000000000000000000000000000000000000000000000000000000000000000000000000000000000000000000000000000000000000000000000000000000000000000000000000000000000000000000000000000000000000000000000000000000000000000000000000000000000000000000000000000000000000000000000000000000000000000000000000000000000000000000000000000000000000000000000000000000000000000000000000000000000000000000000000000000000000000000000000000000000000000000000000000000000000000000000000000000000000000000000000000000000000000000000000000000010000010111111111111110000000100000111111111111111110000000000010",
"100000001100011001100110110001100111100011111000110011011111100111111001100110001111000110011000000000000110000000000011111100000000000000000000001111110000110000011110011000110000000000111100011000000001000000000000000000001111100000110001100001000000000000000000001100000111100111111000011100011001100000000001111100000000000000000001100000000000011111000001100011000010000000000000000000000110000100000000000000000000000000011000001111000000000011000110000000000000000000000000011110000111100000000000000000000110000011110000000000011110000011100000000000111110000111000000000000000000000000000000000000000000000000000000000000000000000000000000000000000000000000000000000000000000000000000000000000010000010111011111101110000000100000111111111111110111000000000010",
"100000001110011001100110110001100111110011111100100011011111100111111001100110011111100110011000000000001110000000000011111100000000000000000000001111110000110000111110011000110000000000111110011000000001000000000000000000001111110001110001110011000000000000000000011100001111100111111000111100011001100000000001111100000000000000000001100000000000011111100011100011100110000000000000000000000111001100000000000000000000000000011000011111100000000011100110000000000000000000000000111111000111000000000000000000001110000111111000000000111111000011100000000000111110001111000000000000000000000000000000000000000000000000000000000000000000000000000000000000000000000000000000000000000000000000000000000000010000011110011001111110000000100000111111111111110111100000000010",
"100000000111011001100110110001101100110011001100100110011000110110000001100110011001100110011000000000011110000000000000001100000000000000000000001100000001110000110011011001100000000001100110011000000000000000000000000000001100110001111001110011000000000000000000111100011001110000011000110000011011000000000001000000000000000000000001100000000000011001100011110011100110000000000000000000000111001100000000000000000000000000111000011001100000000011101110000000000000000000000000110011000100000000000000000000001110000100111000111000110011000111100000110000000110001100000000000000000000000000000000000000000000000000000000000000000000000000000000000000000000000000000000000000000000000000000000000000010000011101111111111111000000100000111111111111111111111100000010",
"100000000111111001100110110001101100110011001100101110011000110110000001110110011000000100011000000000000110000000000000011100000000000000000000001100000000110000000011011011100000000001100000011110000011000011111000000000001100110011011001110111000000000000000000001100000001110000011001100000011111000000000001000000011110000111100011111000000000011001100010110011111110000000000000000000000111111100011100001011000000000000011000011001100000000011101110011110001100110000000000110011011000000000000000000000000110000100111000111000000011000101100000110000000110011000000000000000000000000000000000000000000000000000000000000000000000000000000000000000000000000000000000000000000000000000000000000000010000010011000101101011000000100000111111111111110011111100000010",
"100000000111111000101100110001101100110011001100111100011000110110000001111110011000000100011000000000000110000000000000001000000000000000000000001111100000110000000011011011000000000001100000011110000011100011111000000000001100110011001101111111000000000000000000001100000001110000010001100000011110000000000001000000011110000111100011111000000000011001100110011011111110000000000000000000000111111100011110011111000000000000011000011001100000000011111110011110001100110000000000110011011000000000000000000000000110000100111000111000000011001101100000110000000100011000000000000000000000000000000000000000000000000000000000000000000000000000000000000000000000000000000000000000000000000000000000000000010000011111011011011111000000100000111111000000000000001100000010",
"100000000101101000111000110101101100110011111000111100011111000111110001111110011000000111111000000000000110000000000000111000000000000000000000000000110000110000000100011110000000000001100000011001100001100011001100000000001111100011001101101111000000000000000000001100000001100000110001111100011100000000000001111000000011001100000001100000000000011111000110011011011110000000000000000000000110110100110011011000100000000000011000001111100111111011010110000011001100110011111100011110011111000000000000000000000110000101111000000000000110011101100000000000011100011111000000000000000000000000000000000000000000000000000000000000000000000000000000000000000000000000000000000000000000000000000000000000010000010110100101110111000000100000111111000000000011101100000010",
"100000000101001000011000110101101100110011110000111100011101100110000001101110011000000110011000000000000110000000000000001100000000000000000000000000110000110000001100011111000000000001100000011001100001100011001100000000001111000011111101101011000000000000000000001100000111000001100001100110011110000000000001000000001111001111000001100000000000011110000111111011010110000000000000000000000110100100110011011000100000000000011000000001100000000011010110001111001100110000000000110011011000110000000000000000000110000111011000000000001100011001100000000000000110011001100000000000000000000000000000000000000000000000000000000000000000000000000000000000000000000000000000000000000000000000000000000000010000011111011011111001000000100000111111000000000111001100000010",
"100000000100001000011000111111101100110011011000111100011000110110000001101110011000000110011000000000000110000000000000001100000000000000000000000000110000110000011000011011000000000001100000011001100001100011001100000000001111100011111101100011000000000000000000001100000110000001100001100110011110000000000001000000011111000111100001100000000000011011000111111011000110000000000000000000000110000100110011011000100000000000011000000001100000000011000110011111000111110000000000110011011000110000000000000000000110000110011000000000011100011111110000000000000110011001100000000000000000000000000000000000000000000000000000000000000000000000000000000000000000000000000000000000000000000000000000000000010000011011011011011111000000100000001111000000111111001100000010",
"100000000100001000011000111111101100110011001000100110011000110110000001100110011000000110011000000000000110000011000010001100000000000000000000001100110000110000011000011001100000000001100000011001100001100011111100000000001101100011001101100011000000000000000000001100001110000001100001100110011011000000000001000000110011000000110001100000000000011001100110011011000110000000000000000000000110000100110011011000100000000000011000000011000000000011000110110011000111100000000000110011011000100000000000000000000110000110011000111000011000011111110000110001100110011001100000000000000000000000000000000000000000000000000000000000000000000000000000000000000000000000000000000000000000000000000000000000010000011110101110111111000000100000000011000000111110001100000010",
"100000000100001000011000011011001100110011001100100111011101110110000001100110011001100110011000000000000110000011000011001100000000000000000000001100110000110000110000011001110000000001100110011001100001000011111000000000001101110011001101100011000000000000000000001100011100000001100001100110011011100000000001000000110011000000110001101000000000011001100110011011000010000000000000000000000110000100110011011000100000000000011000000011000000000011000110110011000011100000000000110011011000100000000000000000000110000100011000111000110000000001100000110001100110011001100000000000000000000000000000000000000000000000000000000000000000000000000000000000000000000000000000000000000000000000000000000000010000011111011011101101000000100000000011000000001000001100000010",
"100000000100001000011000011001000111100011001100100011011111100111111001100110001111000100011000000000011111000011000001111000000000000000000000000111100011111100111111011000110000000000111100011001100011110011000000000000001100110010001101100001000000000000000000111110011111110001100000111100011001100000000001000000011111001111100000111000000000011000110110011011000010000000000000000000000110000100011110011000100000000000111110001100000000000011000110011111000011000000000000011110000111000000000000000000011111000011110000000000111111000001100000000000111100001111000000000000000000000000000000000000000000000000000000000000000000000000000000000000000000000000000000000000000000000000000000000000010000010111111111101111000000100000000011000000000000001100000010",
"100000000000000000000000000000000000000000000000000000000000000000000000000000000000000000000000000000000000000000000000000000000000000000000000000000000000000000000000000000000000000000000000000000000000000011000000000000000000000000000000000000000000000000000000000000000000000000000000000000000000000000000000000000000000000000000000000000000000000000000000000000000000000000000000000000000000000000000000000000000000000000000000000000000000000000000000000000000111000000000000000000000000000000000000000000000000000000000000000000000000000000000000000000000000000000000000000000000000000000000000000000000000000000000000000000000000000000000000000000000000000000000000000000000000000000000000000000010000010111111111111001000000100000000011000000000000001100000010",
"100000000000000000000000000000000000000000000000000000000000000000000000000000000000000000000000000000000000000000000000000000000000000000000000000000000000000000000000000000000000000000000000000000000000000011000000000000000000000000000000000000000000000000000000000000000000000000000000000000000000000000000000000000000000000000000000000000000000000000000000000000000000000000000000000000000000000000000000000000000000000000000000000000000000000000000000000000001110000000000000000000000000000000000000000000000000000000000000000000000000000000000000000000000000000000000000000000000000000000000000000000000000000000000000000000000000000000000000000000000000000000000000000000000000000000000000000000010000011111111111111111000000100000000011111111111111111100000010",
"100000000000000000000000000000000000000000000000000000000000000000000000000000000000000000000000000000000000000000000000000000000000000000000000000000000000000000000000000000000000000000000000000000000000000000000000000000000000000000000000000000000000000000000000000000000000000000000000000000000000000000000000000000000000000000000000000000000000000000000000000000000000000000000000000000000000000000000000000000000000000000000000000000000000000000000000000000000000000000000000000000000000000000000000000000000000000000000000000000000000000000000000000000000000000000000000000000000000000000000000000000000000000000000000000000000000000000000000000000000000000000000000000000000000000000000000000000010000011111111111111111000000100000000011111111111111111100000010",
"100000000000000000000000000000000000000000000000000000000000000000000000000000000000000000000000000000000000000000000000000000000000000000000000000000000000000000000000000000000000000000000000000000000000000000000000000000000000000000000000000000000000000000000000000000000000000000000000000000000000000000000000000000000000000000000000000000000000000000000000000000000000000000000000000000000000000000000000000000000000000000000000000000000000000000000000000000000000000000000000000000000000000000000000000000000000000000000000000000000000000000000000000000000000000000000000000000000000000000000000000000000000000000000000000000000000000000000000000000000000000000000000000000000000000000000000000000010000000000000000000000000000100000000000000000000000000000000010",
"100000000000000000000000000000000000000000000000000000000000000000000000000000000000000000000000000000000000000000000000000000000000000000000000000000000000000000000000000000000000000000000000000000000000000000000000000000000000000000000000000000000000000000000000000000000000000000000000000000000000000000000000000000000000000000000000000000000000000000000000000000000000000000000000000000000000000000000000000000000000000000000000000000000000000000000000000000000000000000000000000000000000000000000000000000000000000000000000000000000000000000000000000000000000000000000000000000000000000000000000000000000000000000000000000000000000000000000000000000000000000000000000000000000000000000000000000000010000000000000000000000000000100000000000000000000000000000000010",
"111111111111111111111111111111111111111111111111111111111111111111111111111111111111111111111111111111111111111111111111111111111111111111111111111111111111111111111111111111111111111111111111111111111111111111111111111111111111111111111111111111111111111111111111111111111111111111111111111111111111111111111111111111111111111111111111111111111111111111111111111111111111111111111111111111111111111111111111111111111111111111111111111111111111111111111111111111111111111111111111111111111111111111111111111111111111111111111111111111111111111111111111111111111111111111111111111111111111111111111111111111111111111111111111111111111111111111111111111111111111111111111111111111111111111111111111111111111111111111111111111111111111111111111111111111111111111111111110",
"111111111111111111111111111111111111111111111111111111111111111111111111111111111111111111111111111111111111111111111111111111111111111111111111111111111111111111111111111111111111111111111111111111111111111111111111111111111111111111111111111111111111111111111111111111111111111111111111111111111111111111111111111111111111111111111111111111111111111111111111111111111111111111111111111111111111111111111111111111111111111111111111111111111111111111111111111111111111111111111111111111111111111111111111111111111111111111111111111111111111111111111111111111111111111111111111111111111111111111111111111111111111111111111111111111111111111111111111111111111111111111111111111111111111111111111111111111111111111111111111111111111111111111111111111111111111111111111110",
"100000001011011010100100110100010010110011010100101100101100101011000011001001010010010011010010110100110110110011011011010010010011001001001001001011001001001100100100100100100100100010010010010101100100100010010011011010010010010010100100100100110100101101101001001001001011001011001101010010010010010010110100110100100010010010010101101101100110101101101010010100100100100101101011011010100100100100100100100100010100100100100100100110010010010011010011000011001001001001001100100100110010110011001001000100110100010010110010100001000010010010010011011010010001001100101000100000101001001001001101001001001011011010100100101001001011000010010010100100101010010010110100101001001010010010100100100101000100010010010010000001001011010101001001100010010010010010110010",
"101010100100100100100001001001001001001000101000010011000010010000100100110110000001001000000101001001001001000100100100101001001000010010100010010000010100010010011010011011001001001001101100000010001001001001101100100100100100101001011010011011001001010010010100110110100100100000100000100100100101100100101001001001001000000001001010010010000001010010010100001011011010010010000100100001001011001011001010011000100000010010010011001001001001100100100100100100100100000010010010010001001001001100100010010010011001001001001100100100100101101101100100100100000110110010010010010010010010010010010010110110100100100101001001010000100100100001000000001010001101101101000011010010010101101001011010010010011010001001100100100110100100100010010010000001001001001001001010",
"100000000100100010011001001001001101000110010000101011010010010010010010000101001010000100100100101101001010000101000100010100001001010000101010010100010000010010110000000100000111010000000100101101011011010100000000100100100100100001100001000001011011010010011000001010110100100110100110010010110010000010010000101100000000000010100100100011010011010010010110100010010011000010011000100100100000011001000100100100111011000010000000000001000000000010000110100100010000000010010010001001000001000100011010000000000010010010001000001001001101000010000001001100001001000010110000000010010000000010100010010000000000110010010011011011001001101001001101101001001100001101001000000010010000100000001000001010001010100001101100000000100100100010110010011100000100000001001010",
"101001001001010010010100100000010010010010010100101100100101001110010011001101011010010010010010100100110010010011010101010110010001001001001001101101101001001101100100100100100100110010010010100101101101011011010011011011011011010110101100100100110100101001001001001001011010011011001101010010010010010010010100100100100010011010010100100101010100101101110010110100110101101101011001010000100100110100100101101001011010100100100000100110110010010010010010001001001001001001001100100100000110010010011001101100100100000010010010010000001000010010010010000001001001001001100100100101001001001000100100001001001000000010000000100000001001010110010000000100110010010010010100100100101000010010000100100001001001010100100011011001001001001001001001000010010010010010100010",
"100010100100101101100100100110100000100000000000000000000000010000100100000000000000000000000100000001001000001100100000000001000100000000010000000000000100010010000010010000001000001001000000000000000000000000000000100000000000000000000000000001001000000000000100000000000000000100100000100100100000000000000000000000001000000000000000010000000000000010000000000001000000000000000000000000000000000000000000000000000010010000010011011011001101101100101100110110110100110110010010010011001001001001100110010011011011001001101101100100110111101101101100100100110110010110010010011010010010010011010011010010100101101101101100110100110100101100000010010011001101101100110010010010010100101101001011010010110110001001100100110110110110110110110100110101101101101101001010",
"101100001000010010000001001001001111111111111111111111111111111111111111111111111111111111111111111111111111111111111111111111111111111111111111111111111111111111111111111111111111111111111111111111111111111111111111111111111111111111111111111111111111111111111111111111111111111111111111111111111111111111111111111111111111111111111111111111111111111111111111111111111111111111111111111111111111111111111111111111111111111111000000000000001001000000000000000001000010010010010011001001000001000010010001000000000000000000010000000001001010010000000000000001000000000010010000010000000010010000000100000010000110010010010011001001001011010001101101101100000000011001001100000001001010010000100100000000010010100100110100000100000110100110110100101001001000010010100010",
"101000011011010010010010000000001111111111111111111111111111111111111111111111111111111111111111111111111111111111111111111111111111111111111111111111111111111111111111111111111111111111111111111111111111111111111111111111111111111111111111111111111111111111111111111111111111111111111111111111111111111111111111111111111111111111111111111111111111111111111111111111111111111111111111111111111111111111111111111111111111111111000100100110110010010011001001001001001001001001000100100100110110110010010001001100100100110110010010011011000010010010010010011001001001101101101100101101101101101100100100100100001000010010010010001001000100100010000010000100110010010010000101101100100000010001001000001001001101001000001011001011001001001001001001011010010010010001001010",
"101010000100101101100100110100101100000000000000000000011000000000000000000000000000000000000000000000000000000000000000000000000000000000000000000000000000000000000000000000000000000000000000000000000000000000000000000000000000000000000000000000000000000000000000000000000000000000000000000000000000000000000000000000000000000000000000000000000000000000000000000000000000010000000000000000000000000100000000000000000000000011011010000100010000000100100110010000001001001001000100100100000001001001100100000000001001001001101100100100110010000100100100100100000010010010010010010010000010000000011010010010101101101101100100110110110100100110010010010100100010000010110010010000100100101001001000000010000100001001001001000000011001101001001000100110100101001001001010",
"100101101100100000100000001011001100000000000000000000011000000000000000000000000000000000000000000000000000000000000000000000000000000000000000000000000000000000000000000000000000000000000000000000000000000000000000000000000000000000000000000000000000000000000000000000000000000000000000000000000000000000000000000000000000000000000000000000000000000000000000000000000000010000000000000000000000000100000000000000000000000011010011011001001001101000000000000010000001010010010011011001001001000000010110010010000001001001000000100000001001001001100100100100100110010010010010010010010010010010000000000010000010010010000100100110001011001001101101001011001001001001001010010011001001010010010100100100010010010000100100110010010010010110000100110101100010110010110010",
"101010010011010010011010010100101100000000000000000000011000000000000000000000000000000000000000000000000000000000000000000000000000000000000000000000000000000000000000000000000000000000000000000000000000000000000000000000000000000000000000000000000000000000000000000000000000000000000000000000000000000000000000000000000000000000000000000000000000000000000000000000000000010001111111111111111110000100011111111111111111100011000100100110010010010011001001101100100110010000100100100100110110110010010001000100100100110110010010011011001010010010010011011001001001101101101100100100100101101100100100100100100110010010011011011000100100100100010010100100110010010010010101100100100101001001011011011001001001101001001001001101001101001001001011010010010101001001001010",
"100010000000000000000010010100101100000111111111111110011000000000000000000000000000000000000000000000000000000000000000000000000000000000000000000000000000000000000000000000000000000000000000000000000000000000000000000000000000000000000000000000000000000000000000000000000000000000000000000000000000000000000000000000000000000000000000000000000000000000000000000000000000010001100000000000000110000100010000000000000000100011000100100100010000110000000010010001000000001101100100100100000010010000101001000000100000001001000010100100110110010000100100100001000010010010000000100100100010010010010010001000101001101101100100100010110100100100010010100100100110010010010100100100100110010010100000001000001010010001011001001001000001001001001001010010000110000010001010",
"100100101101101100100100101011001100000111111111111111011000000000000000000000000000000000000000000000000000000000000000000000000000000000000000000000000000000000000000000000000000000000000000000000000000000000000000000000000000000000000000000000000000000000000000000000000000000000000000000000000000000000000000000000000000000000000000000000000000000000000000000000000000010001100000000000000110000100010000000000000000100011011011001001101001101100110110010011011000000010011011011001001001101100110010010010011001001001101100100100100001001001101100100100110110110010010011011011010011000010010010011001001001001001100100100110001011001001101101001001001001101101100011011011001000010001100100100100110110010010110110100110110010010110110100101101101100110010110010",
"101010010010010010010010010000101100000100000000000011011000000000110001100000000000000000100000011000000000000000000000000000000100000000000000000000000000000000000000000000000000000000000000000000000000000000000000000000000000000000000000000000000000000000000000000000000000000000000000000000000000000000000000000000000000000000000000000000000000000000000000000000000000010001100111111111110110000100010000000000000000100011000100100000000010010011001001100100100100110010010000000100100010010010010010000000100100100010010010011011011000010010010010001001001001001000100100100100101100101100100100100100110110110010011011011000100100101100000000100000010010010010001100100100100000100101000011001001001001001001001001000001001001101001001011010010011001001001001010",
"100100110010010010000010011001001100000100000000000011011000000000110001100000000000000000100000011000000000000000000000000000000100000000000000000000000000000000000000000000000000000000000000000000000000000000000000000000000000000000000000000000000000000000000000000000000000000000000000000000000000000000000000000000000000000000000000000000000000000000000000000000000000010001100111111111110110000100010001110000110000100011000100100110010010010011000010001000100001001001000100100100110110011001001001001100100100100010010000000001000000010010010010001001001001001000100100100100100110010010010010001000000100001000010010000001100100110110010010100100100100010011001000100100110010110010010010000001001000000000000001001001001000001001000100100010110000010010001010",
"100000001001101100100100101001001100000100000000000011011000000000110001100000000000000000100000011000000000000000000000000000000100000000000000000000000000000000000000000000000000000000000000000000000000000000000000000000000000000000000000000000000000000000000000000000000000000000000000000000000000000000000000000000000000000000000000000000000000000000000000000000000000010001100111111111110110000100010001110001110000100011010001001001001001101100100110011011011011001001000000001001001001000000010010010010011011001001101101100100100100101001100100100100110110010010010011010011010011000010000100001001001001101001101101100110011011000000001001001000000000001100010011011001001000000100100100100100110110110010010110010010010110010110110100100100100110110010110010",
"101001001000000000000000000110101100000100000000000011011000000000110001100111100011111000100011011111000011110001111100001111000111100000000000000000000000000000000000000000000000000000000000000000000000000000000000000000000000000000000000000000000000000000000000000000000000000000000000000000000000000000000000000000000000000000000000000000000000000000000000000000000000010001100000000000000110000100010000111111110000100011010010000000000001000000001000000000000000010010010011000001001000100110010010010010010000000000000000000001001001000000000000000000000000000000000000000010101001101100100100100100110110010010010010000001011001001001001101001011010010010010010010010001001001101000101000000100000000001001001000010010010000001000010011010011001001001001001010",
"100110110110010010011011001011001100000100000000000011011000000000110101101100110011111101110110011111100110111001110110011001000110110000000000000000000000000000000000000000000000000000000000000000000000000000000000000000000000000000000000000000000000000000000000000000000000000000000000000000000000000000000000000000000000000000000000000000000000000000000000000000000000010001100000000000000110000100010000111111100000100011000100110110010010010011001001100100100110100010000000100110110011001001101101101100100110110010010010011010000001000010010010011001001001001101101100100100100110010010011011001001000010010010010010011001000110110010010010100100101101101101101100100110110110010010010011001001101101000010001101101101001101101001101100100100010000110000110010",
"101001000001000000100000100000001100000100000000000011011000000000110101101100110011001100111110011001100110011001100110011000000100010000000000000000000000000000000000000000000000000000000000000000000000000000000000000000000000000000000000000000000000000000000000000000000000000000000000000000000000000000000000000000000000000000000000000000000000000000000000000000000000010001100000000000000110000100010000011111000000100011000000001001001000000100100010010000001001001001100100100100010010010000001000010000001001001001000100100100100110010001100100100100100010010010010010010000001000010000000000001001001001001101100100100100100101001001000001011010000010010010000000001000000000000000000000100100010010110010010001010000010010010110000100100101010110010010100010",
"101001001001001101100100110110101100000100000000000011011000000000110101101100110011000001111100011001100111111001100110011000000100010000000000000000000000000000000000000000000000000000000000000000000000000000000000000000000000000000000000000000000000000000000000000000000000000000000000000000000000000000000000000000000000000000000000000000000000000000000000000000000000010001100000000000000110000100010000011111000001100011010011001001001101100100100010010011001001001000000011001001001000110010010010010010010011001001000100100100100001001100100100100100100010010010010011011011001001001101100100100110001001000100100100100100011011001101101101001011010010010010010010011001001001101101100100100000010011001001010001010010010110010010010011011011000010000011001010",
"100110110110110010011011001001001100000100000000000011011000000000111111101100110011000001111100011001100111111001100110011000000100010000000000000000000000000000000000000000000000000000000000000000000000000000000000000000000000000000000000000000000000000000000000000000000000000000000000000000000000000000000000000000000000000000000000000000000000000000000000000000000000010001100000000000000110000100010000111111100000100011000100100110110010010011001001101100100110110010010000010010001001001101101101101100100100110110010010011011001001001010010010011011001001001101101100100100100110010010011010001000110110010010011010011001100000010010010010100100100101101101101100100110110110010010011010011101101100100001100100101101001001101001100100100110001001001100100010",
"100000000100000000000001001001101100000100000000000011011000000000111011001100110011000001110110011001100110000001100110011001000100010000000000000000000000000000000000000000000000000000000000000000000000000000000000000000000000000000000000000000000000000000000000000000000000000000000000000000000000000000000000000000000000000000000000000000000000000000000000000000000000010001100000000000000110000100010001111001110000100011000000100000000010010000001010000000000000001000001000100010110000000010000010000100000000101000010000000000100100110010010000000000000000000000000000100100100010010010010010001001000001001000000000100100100100101010000001001000000001000000010000100100000000000010000101000000000100100110010000010010011000000000000100100100101000000100001010",
"101001001001101100100100110100101100000100111001110011011000000000011011001111110011000001110011011111100011110001100110011111000100010000000000000000000000000000000000000000000000000000000000000000000000000000000000000000000000000000000000000000000000000000000000000000000000000000000000000000000000000000000000000000000000000000000000000000000000000000000000000000000000010001100000000000000110000100010001110001110000100011011011001001001101101100100110010011011001001001001101101001000010110010010010010010011011001001001101100100100100010101101100100100110110110010010011011011011001001101100100100100001001001100100100100110000011001101101100101001100110110010010011011001001001001101101100100110010011011001001001010010110110110110110011011010010010110010011010",
"100110010110010010010001001001001100000100111001110011011000000000010001000111100011000001110011011011000011110001100110001111000100010000000000000000000000000000000000000000000000000000000000000000000000000000000000000000000000000000000000000000000000000000000000000000000000000000000000000000000000000000000000000000000000000000000000000000000000000000000000000000000000010001100000000000000110000100010001110000110000100011000100000000010010010010011001100100100110010010010010010011001001001100100000100000000100110010010010011011001001001010010010011001001001001100100100100100001000001000000100100110110110010011010011010011011011011010010010100100100001000001100100100100010110010010010000101101101100100000100110101101101000100101000000000001001001000110010010",
"100010000000010010011011001000101100000100100000000011011000000000000000000000000000000000000000000000000000000000000000000000000000000000000000000000000000000000000000000000000000000000000000000000000000000000000000000000000000000000000000000000000000000000000000000000000000000000000000000000000000000000000000000000000000000000000000000000000000000000000000000000000000010001100000000000000110000100010000000000000000100011010100110110010010010011010000000100100100100010010010010000001001001000000100100101100100110110010010010011001001000010010010000001001001001000000100100100110110010010011011011001000100000100110000100000100100100111100001000001001001001001000100100100100110010010010001011001100100100101001000010010011011011011001101100101001001101001101010",
"101001001001100100100100100111001100000100000000000011011000000000000000000000000000000000000000000000000000000000000000000000000000000000000000000000000000000000000000000000000000000000000000000000000000000000000000000000000000000000000000000000000000000000000000000000000000000000000000000000000000000000000000000000000000000000000000000000000000000000000000000000000000010001100000000000000110000100010000000000000000100011001001001001001001101100100110011011011001001001101100100100110010010010011011010010011001001001101101100100110110110001101100100100110110010010010011011001001001001000100100000001001001001100100100101100110100110101100100010100110110110010010011001001001001101101100101001011001010010001101110010000010100100100110110010010010010010010010010",
"101000000000000010100000001001001100000111111111111111011000000000000000000000000000000000000000000000000000000000000000000000000000000000000000000000000000000000000000000000000000000000000000000000000000000000000000000000000000000000000000000000000000000000000000000000000000000000000000000000000000000000000000000000000000000000000000000000000000000000000000000000000000010001111111111111111110000100011111111111111111100011000000001000000000000010000000010000000000001000000000010000001001000000100100000000000000001000000000000000000000011000000000000000000000000000000000000001001001001100100100100110100001000010001000000000000000000000000000000000000110010000010100000000000010010010000000000000000000000000000000000000100000010010100001010010000000010010000010",
"100110110110011011011011001000101100000111111111111110011000000000000000000000000000000000000000000000000000000000000000000000000000000000000000000000000000000000000000000000000000000000000000000000000000000000000000000000000000000000000000000000000000000000000000000000000000000000000000000000000000000000000000000000000000000000000000000000000000000000000000000000000000010001111111111111111110000100011111111111111111100011010100110110110010010011011001001100110110110010010010011001001001001100100100100100100110110110010010011011001001001100010011011001001001101101100100100110110110010010011011100110110110110010001111111111111111111111111111111111001001001101100100110110110010010010001111111111111111111111111111111111001001010011011001001001001101101101101010",
"101001001001100100100100100110001100000000000000000000011000000000000000000000000000000000000000000000000000000000000000000000000000000000000000000000000000000000000000000000000000000000000000000000000000000000000000000000000000000000000000000000000000000000000000000000000000000000000000000000000000000000000000000000000000000000000000000000000000000000000000000000000000010000000000000000000000000100000000000000000000000011001000000001001001101100100100110011001001001001101100100100110010010010011011011011011011001001101100100100100010010001101100100100110010010010011010011001000010000010000011011001001001001000011111111111111111111111111111111111100100110010011011001001001001101000011111111111111111111111111111111111100100101100100100110110110010010010010010",
"100000001000000000100000000101101100000000000000000000011000000000000000000000000000000000000000000000000000000000000000000000000000000000000000000000000000000000000000000000000000000000000000000000000000000000000000000000000000000000000000000000000000000000000000000000000000000000000000000000000000000000000000000000000000000000000000000000000000000000000000000000000000010000000000000000000000000100000000000000000000000011010011000001001001000000100100000000001001001000000100100100100000000000000000100000000001001000000000100100100010010001000000100100000000010000010000001001001001001101000100100010100001011000111111111000000000000000000000011000100000000010000000000001000000000000111111011000000000000000000000001100000000010100100000000001000000010010000010",
"100110110110010011011011001001001110111111111111111111111111111111111111111111111111111111111111111111111111111111111111111111111111111111111111111111111111111111111111111111111111111111111111111111111111111111111111111111111111111111111111111111111111111111111111111111111111111111111111111111111111111111111111111111111111111111111111111111111111111111111111111111111111111111111111111111111111111111111111111111111111111111010000110100110110010010011011001100100110110110010011011011001001001101101100100100100110110110010010011011001001001010010011011011001001001101101100100110111001001000100100100110110110110001111111011000000000000000000000001000100011001001100100100110110110010001111111011000000000000000000000001100100001010010010011001001001101001101101010",
"101001001000100100100100100101001100100000000000000000000000000000000000000000000000000000000000000000000000000000000000000000000000000000000000000000000000000000000000000000000000000000000000000000000000000000000000000000000000000000000000000000000000000000000000000000000000000000000000000000000000000000000000000000000000000000000000000000000000000000000000000000000000000000000000000000000000000011001100000000000000000011001100100100101000000000100100000001000001000001101100100000100010010010010011010011001001001001001000100000000000010100100100000000000010010000010001000000100110010010011011001001001001000011111111111000000000000000000000001111100001100010001001001001001001101111111111111000000000000000000000001111110000101001001100100110010010010010010010",
"101001001101100100100100100110101100100000000000000000000000000000000000000000000000000000000000000000000000000000000000000000000000000000000000000000000000000000000000000000000000000000000000000000000000000000000000000000000000000000000000000000000000000000000000000000000000000000000000000000000000000000000000000000000000000000000000000000000000000000000000000000000000000000000000000000000000000001001000000000000000001011000100011011001001101101100100110011011011001001001100100100100110110010010000010011011001001001001100100100110110010100001101100100110110010010010010011001001001000000100100100010001001101011111111111000000000000001111110001111110000100110011010001011001001010011111111111000000000000000111110001111111000010010100100100100000010010010010010",
"100100110010010010011011001011001100100000000000000000000000000000000000000000000000000000000000000000000000000000000000000000000000000000000000000000000000000000000000000000000000000000000000000000000000000000000000000000000000000000000000000000000000000000000000000000000000000000000000000000000000000000000000000000000000000000000000000000000000000000000000000000000000000000000000000000000000000001001000000000000000001011010011001000110010010010011011000100100100010010010011011001001001001100100100100100100100110010110010011001001001001010010010011001001001001101100100100000001001001100100100100110110110010011111111111000000000000001111110001111111000010001101100110110110010011011111111111000000000000001111110001111111100010000010011001001001101001101101010",
"101001000110000100100100110100101100100000000000000000000000000000000000000000000000000000000000000000000000000000000000000000000000000000000000000000000000000000000000000000000000000000000000000000000000000000000000000000000000000000000000000000000000000000000000000000000000000000000000000000000000000000000000000000000000000000000000000000000000000000000000000000000000000000000000000000000000000001001000000000000000001011000100100110100010010100100100011100100100110010010000010011000010010010010011011011001001001001000000010011001001010100100100000001000010010010000100100100110110010010011011001001001001100011111111111000000000000001111100001111111110001101101001001001001001101011111111111000000000000001111110001111111110001101001000000000010010010010010010",
"100011001001101100100100110110101100100000000000000000000000000000000000000000000000000000000000000000000000000000000000000000000000000000000000000000000000000000000000000000000000000000000000000000000000000000000000000000000000000000000000000000000000000000000000000000000000000000000000000000000000000000000000000000000000000000000000000000000000000000000000000000000000000000000000000000000000000001001000000000000000001011000100100101001001101101100100110010001001001001101100100100110010110010010010000000000001001001001001100100110010010000100101100100110010010010010011011001000010010010010000001001001001101011111111111000000000000001111100001111111111000010010011011001001001100011111111011000000000000001111110001111111111000000000100100100010010010010010010",
"100110000100000010010011001001001100100000000000000000000000000000000000000000000000000000000000000000000000000000000000000000000000000000000000000000000000000000000000000000000000000000000000000000000000000000000000000000000000000000000000000000000000000000000000000000000000000000000000000000000000000000000000000000000000000000000000000000000000000000000000000000000000000000000000000000000000000001001000000001000000001011010011001000000000010010010011000100000001001001010000000001001001001101101101100100100110110010010010000000000100101011010010000000001001001000100100001001001001101100100100100110110110011011111111111000000000000001111100001111111111100001001100100000100010011011111111011000000000000001111110001111111111100010010010001001001001101101101010",
"101000100110010010010001010100101100100000000000000000000000000000000000000000000000000000000000000000000000000000000000000000000000000000000000000000000000000000000000000000000000000000000000000000000000000000000000000000000000000000000000000000000000000000000000000000000000000000000000000000000000000000000000000000000000000000000000000000000000000000000000000000000000000000000000000000000000000001001000000011100000001011010000100100110110110010010011001100100110110110010011001001001001000100010010011011001001001100010010011011001011111000010010011001001001001001100100100110110000000000011000001001000010010011111111111000000000000001111100001111111111101101101100100110110110111011111111011000000000000001111110001111111111101101001000011000001000010000000010",
"100001001001101100100100100001001100100000000000000000000000000000000000000000000000000000000000000000000000000000000000000000000000000000000000000000000000000000000000000000000000000000000000000000000000000000000000000000000000000000000000000000000000000000000000000000000000000000000000000000000000000000000000000000000000000000000000000000000000000000000000000000000000000000000000000000000000000001001000000011100000001011000100100100001001001100101100010011000000001001000010100100100110110010010010100000001001001001101100100100110100100100100100100100110110010010010011001000100110110010010011001001001001001011111111111000000000000001111100001111111111100010010011001001001001001011111111011000000000000001111110001111111111100100000100100100110110010010011010",
"100000011000100100000000001001001100100000000000000000000000000000000000000000000000000000000000000000000000000000000000000000000000000000000000000000000000000000000000000000000000000000000000000000000000000000000000000000000000000000000000000000000000000000000000000000000000000000000000000000000000000000000000000000000000000000000000000000000000000000000000000000000000000000000000000000000000000001001000000111110000001011010001011011001001001000000000010011011001001001001100100010110000110101101101100100110100110010000000100100110100000010010000100100000000010010010011001011001001001100100100100110001001001011111111111000000000000001111100001111111111101010001001001001001001001011111111011000000000000001111110001111111111100010010000000001001001000100101010",
"101001010010010010010011010110101100100000000000000000000000000000000000000000000000000000000000000000000000000000000000000000000000000000000000000000000000000000000000000000000000000000000000000000000000000000000000000000000000000000000000000000000000000000000000000000000000000000000000000000000000000000000000000000000000000000000000000000000000000000000000000000000000000000000000000000000000000001001000001111111000001011010010001000110110110010010010010010010001000000000100100101001001000100010010010010001000010010010010011011001010010010011011011011001001101101101100100000001001001000100100100100110110110011111111111000000000000001111110001111111111101100100100110110110110110011111111011000000000000001111110001111111111101101011011011001001001101100100010",
"100100100100100100100100101000101100100000000000000000000000000000000000000000000000000000000000000000000000000000000000000000000000000000000000000000000000000000000000000000000000000000000000000000000000000000000000000000000000000000000000000000000000000000000000000000000000000000000000000000000000000000000000000000000000000000000000000000000000000000000000000000000000000000000000000000000000000001001000001111111100001011000100100100101001000000101101100100100100110010011011011001001001100100111000110100101011001101101100100100101101101100100100100100100010010010010000000100110010010010010011001001001001001011111111100000000000000001111110001111111111101010010001001001001001001011111111011000000000000001111110001111111111100101000100100100110010010010011010",
"101000110100100100100100001001001100100000000000000000000000000000000000000000000000000000000000000000000000000000000000000000000000000000000000000000000000000000000000000000000000000000000000000000000000000000000000000000000000000000000000000000000000000000000000000000000000000000000000000000000000000000000000000000000000000000000000000000000000000000000000000000000000000000000000000000000000000001001000011111111100001011000100000001011001001101101000010000001001001000000100000010010010010100101001100100100100101001001100100100100010100100100100100100110010010010011011001011001000000000000000000001001001000011111111110000000000000000000000001111111111101001001001001001001001010011111111111000000000000000000000001111111111100010100100100100010010010010011010",
"101001001011010010010011010000101100100000000000000000000000000000000000000000000000000000000000000000000000000000000000000000000000000000000000000000000000000000000000000000000000000000000000000000000000000000000000000000000000000000000000000000000000000000000000000000000000000000000000000000000000000000000000000000000000000000000000000000000000000000000000000000000000000000000000000000000000000001001000011111111100001011011011011011010001010010010010011011001001001101100100100100110010010010010010011010010010010010010010011010010010010011011011011001011001101101100100101001001001001100100100100110110110101011111111111000000000000000000000011111111111100110110100110010110110011011111111111000000000000000000000001111111111101101010011011001001001101101101010",
"100100100100100101100100100101001100100000000000000000000000000000000000000000000000000000000000000000000000000000000000000000000000000000000000000000000000000000000000000000000000000000000000000000000000000000000000000000000000000000000000000000000011111111111111111111111111111111110000000000000000000000000000000000000000000000000000000000000000000000000000000000000000000000000000000000000000000001001000000000000000001011000100100100100110000001001001101100100110110010011011011001001001001100100010001100001100101001100000100100101101101100100100100100000000010010000000000110110010010010011011001001001001001011111111111111111111111111111111111111111111101001001001001001001001101011111111111111111111111111111111111111111111100100100100100100110010010010011010",
"100100100100100101100100100101101100100000000000000000000000000000000000000000000000000000000000000000000000000000000000000000000000000000000000000000000000000000000000000000000000000000000000000000000000000000000000000000000000000000000000000000000011111111111111111111111111111111110000000000000000000000000000000000000000000000000000000000000000000000000000000000000000000000000000000000000000000001001000000000000000001011000000100100100101001001001101000100100100000010010000001001001001000100101101100100001000001100100100100100101100100100100100100100110110010010011011001001100010010010010010001001001001011011111111111111111111111111111111111111111111101011001001001001001001001011111111111111111111111111111111111111111111100010100100100100110010010010010010",
"101001001011010010011011011000101100100000000000000000000000000000000000000000000000000000000000000000000000000000000000000000000000000000000000000000000000000000000000000000000000000000000000000000000000000000000000000000000000000000000000000000000111000000000000000000000000000000110000000000000000000000000000000000000000000000000000000000000000000000000000000000000000000000000000000000000000000001001000000000000000001011010011011011001001000000110010010011011011001101100100100100110110110010010010010010010010010010010011011010010010010010011011011001001001001000000000001001001001101100100100100110110110101011111111111111111111111111111111111111111111100100110110110010110110011011111111111111111111111111111111111111111111101111010011011011001001101101101010",
"100100100100100100100100101001001100100000000000000000000000000000000000000000000000000001100011001110000000000000000000000000000000000000000000000000000011111111111111111111111111111111111111111111111111000000000000000000000000000000000000000000000110000000000000000000000000000000010000000000000000000000000000000000000000000000000000000000000000000000000000000000000000000000000000000000000000000001001000000000000000001011000100100100100100110001001001000100100010010010010010011001001001000100100100010000101100100001100000100100101100101100100100000000000001001100101100100100010010010010010011001001001000010011111111111111111111111111111111111111111111101001001001001001001010010011111111111111111111111111111111111111111111100100100100100000000010010010001010",
"100000100100100100100100100100101100100000000000000000000000011101111111011111111101111111110011111111001111111011000000000000000000000000000000000000000011111111111111111111111111111111111111111111111111100000000000000000000000000000000000000000001110000000000000000000000000000000001100000000000000000000000000000000000000000000000000000000000000000000000000000000000000000000000000000000000000000001001000000000000000001011000100100100100000001001001001100100100100110010011010011001001001001101100100100100100000101101100100100100100100110101100110100110010010110010010011001001001010010010010010011001001001001011111111111111111111111111111111111111111111100010001101001001100101101011111111111111111111111111111111111111111111100010100110010110010110010010011010",
"101001011011010010011011001001101100100000000000000000000000110000000000000000000000000000000000000000000000000000100000000000000000000000000000000000000011000000000000000000000000000000000000000000000001110000000000000000000000000000000000000000001111111111111111111111111111111111111100000000000000000000000000000000000000000000000000000000111111111110000000000000000000000000000111000000000000000001001111111111111111111011000011011011011001000100010110010011001001001001100100100110110010010010010011011010010011010010010010011011001010000010001001001100101000000010000000001100001001001101100100100110110110111011111111111111111111111111111111111111111111100001010110110010010110011011111111111111111111111111111111111111111111100100010100001001001001101101100010",
"100000100100000000000100101001001100100000000000000000000000100000000000000000000000000000000000000000000000000000100000000000000000000000000000000000000011011111111111111111111111111111111111111111111101110000000000000000000000000000000000000000001111111111111111111111111111111111111100000000000000000000000000000000000000000000000000011111111111111111111100000000000000000000000111000000000000000001001111111111111111111011000100000000000010100110010000010010001001001000000100100000000010010010011011010000000100000010010010000101000000000001001001000001000001101101101100100110110010010010000000001000000010010011111111111111111111111111111111111111111111101001001001000011001000010011111111111111111111111111111111111111111111101101100100001001001000010000101010",
"100101100100100100100100110100101100100000000000000000000001100000000000000000000000000000000000000000000000000000011000000000000000000000000000000000000011011110000001111001000000000010110000000001111101011100000000000000000000000000000000000000001100000000000000000000000000000000001100000000000000000000000000000000000000000000000000011111000000000001111100000000000000000000011111000000000000000001000000000000000000000011010100100100100110011001001001101100100110110010011011011001001001001101101000100100100100101001101100100100100010110100110110110011000010010010010000000001000010010010010011001001001001001011111111111111111111111111111111111111111111100101001101101100100100101011111111111111111111111111111111111111111111100011001000010110110110010010011010",
"101001001011001010011011001001001100100000000000000000000001100000000000000000000000000000000000000000000000000000011000000000000000000000000000000000000011000000000000000000000000000000000000000000000001001100000000000000000000000000000000000000001100000000000000000000000000000000001100000000000000000000000000000000000000000000000011100000000000000000000011100000000000000001111110000000000000000001001100000000000000000011010011001011011000100100110010010011010001001001000100100110110010110010010010011010011011011010010010011011001000011001001001000100100001010010011011011001001001101100100100100110100110010011111100000000000000000000000000000000001111100011110010010011011011010011111100000000000000000000000000000000001111100010100101101001001001001100101010",
"100110001000000000000000001000001100100000000000000000000001100000000000000000000000000000000000000000000000000000011000000000000000000000000000000000000011000000000000000000000000000000000000010000000101001100000000000000000000000000000000000000001100000000000000000000000000000000001100000000000000000000000000000000000000000000001111000000000000000000000010111000000000000011111100000000000000000001001111111111111111111011000100000000000000100100000000010010010001001001100100100100010010010010010010000010010100110010010010000001001001101001001001101100101001101100100100100110100010000000000000100000000010010011111100000000000000000000000000000000011111101101001000010010001011001011111110000000000000000000000000000000011111101101001010010010001000000000010010",
"100000100100100100100100101100101100100000000000000000000001100000000000000000000000000000000000000000000000000000011000000000000000000000000000000000000011000000000100000000000001100000000000010000000001001100000000000000000000000000000000000000001100000000000000000000000000000000001100000000000000000000000000000000000000000000111100000011100000000000110000011110000000001101111100000000000000000001001100001001000010011011000100100100110111010011001001101100100110110010010011011001001101101101101000100100100100100100101100100100110110110100110110010011010010010000100100100100100010010010011011011001001001001011111100000000000000000000000000000000011111100000001101101100100100001011111110000000000000000000000000000000011111100000001100110010010010010010010010",
"101001001000000010011001011001001100100000000000000000000001100000000000000000000000000000000000000000000000000000011000000000000000000000000000000000000011000000000100000000000001100000000000010000000001001100000000000000000000000000000000000000001100000000000000000000000000000000001100000000000000000000000000000000000000000001111000000011110000000011110000001110000000011011111000000000000000000001001101101110100110111011010011011001001000100100100110010011010000100010000010011000000010010110010010010010010011011001001000000000001001001000000010010010000010110110010011001011001001001100100100100100110000001011111100000000000000000000000000000000011111101110110010010011010010010011111110000000000000000000000000000000011111101100110101100100110001001101101010",
"100000101011001100100100100000101100100000000000000000000000000000000000000000000000000000000000000000000000000000000000000000000000000000000000000000000011000000000100000000000001100000000000010000000001001100000000000000000000000000000000000000001100000000000011111111111000000000001100000000000000000000000000000000000000000011000000000111111100000111111100000011100001110111110000000000000000000001001110010100100100011011010000000000001000100100000010000010011001001001101100100110111011001010010010010010100000100010010010011011001001001001001100101100100100100000000000000000000001000000000100100100000110010011111100000000000000000000000000000000011111101101010010010010010110001011111110000000000000000000000000000000011111100110000011000000101100110000001010",
"100100100100100000000000000100101100100000000000000000000001100000000000000000000000000000000000000000000000000000011000000000000000000000000000000000000011000000000100000000000001100000000000010000000001001100000000000000000000000000000000000000001100000000000011111111111000000000001100000000000000000000000000000000000000000110000000000110111100000110000100000000110011101111110000000000000000000001001101001011011011011011000100100110010010011001001001100101100110100010010010100100010111001001001001101101100100100100000000100100100110110110110010010000000011001000100100100100110010010010011011011001001001001011111100000000000000000000000000000000011111100101101101101101001000001011111110000000000000000000000000000000011111101001101100101001001001000010110010",
"101001010010010010011011001001001100100000000000000000000001100000000000000000000000000000000000000000000000000000011000000000000000000000000000000000000011000000001111000000000001100000000000110000000001001100000000000000000000000000000000000000001100000000000010000000011000000000001100000000000000000000000000000000000000001110000000000111111100000110000100000000110111011111100000000000000000000001001101001100100101011011010010001001000100100110010010010000000010110110010011001001001000100110010010010010011011001001001100100100100000000000010010010011011010010010010010001001001001001000100100100100100101001011111100000000000000000000000000000000011111101010000010010010010010010011111110000000000000000000000000000000011111100100000100010010001001001101000010",
"101000010100000000100100000001001100100000000000000000000001100000000000000000000000000000000000000000000000000000011000000000000000000000000000000000000011000000011111000000000001100000000001111100000001001100000000000000000000000000000000000000001100000000000010000000011000000000001100000000000000000000000000000000000000001100000000000111111100000110111100000000001110111111000000000000000000000001001110100100110101111011010011001001101101100000010010010011011001001001100100100001001001001000010010010010010000001001000000000001001001001001100100000100010100110010010010001001001001001000100100100110110110110011111100000000000000000000000000000000011111101010010010010010000010101011111110000000000000000000000000000000011111100010010001010010010110010001001010",
"100100100100100101100100100110101100100000000000000000000001100000000000000000000000000000000000000000000000000000011000000000000000000000000000000000000011000000111111100000000001100000000011111110000001001100000000000000000000000000000000000000001100000000000011111111111000000000001100000000000000000000000000000000000000011000111110000011110000000011111100000110011011111110000000000000000000000001001101011011011011011011000100110110110010011011101101101100101100100001001100110110010010001001101001101101101100100110110010010010000100100001000001101100010110001101101100100110110010010010011011001001001001001011111100000000000000000000000000000000011111100101101101101001001001101011111110000000000000000000000000000000011111101101001001101001001000010010011010",
"101010010100010010011011001001001100100000000000000000000001100000000000000000000000000000000000000000000000000000011000000000000000000000000000000000000011000000110001100000000001100000000011000110000001001100000000000000000000000000000000000000001100000000000000000000000000000000001100000000000000000000000000000000000000110001111110000001110000000001111000001111110111111100000000000000000000000001001110100100100100011011010000000000010000100010010010010011010000110110011010001100100110110010010010010010010001011001001000101100100100100110010010010010010010011010010000001001000001000000100100000010000101001011111100000000000000000000000000000000011111101110000000010010110010010011111110000000000000000000000000000000011111101100100100010010011001101000001010",
"100010010000010000100100001000101100100000000000000000000001100000000000000000000000000000000000000000000000000000011000000000000000000000000000000000000011000000111011100000000001100000000011111110000001001100000000000000000000000000000000000000001100000000000000000000000000000000001100000000000000000000000000000000000001110001101111000000000000000000000000011101101111111000000000000000000000000011001101001011001010011011010011001001101100101000010000110000010011001000100010011011001001001010010010010010010001001001001100110010001011001001101100101001001000100110010011001001001001101100100100100110110010010011111100000000000000000000000000000000011111100010110000011001000010001011111110000000000000000000000000000000011111100010001001001010110010010001101010",
"100001100100101100100100110110101100100000000000000000000001000000000000000000000000000000000000000000000000000000011000000000000000000000000000000000000011000000111111100000000001100000000011111110000001001100000000000000000000000000000000000000001100000000000000000000000000000000001100000000000000000000000000000000000001100001100111000000000000000000000000111011011111110000000000000000000000000011001101001011011011011011000100000000010010011001001100101100100100001001000100010011001001001101101101100101100100110100110010010100010110001000000000101001001000100101100100100100000010010010010011001001001001011011111100000000000000000000000000000000011111101101001001001001001001101011111110000000000000000000000000000000011111100010001001001001100110010010001010",
"101001010110010010010001001001001100100000000000000000000001100000000000000000000000000000000000000000000000000000011000000000000000000000000000000000000011000000011111000000000001100000000001111100000001001100000000000000000000000000000000000000001100000000000000000000000000000000001100000000000000000000000000000000000001100001111111000000000000000000000000110110111111100000000000000000000000000001001110100100100100111011010100110110010010010011010011010010000001010001001001101100100110110010010010010000000100001010010010010101000101101110010011100110110010010010000000100100110110010011011011001001000101100011111100000000000000000000000000000000011111101000000000110110110010010011111110000000000000000000000000000000011111101100010110010010000000100110011010",
"100010001010010010000001000000101100100000000000000000000000000000000000000000000000000000000000000000000000000000000000000000000000000000000000000000000011000000000100000000000001100000000000010000000001001100000000000000000000000000000000000000001100000000000000000000000000000000001100000000000000000000000000000000000110000001111110000000000000000000000000001101111111000000000000000000000000000001001101001011010011011011000011001001101100100100000000010010001001000110010010000000000000000000010010010010011011000001100100101000001001011000101100100001000000010000101011001001001001001100100100100100110010011011111100000000000000000000000000000000011111100010010100000000100101001011111110000000000000000000000000000000011111100001101000010010010001001001100010",
"101001101101100100100100110110101100100000000000000000000001100000001100000000000000000000000000000000000000000000011000000000000000000000000000000000000011000000000100000000000001100000000000010000000001001100000000000000000000000000000000000000001100000000000000000000000000000000001100000000000000000000000000000000000110000000011110000000000000000000000001111011111110000000000000000000000000000001001101100100100100111011010011001000010010001001101100100100100100001001000010011011001001001001101100100100100100101100000100100100110110110010010011011001001001101100110100100000000000000010010011001011000100010011111100000000000000000000000000000000011111101001001001001001001001110011111110000000000000000000000000000000011111100010110100101101100100110010001010",
"101010010011000000100001001000001100100000000000000000000001100000001100000000000000000000000000000000000000000000011000000000000000000000000000000000000011000000000100000000000001100000000000010000000001001100000000000000000000000000000000000000001100000000000000000000000000000000001100000000000000000000000000000000000010000000000000000000000000000000000001110011111100000000000000000000000000000001001100100100100101111011010100100110010110010000011001001100000101001001001100100100000110010010000000010100100100100010010011011001001001000000110010100000000001000010100100100110110110010011010100001001001101101011111100000000000000000000000000000000011111101000001100101000001011010011111110000000000000000000000000000000011111100110000100010000000100110010011010",
"100010010010010010011011001001001100100000000000000000000001100000000110000000000000000000000000000000000000000000011000000000000000000000000000000000000011000000000100000000000001100000000000010000000001001100000000000000000000000000000000000000001100000000000000000000000000000000001100000000000000000000000000000000001110000000000000000000000000000000000011100111111000110000000000000000000000000001001101011011011010011011000000000001100100110110110000001001011010100010010000100100100110110010010010011011011011010000000010010001001001001100100100100100110110010011001011001101000000001000100000100110110010001011111100000000000000000000000000000000011111100010010100100110110110001011111110000000000000000000000000000000011111101101001011010010011010001000101010",
"101101101101101100100100110100101100100000000000000000000001100000000011000000000000000000000000000000000000000000011000000000000000000000000000000000000011000000000100000000000111110000000000011010000101001100000000000000000000000000000000000000001100000000000000000000000000000000001100000000000000000000000000000000001100000000000000000000000000000000000111011111110000110000000000000000000000000011001110100100100100111011010011001011001001001000100110100110000100001000010010011001001001001101101100100100100100101101101100100100110110010010010011011001001101001100100110100000001001001110010011001001100100010011111100000000000000000000000000000000011111101101001011001001001001010011111110000000000000000000000000000000011111100010110100100100100100101101101010",
"100010010010010000100100101001001100100000000000000000000001100000000011100000000000000000000000000000000000000000011000000000000000000000000000000000000011010000100100100000001110111000000000011000000001001100000000000000000000000000000000000000001100000000000000000000000000000000001100000000000000000000000000000000001100000111100000000000000000000000001100111111100000010000000000000000000000000011001101001011101010011011000100100100100110010011001001001001011111001001101100100100100010010010010001010010010010010010010011000001001001000000000100100100000011001000001000010010100010010010010100101001001001001011111100000000000000000000000000000000011111100010100100100000100110010011111110000000000000000000000000000000011111101101001000000001100010010010011010",
"100010010010010010011001001001001100100000000000000000000001100000000001110000000000000000000000000000000000000000011000000000000000000000000000000000000011010000000100000000001100011000000000011000000001001100000000000000000000000000000000000000001111111111111111111111111111111111111100000000000000000000000000000000001100001111110000000000000000000000001100111111000000010000000000000000000000000011001111001011011011011011000100100000100110010010011010001000100110110010010000100100100110110010010011010010000000010010010010011011001001001100101100100100110010010011001001100000100100010001000100100110101001001011111100000000000000000000000000000000011111100010100100100110110110001011111110000000000000000000000000000000011111101101001011010010010010010010101010",
"101001101101100000010001000000001100100000000000000000000001100000000000110000000000000000000000000000000000000000011000000000000000000000000000000000000011000000000100000000001100011000000000010000000001001100000000000000000000000000000000000000001111111111111111111111111111111111111100000000000000000000000000000000001100001101111000000000000000000000001001111110000000010000000000000000000000000011001100110110110101111011010011011001001001101100110100100100100001000010010011011011001001001001101100100100100100101101101100100100110110010010010010001000000100010010110000100100101000001010011011000000100110110011111100000000000000000000000000000000011111101101001001001001001001101011111100000000000000000000000000000000011111100010110100100010001101101101100010",
"101000000100000100100100100100101100100000000000000000000001100000000001100000000000000000000000000000000000000000011000000000000000000000000000000000000011000000000100000000001111111000000000010000000001001100000000000000000000000000000000000000001100000000000000000000000000000000001100000000000000000000000000000000001100001000011000000000000000000000000111111100000000110000000000000000000000000011001101001000011010011011000100100100100000010000101001011011001001001001101000100000000001000000010010011010011011010010000000000000001000010000010110001001001001001001010011011011011011000100100101001001001001001011111100000000000000000000000000000000011111101000001000000000000010110011111100000000000000000000000000000000011111100001000000000100110010010010011010",
"100010010010011011011001001001001100100000000000000000000001100000000011000000000000000000000000000000000000000000011000000000000000000000000000000000000011000000000100000000000111110000000000010000000001001100000000000000000000000000000000000000001100000000000000000000000000000000001100000000000000000000000000000000001100001000011000000000000000000000000011110000000001100000000000000000000000000011001111011011011011011011000100100110110010010011010000100100110110110010000000100100110110110010010010010000000100000010011011011011001001001100101100100100100010110010010000001001000101001101100100100100110100101011111100000000000000000000000000000000011111100010110100110110110100010011111100000000000000000000000000000000011111101101001011010010010010010000100010",
"101000010010100100010001001001001100100000000000000000000001100000000011000000000000000000000000000000000000000000011000000000000000000000000000000000000011000000000100000000000111110000000000010000000001001100000000000000000000000000000000000000001100000000000000000000000000000000001100000000000000000000000000000000001100001111111000000000000000000000000011110000000001100000000000000000000000000011001100100111110100111011010011001001001011100110010000100100100100010010010011011001001001010000100000100100100100101100100100100100100011010010010000100100110010010011101100100100110110110010010000000100100100110011111111111111111111111111111111111111111111101001001001001001001001101011111111111111111111111111111111111111111111100010100100000001001001001101101110",
"101001001101100100100100110110101100100000000000000000000001100000000110000000000000000000000000000000000000000000011000000000000000000000000000000000000011000000000100000000000001100000000000010000000001001100000000000000000000000000000000000000001100000000000000000000000000000000001100000000000000000000000000000000001100000111110000000000000000000000000001100000001111000000000000000000000000000011001100101001000100011011010010000001001001000100101011011011001001001001100100001001001001001101100100110010011011010000100100100100110010110010010011011001001101001000010010011001001001001000011011011001001001001011111111111111111111111111111111111111111111101001001001001001001010010011111111111111111111111111111111111111111111100101100100100100010010010010011010",
"100110010010011011011011001001001100100000000000000000000000000000001100000000000000000000000000000000000000000000000000000000000000000000000000000000000011000000000100000000000001100000000000010000000001001100000000000000000000000000000000000000001100000000000000000000000000000000001100000000000000000000000000000000001100000111100000000000000000111110000000000011111110000000000000000000000000000001001111011011011011011011001100110110110110011011010000100100100000010000000100100100100110110010010010010010000000010011011011011011001001001100100100110000000000100110110010011001001001101100101100100110110100001010000000000000000000000000000000000000000001100010110110110110110110011011000000000000000000000000000000000000000000101101001011011010010010010010011010",
"101000000000100100100000000010001100100000000000000000000001100000000000000111111111000000000000000000000000000000011000000000000000000000000000000000000011000000000100000000000001100000000000010000000001001100000000000000000000000000000000000000001100000000000011111111111000000000001100000000000000000000000000000000001100000000000000000000000011111111100000000111111000000000000000000000000000000001001100100100100100111011010011001001001001100100100100100100100100000110010011001001000001001000101101101100100100100100100100100100010010010010000001100100010011001001001100100100110010010010010000001001001000010100110010010010100100101111001011001100101101101101001001001001001001101101111101111111111111111111111111111111111111110110100100101101001001101101101110",
"101001101100100100100100100100101100100000000000000000000001000000000000000011111111000000000000000000000000000000011000000000000000000000000000000000000011000000000100000000000001100000000000010000000001001100000000000000000000000000000000000000001100000000000011111111111000000000001100000000000000000000000000000000000110000000000000000000000111110001110000000000000000000000000000000000000000000001001100101100110001111011010010001001001001100100001011001001011001001001000100001001011001001001101000000000000000101100100100100100110010010010010010100100110000001001001100100110100010010010011011001001001001001010000000000000000000000000000000000000000000001011001001001001001000010000000000000000000000000000000000000000000000000000100100100000001000010010010010",
"100010010010011011001011001000101100100000000000000000000001000000000000000000000000000000000000000000000000000000010000000000000000000000000000000000000011000000100101100000001001100000000011010000000001001100000000000000000000000000000000000000001100000000000010000000011000000000001100000000000000000000000000000000000110000000011100000000000111100001111000000000000000000000000000000000000000000001001101001011011010011011000100100110110110011011000000100100000001000001000100100100100000010010010010010011011011001011011011011001001001101100100110011000001100110010010011011001001001101101100100100110110101101101001000000000000000000000000000000000000011010010110010010110110110010000000000000000000000000000000000000000000000000001011011010010010010010010011010",
"100000000010000100010010010001001100100000000000000000000001100000000000000000000000000000000000000000000000000000011000000000000000000000000000000000000011000000100100000000000001101000000000011000000001001100000000000000000000000000000000000000001100000000000010000000011000000000001100000000000000000000000000000000000110000000111110000000001110000000111000000000000000000000000000000000000000000001001110100100101100011011000000001001001000100100100100100100000110110010010011000010000111110000101001101100100100100110000000100000000000000000100110000001000001000000010010000000000000000000000000000001001001010010010001100011000111100011111001100011000100101001101101100100001001101001111110110001101111111011111000001100000111100010100100101101001001001100100010",
"101001100101100100110101000100101100100000000000000000000001100000000000000000000000000000000000000000000000000000011000000000000000000000000000000000000011000000000100000000000001100000000000010000000001001100000000000000000000000000000000000000001100000000000011111111111000000000001100000000000000000000000000000000000111000001111111000000001110000000111000000000000000000000000000000000000000000001001100100100100110011011010011001001001000100110010011001011001001001001000000100100001001001001101001010010000000001001100100100110110110110010010100100100110010001101101100100100110110010010011011001001001001101000001001100011001111100011111001100011000101001001010010010011001001000001111110110001101111110011111100001100001111110001000000000010010000000010001010",
"101000010101100000101001001101001100100000000000000000000001100000000000000000000000000000000000000000000000000000011000000000000000000000000000000000000011000000000100000000000001000000000000010000000001001100000000000000000000000000000000000000001100000000000011111111111000000000001100000000000000000000000000000000000001100001101101000000001110000000111010000000000000000000000000000000000000000001001101011011011011011011000100100100110010010010010000001001001001001001101000100001001001000000010010010010011001001001000001001001001001010010010000100100000000010010001000000100001000000000000100101010000000001001001001100011001100110011001101100111000001110010010010010010010110010001100000110011100011000011001100011110001100110001001010010010010010010010011010",
"100010010010011011000011011011001100100000000000000000000001100000000000000000000000000000000000000000000000000000011000000000000000000000000000000000000011000000000100000000000001000000000000010000000001001100000000000000000000000000000000000000001100000000000000000000000000000000001100000000000000000000000000000000000001100001101111100000001110000000111110000000000000000000000000000000000000000001001101101100100110011011000000000100000010001100101100100110110010110010110011011010110110010010011001001100100100110110111010011001001001001000010011001001001101100010110011011011001001101101100100100110110110010010010001100011001100110011001101100110000100100100101100101100100101101001100000011011000011000011001100011010001100000010110100101001001001001000100010",
"101001001101100100101100110100101100100000000000000000000001100000000000000000000000000000000000000000000000000000011000000000000000000000000000000000000011000000000000000000000000000000000000000000000001001100000000000000000000000000000000000000001100000000000000000000000000000000001100000000000000000000000000000000000001100001111111000000011110000001110011000000000000000000000000000000000000000001001100100100110100111011011011001001001101101100010011001001001001000000000000000010110000001001001000001100000100100000100100100100110110010010010100100100110010011001000100100100100000010010011011001001001001101101001001100011001100110010001101101100000011001011010010010011000000101001100000011110000011000011001100110011001110000001001011010001001001001001001010",
"100000000010000000010001001001001100100000000000000000000001100000000000000000000000000000000000000000000000000000011000000000000000000000000000000000000011010000000000000000000000000000010000000000000101001100000000000000000000000000000000000000001100000000000000000000000000000000001100000000000000000000000000000000000000110000011110000000011100000011110001100000000000000000000000000000000000000001001111011011011011011011000100100100110010010010010011000000001001001101001100101101001001001000110010010010011011001001001001001001001001001001101100100000001010010010001000100100100010010010000100100110100100010010001001101111001100110011111001111100000000100100100000000000001011010001111000001110000011000011111000110011000111100001001100100110110110010010010010",
"100110010010010010011001001001001100100000000000000000000001000000000000000000000000000000000000000000000000000000011000000000000000000000000000000000000011000000000000000000000000000000000000000000000101001100000000000000000000000000000000000000001100000000000000000000000000000000001100000000000000000000000000000000000000110000000000000000011000000011100001110000000000000000000000000000000000000001001101001001001010011011000100100000110010000000100100100100110110010010010010000010000010010010010010000010000000001000001011001011001001001000010001001001001100100110010011001001001001001100100100100110110110110010010001101111001100110011111001111100000100100100100101100100110100001001111000001110000011000011111000110011000111100010100100100100000000010010010010",
"100110010000100100100100100100101100100000000000000000000000000000000000000000000000000000000000000000000000000000000000000000000000000000000000000000000011000000000000000000000000000000000000000000000001001100000000000000000000000000000000000000001100000000000000000000000000000000001100000000000000000000000000000000000000011000000000000000110000111110000000110000000000000000000000000000000000000001001100100110110110011011010011001001001001101100100100000001000000010000010010010010110000010010001001101101100100110110110100100100110110110010010010000001000010100000010010001001001001000000100000001001001000000000101001101111001100110011110001101100000101001000000000000000100000010001100000001111000011000011111000111111000001110010010011011001001001101001101010",
"101001101101100100100100100000101100100000000000000000000001100000000000000000000000000000000000000000000000000000011000000000000000000000000000000000000011111111111111111111111111111111111111111111111111001100000000000000000000000000000000000000001100000000000000000000000000000000001100000000000000000000000000000000000000001110000000000000111111111100000000110000000000000000000000000000000000000001001111001001001101111011010100100100110010010011011011011001001001101001101100101101001001001100100110010010011001001001001000100100100001001001101100100100111011001101101100100110110110010011011011011001001001101101001001111111001100110011011001101110000001000001011000011011001001001001100000011011000011000011011000111111000000110010000100100100110010010010010010",
"100000010010011010011001001001001100100000000000000000000001100000000000000000000000000000000000000000000000000000011000000000000000000000000000000000000001111111111111111111111111111111111111111111111111101100000000000000000000000000000000000000001100000000000000000000000000000000001100000000000000000000000000000000000000000111000000000000111111100000000000110000000000000000000000000000000000000011001100110011010010011011000000100110010010000000100100100110010000000010010010010000100010010010011000010010000100000000010011001011000100001000000000001001000100100010010000000001000001000000100100100110110110010010011000110111001100110010011001100110000100100110100100100100100100010001100000110011100011000011001100110011001100110000000000000000010010010010011010",
"100110010010000100010001001100101100100000000000000000000001100000000000000000000000000000000000000000000000000000011000000000000000000000000000000000000001110000000000000000000000000000000000000000000000001100000000000000000000000000000000000000001100000000000000000000000000000000001100000000000000000000000000000000000000000011100000000000000000000000000000110000000000000000000000000000000000000011001100011110010011011011011011001001001001001100100100100100110010010010010010010010110110010010011001101100100110110110010010100000100110110110010011011001001000110010010011011001001001001100100100100101000000010010000000110111001111110010001101100011000011010000010100100100100110010001111110110001100011000011001100110011001111110010010011001001001001001101101110",
"101001001001100100100110010000001100100000000000000000000001100000000000000000000000000000000000000000000000000000011000000000000000000000000000000000000000111111111111111111111111111111111111111111111111111100000000000000000000000000000000000000001100000000000000000000000000000000001100000000000000000000000000000000000000000001111100000000000000000000000011110000000000000000000000000000000000000011001110101100101100111011010100100110110110010010010011001011001001001001101100101101001001101100100110010010011011001001001101100100000001001001100100100100100011001001100100100110110010010010011011011011001001101001101000110011000111100011001101100011000100101001001011011011001001001001111110110001100011000011001100110011000111100011000000100110110110010010010010",
"101000001010010000100000001001001100100000000000000000000001100000000000000000000000000000000000000000000000000000011000000000000000000000000000000000000000011111111111111111111111111111111111111111111111111100000000000000000000000000000000000000001100000000000000000000000000000000001100000000000000000000000000000000000000000000111100000000000000000000000011100000000000000000000000000000000000000011001100101101101101011011010100100100010010010010000000000000000001000000001000100110001001000000100010010010000001001001001001001011001001001001100100100100110000001000000000100100100010010010010000000001001001000010011000000000000000000000000000000000000100100000000100000010001001001000000000000000000000000000000000000000000000000001001100100100010010010010010010",
"100110110010010011011001000100101100100000000000000000000000110000000000000000000000000000000000000000000000000000100000000000000000000000000000000000000000000000000000000000000000000000000000000000000000000000000000000000000000000000000000000000001111111111111111111111111111111111111100000000000000000000000000000000000000000000000111100000000000000000000111000000000000000000000000000000000000000011001101011011010011011011001001001001001001101101100100100100110110110010010011010010110110110010011001101100100100110110010011000000100100110110010010011001001010110110010011011001001001101100100100100100110110110010011000000000000000000000000000000000000011010010010100100100110110110000000000000000000000000000000000000000000000000010110011001001001001101101101110",
"101001001001100100100110110110101100100000000000000000000000001111111001111111110111111111111010111111110011111111000000000000000000000000000000000000000000000000000000000000000000000000000000000000000000000000000000000000000000000000000000000000000111111111111111111111111111111111111000000000000000000000000000000000000000000000000000111111000000000011111100000000000000000000000000000000000000000011001110100100100011011011000100000000000010000010010000011011001001001001101100101101100001000000100010010010001001001001001100100100100000100000000010000000001001001000100100100000000010010010010010001001001001001001100100000000000000000000000000000000001101001001001011011011001001001000000000000000000000000000000000000000000000000100100100110010010010010010010010",
"101001001001001000100100100001001100100000000000000000000000001111111000111111110111111111111010111111100011111111000000000000000000000000000000000000000000000000000000000000000000000000000000000000000000000000000000000000000000000000000000000000000000000000000000000000000000000000000000000000000000000000000000000000000000000000000000011111111111111111111000000000000000000000000000000000000000000011001100100100100100111011010010100110110110010010011001001001001001001001000100100000001001001110100110010010011001001001001000100001011001001001101100100100111001001001101100100110100110010010010010001001001001001010010100000000000000000000000000000000000010010001000000000001001001001101000000000000000000000000000000000000000000001001001100110110010010010010010010",
"100110110110110010010011001100101100100000000000000000000000000000000000000000000000000000000000000000000000000000000000000000000000000000000000000000000000000000000000000000000000000000000000000000000000000000000000000000000000000000000000000000000000000000000000000000000000000000000000000000000000000000000000000000000000000000000000000000111111111110000000000000000000000000000000000000000000000011001101001011010010011011001101001001101101001101100100100100110110110010010010010010010000010101101001101100100110110110010011000100100000000000000000000000000110110010010011011001001001001101100100100110110110110010101100000000110000111100001111110000000010010110110100100100110110110010000000000011100011111000111111100000000001100001001001001001001001101101101010",
"101001001000000100100100000000101100100000000000000000000000000000000000000000000000000000000000000000000000000000000000000000000000000000000000000000000000000000000000000000000000000000000000000000000000000000000000000000000000000000000000000000000000000000000000000000000000000000000000000000000000000000000000000000000000000000000000000000000000000000000000000000000000000000000000000000000000000011001101110100001001111011010000001000000010010000000010001001001001001001000001100100100110010010010010010000000000001001000100100100100110110010010010011001001001001000000100100000000000010010010000001001001001001000010000000001111000111110001100000000001101101001001010010001001000000000000000000011100011111100111000000000000000010100100100100000010010010000010010",
"101001001001001100100100101011001100100000000000000000000000000000000000000000000000000000000000000000000000000000000000000000000000000000000000000000000000000000000000000000000000000000000000000000000000000000000000000000000000000000000000000000000000000000000000000000000000000000000000000000000000000000000000000000000000000000000000000000000000000000000000000000000000000000000000000000000000000011001110110110110001111011010010110110010010010010010000001001001001001000000000000100100000000010010110010010011001001001001100100001001001000000000100100001001001001000101100100100110010010010010011001001001001000010010000000001111000110110001000000000000100010001001000001001001001001101000000000011110011001100110000000000000000010000100100110000010010010010010010",
"100110110110010010010011010100101100100000000000000000000000000000000000000000000000000000000000000000000000000000000000000000000000000000000000000000000000000000000000000000000000000000000000000000000000000000000000000000000000000000000000000000000000000000000000000000000000000000000000000000000000000000000000000000000000000000000000000000000000000000000000000000000000000000000000000000000000000011001101001001010010011011001001001001001001101100101100100100100110110010010010010011011001000100100101001100100100110110010010011000001001001001100100100100110010010010010010001001001001101100100100100110110110110100100100000001111000110011001000000000000010000010100100100100110110010010000000000110110011000100110000000000000001101011001011001001001001101001101010",
"100000000000000010001001001000101100100000000000000000000000000000000000011110011000000000000011000011000000000000000000000000000000000000000000000000000000000000011110000000000000000000110000000000000000000000000000000000000000000000000001000100000000011001110000110000100000110000000000000000000000000000000000000000000000000000000111100000000000100000000000110000000000000000000000000000000000000011001100101100101101111011000000000000000000010000100010000001000001000000100000100100100000010010011001001100000000000000000000100100100110110010010010001001000000100010010010000000000000000000000000000000000000000001000000000011001100110011001000000000001101101001000000100000000000010010000000001100011011000100110000000000000000010100100100110010000000000000001010",
"101001001001001101100001001011001100100000000000000000000000000000000000011110011000000000000111000011000000000000000000000000000000000000000000000000000000000000011111000000000000000001111000000000000000000000000000000000000000000000000001000100011000011001110000110000110000110000000000000000000000000000000000000000000000000000000111100000000000100000000000110000000000000000000000000000000000000011001110010011011010011011010110110010010010010010010010011001001001001101000000100100100110010000000010010010011011001001001100100000000000000000000000001000001001001100100100100110110010010010010011011001001011000010110100000011001100110011001111000000000100000110100011011001001001001101000000001100011011000100111110000000000000110100100100010010010010010010010010",
"100000000100000100000100110100001100100000000000000000000000000000000000110011011000000000000001000001000000000000000000000000000000000000000000000000000000000000011001000000000000000001001000000000000000000000000000000000000000000000000001000100011000000000010000000000110000000000000000000000000000000000000000000000000000000000000100010000000000000000000000110000000000000000000000000000000000000011001101101100111010011011010001001001001001001001101100100100110110010010010010011011001001001100100100110010000000000010010010011011001001001001101100100100110010001001001100100001001001001000100100100000000100101100100100000011001100110011001111000000000010010011011000100100100010010001000000001110011011000100111110000000000001101011001001001001101001001100101010",
"100100100100100100100100100100101100100000000000000000000000000000000000110000011000000000000001000001000000000000000000000000000000000000000000000000000000000000011001000000000000000001000000000000000000000000000000000000000000000000000001000100010000000000010000000000110000000000000000000000000000000000000000000000000000000000000100110000000000000000000000110000000000000000000000000000000000000011001100101100100101111011010001000000110001000100000000000100000100010000010000000000001001000010000001001101100100110110010010000000000000000010000000001000000000010010010011011001001001000001000100100100100100001001011000000011111100110011001000000000000101101000100100100110100110110010000000001111111011000110110000000000000000010000000000001001000000000001001010",
"101001001001001011011011001001001100100000000000000000000000000000000000111000011110000111000001000001000000000000000000000000000000000000000000000000000000000000011001001011000011100111110001110000000000000000000000000000000000000000000001000100111100111000010001110001111001110000111000011100000000000000000000000000000000000000000100110011110001100011111001111100000000000000000000000000000000000001001110011011011011011011001100100100010010110010010010011011001001001001101100100100110110110010011001010010010011001001001101100100100110010010010010000001001001000000000000100100110010010010010011001001001011010010010100000011001100110011001000000000000100010100000011001001001001001101000000001100011011001100010000000000000000010100100100110110010010010010010010",
"100000000100100100100100000000001100100000000000000000000000000000000000011110011001001100100001000001000000000000000000000000000000000000000000000000000000000000011111001101100100110011110011000000000000000000000000000000000000000000000001000100011000011000010000110000110000110001100100100000000000000000000000000000000000000000000111110000011000100011101100110000000000000000000000000000000000000001001101001111000100011011010010011011001001001001000000100100100110010010010010010001001001000100100100100100000001001000010010010011001001001001100100100100110011001001101100100110001001001100100100000000100101101001100000000011001100110110001000000000000100001011011000010000100000010000000000001100011011001000010000000000000001001001001001001001001101001101101010",
"100100100100100100100100100110101100100000000000000000000000000000000000001110011001101100100001000001000000000000000000000000000000000000000000000000000000000000011110001100101100110001000011000000000000000000000000000000000000000000000001000100010000011000010000110000100000110001100100100000000000000000000000000000000000000000000111100000011000100001001100110000000000000000000000000000000000000011001101001100100100111011010010001000010001001100101000100100100010010010010010010001001001001100100100100101100100110110010010010001001001001000100100100100000010010000000000001001001101001000100100100110100100001000000000000011001100111100001000000000000001101101101100110010110110010010000000001100011011111000010000000000000000100100001001001001000000001000101010",
"101011011001011011011011001001001100100000000000000000000000000000000000000011011001101111100001000001000000000000000000000000000000000000000000000000000000000000011000001100001111110001000001110000000000000000000000000000000000000000000001000100010000011000010000110000100000110001111100011100000000000000000000000000000000000000000100000001111000100001001100110000000000000000000000000000000000000011001110111011011011011011000100100110110110110010010010011011001001001001101100100100110110110010011011011001000101101001001101100100100110110010010011001001001100100110010011011000110010010011011001001001011010010010010100000011001100111100001000000000000100010000100011001001001001101001000000001100011011110000010000000000000001100010110110110110110010010010010010",
"100000100100100100100001001001001100100000000000000000000000000000000000110011011001101100000001000001000000000000000000000000000000000000000000000000000000000000011000001100001110000001000000111000000000000000000000000000000000000000000001000100010000011000010000110000100000110001100000000110000000000000000000000000000000000000000100000110011000100011001100110000000000000000000000000000000000000011001100000100100100111011010010010010001001001010000000000000000000010010010010000001000000000000100100100100011010011001001000000000001001001000100100100000001001001000000100100100110010010010010010000001101101001001010000000000000000000000000000000000000010010011010001000000001001001101000000000000000000000000000000000000000001001001001001001000000000001000100010",
"100100100100100100100110110110101100100000000000000000000000000000000000110011011001101100000001000001000000000000000000000000000000000000000000000000000000000000011000001100000100000001000000011000000000000000000000000000000000000000000001001100011000011000010000110000110100110001100000000110000000000000000000000000000000000000000100000110011000100011001100110100000000000000000000000000000000000011001101101100100101111011010010001011000011001101101101100100110110110110010011011001011001001101100100100100100100100110110010010011001001001100100100100100110110010001001000001001001001101100100110001011001000001100101100000000000000000000000000000000000101101100101100100110110110010010000000000000000000000000000000000000000000110010001001001001001001000000100010",
"101000001001010010011001001001101100100000000000000000000000000000000000011110011001100111100001110001110000000000000000000000000000000000000000000000000000000000011000001100000011100001000011110000000000000000000000000000000000000000000000111000001100011100011100111000011100111000111100111100000000000000000000000000000000000000000100000011111001111011001100011100000000000000000000000000000000000001001111001011011011011011000101101100110110010010010010001001001001001001101100100100100010010010011011001001101100100100001000000000100010010010010010001000000110110110010011011001001000010001000100100110010010010010011100000000000000000000000000000000000100001000100100101001001000010010000000000000000000000000000000000000000000110010010110110010010010010010001010",
"101010011011010000010001001001001100100000000000000000000000000000000000000100001000000011000001100001100000000000000000000000000000000000000000000000000000000000011000001000000011100001000011110000000000000000000000000000000000000000000000111000001100011100011000111000011000111000111100111100000000000000000000000000000000000000000100000011101001110001001100011100000000000000000000000000000000000001001110010111010100111011000101100100001001000010010010010011001001001000000100100100100000010010010000001001000010001001001101100100100100010010010010011001001001000000010010100110110110110100000100100000100000010010010010101101011011011010111110101101101110110110011010011001001101101101001011010010110110010110101101101101101101001101001001010010010010000000011010",
"100101100100100100100110100110101100100000000000000000000000000000000000000000000000000000000000000000000000000000000000000000000000000000000000000000000000000000000000000000000000000000000000000000000000000000000000000000000000000000000000000000000000000000000000000000000000000000000000000000000000000000000000000000000000000000000000000000000000000000000000000000000000000000000000000000000000000001001101101100101101011011010011011011001001000100101101100100110110110010011011011001001001001100100100110110010000011000010010010011001001001101100100100100100001001001101100100101001001000010010011001001001001101101100100100100100100100100000000000000100001001001101100100100110110010010110110110010010011001001101100100110110110110010010001001101001101001100100010",
"100000010000010011011001001001001100100000000000000000000000000000000000000000000000000000000000000000000000000000000000000000000000000000000000000000000000000000000000000000000000000000000000000000000000000000000000000000000000000000000000000000000000000000000000000000000000000000000000000000000000000000000000000000000000000000000000000000000000000000000000000000000000000000000000000000000000000001001111010011010011011011000000100100010010010010010010000001001001001000000100100100010000010010000001001001101100100100110010010000100000010010010010000001000010110010010011011011001001001100100100100100110010010010010010010001001010010010010011011011011001001001000000000001001001001000000001001101001001100010010011001001001001000000000110010010010010010010001010",
"101011010010000011011001001001001100100000000000000000000000000000000000000000000000000000000000000000000000000000000000000000000000000000000000000000000000000000000000000000000000000000000000000000000000000000000000000000000000000000000000000000000000000000000000000000000000000000000000000000000000000000000000000000000000000000000000000000000000000000000000000000000000000000000000000000000000000001001100110011010011111011000100100100110010010010010010011001001001001101100100100100110110110010010011001000000000100011001001101100100110010010010011011001001001010010110010000100110100001000100100100100100010010010010010011001001010010010001100100100100110110010010010011001001001101101101001001101001000110010010001001001001001001101001001010000010010010010011010",
"101100100100100100100100100110101100100000000000000000000000000000000000000000000000000000000000000000000000000000000000000000000000000000000000000000000000000000000000000000000000000000000000000000000000000000000000000000000000000000000000000000000000000000000000000000000000000000000000000000000000000000000000000000000000000000000000000000000000000000000000000000000000000000000000000000000000000001001100101100001100011011010010011011001001001100101100100100110110110010010011011001001001001101100100100010010011011011000000010010011001001101100100100110000100001101101100100100100010010010011011001001001001101101100100101100100100101101100000100100000001001001101101100100110010010010110010110010010101001001101100110110110110110110010000101101001001101100100010",
"100100100100100000100100000001001100100000000000000000000000000000000000000000000000000000000000000000000000000000000000000000000000000000000000000000000000000000000000000000000000000000000000000000000000000000000000000000000000000000000000000000000000000000000000000000000000000000000000000000000000000000000000000000000000000000000000000000000000000000000000000000000000000000000000000000000000000011001110010010110110011011000000000010001001010010001000100100000000000000010000000000001001000000100100100101001100100100110110110010011001000000100000100100010010110010010011011011001001001000010000001000000000000000000000100101000010100010010010011011011001001001001001100000000000010000000010100100010010011011010000000000000000000000010010010010010000000001001010",
"101010011011010011011011001001001100100000000000000000000000000000000000000000000000000000000000000000000000000000000000000000000000000000000000000000000000000000000000000000000000000000000000000000000000000000000000000000000000000000000000000000000000000000000000000000000000000000000000000000000000000000000000000000000000000000000000000000000000000000000000000000000000000000000000000000000000000011001101001101011000011011001100100100110110010010010011011011001001001001101100100100110110110010011011011011000000101000011001001010100110110010010011011001011001001110010000000000000010000100100100100100110110010010011011011011000010010010000100100100100100110010110010011011001001001100101101001101101100100110110011011011001001001001001001000010000110010010010010",
"100010000100100100100100000100101100100000000000000000000000000000000000000000000000000000000000000000000000000000000000000000000000000000000000000000000000000000000000000000000000000000000000000000000000000000000000000000000000000000000000000000000000000000000000000000000000000000000000000000000000000000000000000000000000000000000000000000000000000000000000000000000000000000000000000000000000000011001101101001001011111011010000001010001000001100100110010000000000000010010010001001001000000010000010100010010011011001011101000100100000001000100100100100100000010100100100100100110010110010010011001001001001100001100100100100110100101101101101100100100100110000000101100100110110110010010010001001000100100101100000110110100110110110111001101001001001000100000010",
"100100100100100100100100100110101100100000000000000000000000000000000000000000000000000000000000000000000000000000000000000000000000000000000000000000000000000000000000000000000000000000000000000000000000000000000000000000000000000000000000000000000000000000000000000000000000000000000000000000000000000000000000000000000000000000000000000000000000000000000000000000000000000000000000000000000000000001001100100110110110011011010010010011001001010010001001100100110110110010010010011001001001001001101101100100100100100001000100100100111011001001001100100100100110010010010011011001001001001000010010011001001001101001100100100100001010010010010010011011011011001001001000100100100100001000000100100110110010010010011001001100100100000000110010010010001001001001101010",
"101010011011011010011011001001001100100000000000000000000000000000000000000000000000000000000000000000000000000000000000000000000000000000000000000000000000000000000000000000000000000000000000000000000000000000000000000000000000000000000000000000000000000000000000000000000000000000000000000000000000000000000000000000000000000000000000000000000000000000000000000000000000000000000000000000000000000001001101001001001001011011000100100100100110100100000010010001001001001001100100100100110110010010010010010010000000100110010011011001000100110110010010011011001001001100101100100100000010000000100100100110110110010010011011011011000100100110010000000100100100000010010010011011001001101101000000001001001100100100100100010010011001001001001101000000010010010010010010",
"101010010100100100000000000000101100100000000000000000000000000000000000000000000000000000000000000000000000000000000000000000000000000000000000000000000000000000000000000000000000000000000000000000000000000000000000000000000000000000000000000000000000000000000000000000000000000000000000000000000000000000000000000000000000000000000000000000000000000000000000000000000000000000000000000000000000000001001101001001001001011011000100100100100000100100110110011001001001001000000100100100000010010010010010010000001001001000010000100000000100010000010000000000000000001000000100100100110010010010010010001001000110010010001000000000100100101001101101100100100100110110010010000000000010010010010011011001001100100100100100010010010100000110110000100101001001010000010010",
"100101100100100100100100100110101100100000000000000000000000000000000000000000000000000000000000000000000000000000000000000000000000000000000000000000000000000000000000000000000000000000000000000000000000000000000000000000000000000000000000000000000000000000000000000000000000000000000000000000000000000000000000000000000000000000000000000000000000000000000000000000000000000000000000000000000000000001001100100100110110111011010011011001001001010001000001100100110110110010011011011001001001001101101100100100110100001001001100100100010011001001100100100100110010010010010011011001001001000010010011001001001001101101100100100100110011001000000010011011011001001001101100100100110100010010000100100110110010010010010001101101100100110000110010010010001001001101101010",
"101010011010011011011001001001001100100000000000000000000000000000000000000000000000000000000000000000000000000000000000000000000000000000000000000000000000000000000000000000000000000000000000000000000000000000000000000000000000000000000000000000000000000000000000000000000000000000000000000000000000000000000000000000000000000000000000000000000000000000000000000000000000000000000000000000000000000001001101011011001011011011000100100100100100100011001001000010001001001001100100100110100010110010010010010010001000110010010010011011001100100110010010011001001001001000100100100100001001001100100100100110110110010010011011011001001100100110110010010000000000001010010010011011001001001100100100100001001100100100100100010010011011001001001100100100010110010010011010",
"100010010010000000000000001000101100100000000000000000000000000000000000000000000000000000000000000000000000000000000000000000000000000000000000000000000000000000000000000000000000000000000000000000000000000000000000000000000000000000000000000000000000000000000000000000000000000000000000000000000000000000000000000000000000000000000000000000000000000000000000000000000000000000000000000000000000000011001101001011001001011011000000100100100000100100110010010011001001001001000100100000100000000010010010010010001011000000010010000000000000100000010010000000001001001000100100100100110010010010000000000000000000010010010000000001000100100001001101100100100100110110010010010000000000010010010011011001001101101100100100010010010000000000001001101100100000010000010010",
"101001101101101100100100110100101100100000000000000000000000000000000000000000000000000000000000000000000000000000000000000000000000000000000000000000000000000000000000000000000000000000000000000000000000000000000000000000000000000000000000000000000000000000000000000000000000000000000000000000000000000000000000000000000000000000000000000000000000000000000000000000000000000000000000000000000000000011001100100100110110111011010011010010010011001000110010001100100100010010010011011011001001001101001101100100100000001001001100100100110010011001101100100100110110010010010011001001000010010010010011011011001001101101100100100100110011011001001000000000100001001001000100100100100110010010000000100000010010010010011001001100100100110110110010010011001001001101101010",
"101001001000000000000001001011001100100000000000000000000000000000000000000000000000000000000000000000000000000000000000000000000000000000000000000000000000000000000000000000000000000000000000000000000000000000000000000000000000000000000000000000000000000000000000000000000000000000000000000000000000000000000000000000000000000000000000000000000000000000000000000000000000000000000000000000000000000001001101101100100110011011010010000010000100001011000001011100100100110010010000100100010010010000001000000100100110100000000000000000000010001000000100100000000000010010010010001001001001001100101100100100000000010000000010000010010010000110010010010011011001001001001100100001001001000001100100100100110010010010000001000010000000000000001100100010000010010001001010",
"100110010010010011011001001000101100100000000000000000000000000000000000000000000000000000000000000000000000000000000000000000000000000000000000000000000000000000000000000000000000000000000000000000000000000000000000000000000000000000000000000000000000000000000000000000000000000000000000000000000000000000000000000000000000000000000000000000000000000000000000000000000000000000000000000000000000000001001111011011011001011011001101101101100100110100100100100011011001001001101100100100100110110010010010011011001001010110010010011011001001100110010010011011001001101101101100110110110010000000000000100100110110010010011010011001001101100101100100000000100100110110010010011011011001101001011001001001001101101101100100110010011011001001001101101100100110010010010010",
"101000001000100100100100011100101100100000000000000000000000000000000000000000000111111111110000000000000000000000000000000000000000000000000000000000000000011111111111111111111111111111111111111111110000000000000000000000000000000000000000000000000000000000000000000000000000000000000000000000000000000000000000000000000000000000000000000000000000000000000000000000000000000000000000000000000000000001001100100100110110011011010010010010010001001010010001000100000100000000010000011001001001001001000000100100000100100000000000100100000010001000000100100100010010010000010001001001000000010010010011001001001001101101100100100010010010000010001001000100100001001000100100000100100110010000001000000000000010010010001001001000000100100110010010011010001001001100100010",
"100001001000100100100101001001001100100000000000000000000000000000000000000000000111111111111000000000000000000000000000000000000000000000000000000000000000111111111111111111111111111111111111111111110000000000000000000000000000000000000000000000000000000000000000000000000000000000000000000000000000000000000000000000000000000000000000000000000000000000000000000000000000000000000000000000000000000001001100110110110110011011010010010010010011001100010011000100100110110010010010010000110001000011101100100100100100100101101100100100110010011001100100100100110010010010010011001001001001101100101100100001001001101101100100100110010010010010001010011010011001001101101100100100100110010010010110100110110010010010001001001101000100100010010000010010001001001001001010",
"100110010010010011011000100100101100100000000000000000000000000000000000000001111100000000001111000000000000000000000000000000000000000000000000000000000001110000000000000000000000000000000000000000011000000000000000000000000000000000000000000000000000000000000000000000000000000000000000000000000000000000000000000000000000000000000000000000000000000000000000000000000000000000000000000000000000000001001111001011001001111011001101001101101100100100100100100100011001001001101100101100010010010010010010010011011001010010010010011011001001100110010010011011001001001101100100100110110010001000010000100110110010010010011011011001001100100100100110010010000100110010011011011011001001101101101001001101001001101100100100110010010011001001001100100100110110010010011010",
"101000100100100100100100101001001100100000000000000000000000000000000000000111111100011100001111111000000000000000000000000000000000000000000000000000000001100000000000000000000000000000000000000000001100000000000000000000000000000000000000000000000000000000000000000000000000000000000000000000000000000000000000000000000000011111111111111111111111111111111111111111111111000000000000000000000000000001001100110100110110011011010010110010010010010010010010011001011001010000010010010010001001100100100010000100100100101001000000100100000010010100100100100100100010010010010010001001000010010010010011001001001101101001100100100110010010010010011001001100100001001010100100100100100110010010010010000000000100010010001001001001000100100100110010010011001001001000101010",
"101000101100100100100101001001001100100000000000000000000000000000000000011110000000011100100000111110000000000000000000000000000000000000000000000000000001100000000000000000000000000000000000000000001100000000000000000000000000000000000000000000000000000000000000000000000000000000000000000000000000000000000000000000000000111111111111111111111111111111111111111111111111000000000000000000000000000001001100110110110110011011010010110110010010010010011000001000100000110010010010010010111001001100101101101100100100101101101100100100110010011001100100100100110010010010010011001001001001000010110000001001001101001001100100100110010010010010010001000000100011000101100100100100100110010010010010000000000100111011001011001001101100100100000011011001001001001000100010",
"101011010010010010011001100100101100100000000000000000000000000000000001111000000000010100000100000111000000000000000000000000000000000000000000000000000001100011111111111111111111111111111111111110001100000000000000000000000000000000000000000111111111111111111111111111111111111111111111100000000000000000000000000000000000110000000000000000000000000000000000000000000011000000000000000000000000000001001111011011001001111011001101001001001001101100101100100100110110000001101100100100000011010010010010010011011011010010010010011011001001001000010010011001001001001101101100100110110010001000100100110110110010010010010011011001001101100100100110110011011010101000010011011011001001001001100000011111000001000100100100110110110011001001001100100100110110110010011010",
"100100100110100100100101101001001100100000000000000000000000000000000011110000000000011100000000000111110000000000000000000000000000000000000000000000000001100011111111111111111111111111111111111110001100000000000000000000000000000000000000000111111111111111111111111111111111111111111111110000000000000000000000000000000000010000000000000000000000000000000000000000000011000000000000000000000000000001001101001011001001011011010010000010000010010010000001010011001001001100001000000010110100100100100010010010100100100110010010000000000000010010010010001001001000000000000100100010010010010010010010101001000100000000000100100000010010000010010001000000000100000000001000100000000010010010000011111111110000101000101000100010010010000000000000000001001001000010001010",
"100000100101100100100100001011001100100000000000000000000000000000000111100100000000011100000000001001110000000000000000000000000000000000000000000000000001100001000000000000000000000000000000001110001100000000000000000000000000000000000000011100000000000000000000000000000000000000000000111000000000000000000000000000000000010000000000000000000000000000000000000000000011000000000000000000000000000001001100100110110110111011010010110110010010010010010000000011001001000010110010010010001001100100100101101100100100100101101101100100110110010000101100100100110110010010010011011001001101001000010001001001001001101101100100100110110010010010010001101100100100010010100100100100100110010010000011111111111000101011011001011001001101100110010010011001001001001100100010",
"101011001001011010011000010100101100100000000000000000000000000000001110000100000000000000000000011000111000000000000000000000000000000000000000000000000001100001011111111111111111111111111111110110001100000000000000000000000000000000000000011000000000000000000000000000000000000000000110011000000000000000000000000000000000010001011111111111111111110000001111110000011011000000000000000000000000000001001111001001001001011011000100001001101001001100100100100100110110110000001001001101001001001011011010010010011011011010010010000001001001001001010000000000000001001000100100100000010010011000001010100010110010010010010011011001001000101100100100010000010001001001000001001001001001101000001111111111111000010100100100100010000010010000100100100100110010010010001010",
"100100110100100100100001001011001100100000000000000000000000000000011100000000000000000000000000000000001100000000000000000000000000000000000000000000000001100001011111110110000100001111101000010110001100000000000000000000000000000000000000011000000000000000000000000000000000000000011011011000000000000000000000000000000000010010000111111111111111110000001111110000001011000000000000000000000000000011001101011011001001111011010011001001000000000100000010010000001001001001001000000000110110110100110010010010001011000000011011011011001001001110010010011001001001101000101100100110110010010010010010100010000000010010011001011001001000100000010010010011010001101101001000001001001010110000111111111111111111000101100100110010110010010011000100100010010010010010001010",
"101001101001100101100110101100101100100000000000000000000000000000110000000000000000001000000000000001000110000000000000000000000000000000000000000000000001100001111111100111110111101101101011110110001100000000000000000000000000000000000000011000000000000000000000000000000000000000011011011000000000000000000000000000000000010010000111111111111111110000001111110000001011000000000000000000000000000011001100100100100110011011000100100110010010110011010010001011001001001000100100110100000000000100101101100100100100100100100100100100110110110000100101100100110110110010010011001001001101000001001001001001001101101101101100100110110110110010010010100100100110110110010100110100110110000111111111111111111111100011011011001011001001000101101011011001001001001100101010",
"101000001010011011001001001000101100100000000000000000000000000000110010000000000000001000000000000000000111000000000000000000000000000000000000000000000001100001111111100111100111101101101011111110001100000000000000000000000000000000000000011000000000000000000000000000000000000000001111011000000000000000000000000000000000010010000011111111111111110000001111110000001011000000000000000000000000000011001101111001000010011011000100100100001101001101101100100110100110110110011011001001001001001011001001010010010011011011001010100001001001001001101000100100000011001000100110001011000010010011000010000010110010010010011010011001001000101101101101000000100100001001001001001001001000011111111111111111111111111000100100100000010000110100110000100110110010010010000010",
"100110110100000010011001001001001100100000000000000000000000000001100000000000000000001000000000000000000011100000000000000000000000000000000000000000000001100001111111110111110111101101101011111110001100000000000000000000000000000000000000011000000000000000000000000000000000000000001110011000000000000000000000000000000000010010000010011111111111110000001111110000001011000000000000000000000000000011001101001011001001011011010011001001101101001100100100100100100000010010010011001000001000001100000010010011010001011001011011011011001001001001000010011011001001001100101100110110110010010010110010100010000010010010010011001001001000101000000010011011011001001101100101001001001000111111111111111111111111111100000110010010110110010000000100100100110010010010010010",
"101001001001101100010010010110101100100000000000000000000000000011000000000000000000011100000000000000001001100000000000000000000000000000000000000000000001100001111111110111001110011100001000011110001100000000000000000000000000000000000000011000000000000000000000000000000000000000000000011000000000000000000000000000000000010010000111100000111111110000001111110000001011000000000000000000000000000011001110100100110101111011010000011010110010010010010011011011001001001101100100100100110110110000100010100100100100100110100100100100110110110110110010001101001000010010010001001001001001101101001001001001001001101101100100100110110110010010010010000100100001010010110100110100100011111111111111111111111111111110001001001001001001001011001001001001001001100101101010",
"101001001010010010100100101001001100100000000000000000000000000110000000000000000000011100000000000000000000110000000000000000000000000000000000000000000001100001111111110110111111101111101111010110001100000000000000000000000000000000000000011111111111111111111111111111111111111111111111111000000000000000000000000000000000010011000111111111111111110000001111111100011011000000000000000000000000000001001101101001001010011011000100100100010000000100101100100100100010010010000000011001001001001001001001000000000000001001000000100100001001001001001101100100110010110010010010001001001010010010011000000010010010010000000100000000100000100001101101100100100110010010010001001001000111111111111111111111111111111111100010000010010000000000000100010010000000000000010010",
"100110010010010010010010001001001100100000000000000000000000001111000000000000000000011100000000000000000000110000000000000000000000000000000000000000000001100001111111110110111111101111101111010100001100000000000000000000000000000000000000011111111111111111111111111111111111111111111111111000000000000000000000000000000000010011100111111111111111111111110000001101111011000000000000000000000000000001001101001001001010011011010010000101101001000100100100100100100110110010011010011001000001000010000010010011001011011000010010011011001001001001001100000001001001000001101100100100110110010010010100100110010110010010011010011011001001001000010010011011001001001101001001001010000111111111111111111111111111111111110000110010010110110110100100100110110110010010010010",
"100000100100101100110010010010101100100000000000000000000000001100000000000000000000011100000000000000000000011000000000000000000000000000000000000000000001100001111111110110101101101111101011010100001100000000000000000000000000000000000000011000000000000000000000000000000000000000011000011000000000000000000000000000000000010011110011111111111111111111110000001100111011000000000000000000000000000001001110100100110100111011010001001001010010011011010011011011001001001101101100100100110010110010010010010000110100100110010010000100100010110110010011011001001001001000010100100100101001001101100111001001001101101101101100100100110110010110010010010100001000000000010100110101000111111111111111111111111111111111110000100101001001001001001011001001001001001101101010",
"101001010011000100100100101101001100100000000000000000000000011100110000000000000000011100000000000000000110001000000000000000000000000000000000000000000001100001111111110110000100001111101000010100001100000000000000000000000000000000000000011000111111111111111100000000000000000000011000011000000000000000000000000000000000010011110011111111111111111111110000001100011011000000000000000000000000000001001101001111001011011011000100100100110010100100100100000001000000010000000000001001001001001001101001101100000000000001001101100100100000010001100100100100110110110010010011011011001001000010010011001000110000100000101100100100110100010001101101100100100110010010010001001001000001111111111111111111111111111111111100001010010001000000000100010000001001000000010010",
"100001001000010010010001010000101100100000000000000000000000011000000000000000000000011100000000000000000000001100000000000000000000000000000000000000000001100001011111111111111111111111111111110100001100000000000000000000000000000000000000011000100000000000001101100000000000000000011000011000000000000000000000000000000000010011110011111111111111111111110000001110011011000000000000000000000000000001001111011010011011011011000000001000101101000100100100100100110110010010011011001001001001000010010010000010011001011001101000000011001001001000100100100100000000000000100100100100000010010010010000100110110011010010010010011001001001001000000010000000001001001001100000000010001100011111111111111111111111111111111110000101000100100100110100010110110010010010011010",
"100100100100100100000010011011001100100000000000000000000000011000000000000000000000011100000000000000000000001100000000000000000000000000000000000000000001100001111111110000000000000000000000001100001100000000000000000000000000000000000000011000100000000000001100000000000000000000011000011000000000000000000000000000000000010011110001111111111111110111110000001111111011000000000000000000000000000001001110100100110100111011011011001011000010010011011011001001001001001001000100100110100110110110010010010010100100100100010010100100000000110010010010011001001001001000101100100100100110001000100100001001001001101101100000010000100100000010110010011011000001001001100100100101001110001111111111111111111111111111111111100010100100001001001001001000000001101101101010",
"101001000000000100100100100101001100100000000000000000000000111000000000000000000000011100000000000000000000000110000000000000000000000000000000000000000001100001111111111111111111111111111111111100001100000000000000000000000000000000000000011000100000000000001100000000000000000000011000011000000000000000000000000000000000010011111001111111111111110111110000001111110011000000000000000000000000000001001100110100101010011011000100100110010000000000000000000001001001001000000100000001001001001001001001101101100100100100010010100100100110000000000100100100100010010010011010011001001001001000010010011001000000000000001000100100000110000000000000100100100110110010010010010001001111100111111111111111111111111111111111110000011011001000000000110010001000000000100010",
"101001001011010010010011000100101100100000000000000000000000110000000000000000000000011100000000000000000000100110000000000000000000000000000000000000000001100000000000000000000000000000000000000000001100000000000000000000000000000000000000011000100000000000001100000000000000000000011000011000000000000000000000000000000000010011001000011111110111110111110000001111110011000000000000000000000000000001001101001011011011011011010100100100001101100100100100100100110010110010011011011001001001001001001000100000011011001001001100011010001001001001100100100100100110110010000010000001001000010011010100100100110010010010010000100101001001001001001100100100100000000010010010010000001111100011111111111111111111111111111111111000011100100100100100110010010010010010000010",
"100100100100100110000001011011001100100000000000000000000000110000000000000000000000011100000000000000000000000110000000000000000000000000000000000000000001100000000000000011110000000000000000000000001100000000000000000000000000000000000000011000100000000000001100000000000000000000011000011000000000000000000000000000000000010011000000000000000111110000001111110000001011000000000000000000000000000001001101100100110100111011001011011001000010010011011001000000000000110000000100100100110110110110010010010011010000001000000100100001001000000010010010011001001001001100101100100100110110010000100100100110110000000100000010010011001001000110010010011011001001101101101100100101001111111000111111111111111111111111111111111110000100100001001001001000100110110010001010",
"100000100000101100100100100000001100100000000000000000000000110000000000000000000000011100000000000000000000000110000000000000000000000000000000000000000001100000111111000111111000111111000111111000001100000000000000000000000000000000000000011000100001111000001100000000000000000000011000011000000000000000000000000000000000010011110000000000001111110000001111110000001011000000000000000000000000000001001110110100100100111011010000100100010010010000000000011011001001001001100100000100000000001001000000000000000100110010010011100101000110110010010010000000000000000000010010001000001001001100010010001001001001000000000100100100110110110000000010000000000000000010000000000000001110111100011111111111111111111111111111111111000011010011000000100001001000000000100010",
"101001001001001001000100000110101100100000000000000000000001100000000000000000000000011100000000000000000000000011000000000000000000000000000000000000000001100000100011000110011000110011000110011000001100000000000000000000000000000000000000011000100000010000001100000000000000000000011000011000000000000000000000000000000000010011110000000000011111110000001111110000001011000000000000000000000000000001001101011011011111011011000100100100001101101100100110010000000000000010001101010011001001001001001100100100100100100010010000001010100100000000000100100100100110010010010000001001001001001000010000001000000010010010000000000100000001001001101100100100100110010010010001011011001110111111000111111111111111111111111111111111100000100100100100100100001001001100001010",
"100100100110100100001001001001001100100000000000000000000001100100000000000000000000011100000000000000000000010011000000000000000000000000000000000000000001100000100011000100011000101011000100011000001100000000000000000000000000000000000000011000100000000000001100000000000000000000011000011000000000000000000000000000000000010011110000000000111111110000001111110000001011000000000000000000000000000011001100000100100101111011000011001011000010010000001001000100110110010010010000100100100110100110010010010010011011001001101101100100001001001001000100000010001001001001101100100100100110110000101100100110110000000000010010011010001001000010010010011001001001101101100100100100100110011111100011111111111111111111111111111111110000101000001011011010010010010010011010",
"100100010110001010010000001001001100100000000000000000000001100000000000000000000000011100000000000000000000000011000000000000000000000000000000000000000001100000100011000100011000100011000100011000001100000000000000000000000000000000000000011000100000000000001100000000000000000000011000011000000000000000000000000000000000010011110000000001111111110000001111110000001011000000000000000000000000000011001100100100101100111011010000000000010010010011001001000101001001101100110010000100100000100010010010010000000001001010000000100001100010010010010011001001001001000000010010000001001001000000110000100000001001001101100000000000000000110110010010000000000001000000000100100100100011111111111000111111111111111111111111111111111000010010010010000000000000010010010010",
"101011011001101001100100110110101100100000000000000000000001100000000000000000000000011100000000000000000000000011000000000000000000000000000000000000000001100000111111000111111000111111000111111000001100000000000000000000000000000000000000111111111111111111111111000011111111111111111111111100000000000000000000000000000000010011111000000001111111110000001111110000001011000000000000000000000000000011001101011011011011011011000100100110101001101100100110010000001001000001101000110001011001001001100101100100100100110010010010011010100110010000000000100100100110010010010010011001001001001101010011011001000000010010001001100100100100001001101101100100110010010010011011011011000011110001111000011111111111111111111111111111111110000100100100101001001101101101101010",
"101000101000100100000001001001001100100000000000000000000001101111000000000000000000011110000000000000000001110011000000000000000000000000000000000000000001100000111111000111111000111111000111111000001100000000000000000000000000000000000001111111000000000000000111110111001100000000000000011111000000000000000000000000000000010011111000000000111111110000001111110000011011000000000000000000000000000011001110100100100100111011010010000011001000000000000000100100100110110011010010100100100000100000010010000010011001001001000000100101011001001001101100000100000001001000101100100100100110110010100000100110110100000010011010010011001011001000000000000001000001000000100100100100110011111001111111001111111111111111111111111111111111100001010000010010110010010010010010",
"100100011110010010010011001001001100100000000000000000000001101101000000000000000000011111111000000000000001010011000000000000000000000000000000000000000001100000000000000000000000000000000000000000001100000000000000000000000000000000000001110001000000000000000111110110000100000000000000011111000000000000000000000000000000010011111000000000111111111111110000001101111011000000000000000000000000000011001100100100101100111011010010011000110010010010011001001000000010011100000010000000100100100110010111011010000011001001000100100100101001000100010011011001011001001001100100100100100000010010010110100101000001001101100110010010001001000110110010011011001001001101100100100100100011101111111111000111111111111111111111111111111111110000010000010000000010010010010010",
"100110010100010000100010010110101100100000000000000000000001101111000000000000000000011111111111100000000001111011000000000000000000000000000000000000000001100000000000000000000000000000000000000000001100000000000000000000000000000000000001100011000000000000000001110110011100000000000000000111000000000000000000000000000000010011111000011000111111111111110000001000111011000000000000000000000000000001001101011011011011011011000100100100100000010010000011011011001001100100100100001011011001001001000000100101100100110110010010011001100110110010010010000000100110110010010011011011011001001101101001011011001001000000100100100100110100110000000000100100100110010010011001011011000011101111100111100001111111111111111111111111111111110000100101101101101101101101101010",
"101001001001101100100100101001001100100000000000000000000001100000000000000000000000000000001111111100000000000011000000000000000000000000000000000000000001100000001111000011111000111111000111111000001100000000000000000000000000000000000001100011000000000000000101110110001100000000000000010111000000000000000000000000000000010011111000111110011111111111110000001111011011000000000000000000000000000001001100001001010010011011000000100001001001001101100000100100000010010010011001100100100000000001001100100100000100100100000000000011001001001001101101100100100100010000000100100100100000010000001001100100100110010010011010010000001001001001001101100100100000010000010000100000000011101111101111111000111111111111111111111111111111111100001010010010000010000010001010",
"101001001001000010010011011000101100100000000000000000000001100000000000000000000000000000000000011100000000000011000000000000000000000000000000000000000001100000011011000110011000110011000110011000001100000000000000000000000000000000000001101111000000000000000111110110111100000000000000011111000000000000000000000000000000010011111000111111000111111111110000001110011011000000000000000000000000000001001111011101101001111011010011011010000001000000001100000000000010010000010000000000000000100100110000011011001011001001101100100100100001000000000000000001001001001001000000000000100010010010010010100100100000000000000000011001001001001000000010011011001001001100101100100100100011101110111111111100011111111111111111111111111111111100110010010010010010010010010010",
"100110110110100000000100100001001100100000000000000000000001100100000000000000000000000000000000000000000000000011000000000000000000000000000000000000000001100000100011000101011000101011000101011000001100000000000000000000000000000000000001100011000000000000000000110110011100000000000000000111000000000000000000000000000000010011111001111111000001111111110000001111100011000000000000000000000000000001001100100110110110011011000100100100110110110010010011001011001001100101100110011011001001010011010011000100100100100010010010000000100110110010010010010010010010110010010011011011001001101001001101011001001001001101100100100100100110110110110010000000000010010010011001011011001011101110011100111110000111111111111111111111111111100010001101001001101101101101101010",
"101001001001001100100100100101001100100000000000000000000001100000000000000000000000000000000000000000000000010011000000000000000000000000000000000000000001100000111011000101011000101011000101011000001100000000000000000000000000000000000001100011000000000000000000110110001100000000000000000011000000000000000000000000000000010011111011111111000000011111110000001111110011000000000000000000000000000001001101011001001011011011000100100100001001001100100100000100000010000010001000100100100110100000100000100100100110100010010010011001001001000000100100001001001001010000100000100000000010000010000100101000000010010010000000000100000000001001101100100100110010010010010000100100000011101110011110111111100111111111111111111111111111001110001000000000000000010010001010",
"101001001001001000000001000100101100100000000000000000000001100000000000000000000000000000000000000000000000000111000000000000000000000000000000000000000001100000111011000110011000110011000110011000001100000000000000000000000000000000000001100011000000000000000000110110001100000000000000000011000000000000000000000000000000010011111111111111100011011111110000001111111011000000000000000000000000000001001101001001001111011011010010010011001001001001100100100110110110010010001001000100100000100100100100110011001001001001101100100100001001001001000100101001001001001001101100100100110110010010010100100100100110010010010011001011001001001001000000000001001001001001100100100100100011101110011011111111110001111111111111111111111111001110110100010010010010010010011010",
"100110110110110110010001001001001100100000000000000000000000110000000000000000000000000000000000000000000000000110000000000000000000000000000000000000000001100000000111000111111000011111000011111000001100000000000000000000000000000000000001100011011111111110000000110110001101111111110000000011000000000000000000000000000000010011111111111111110011110000001111110000001011000000000000000000000000000001001110110100110100111011010000000000100110110010010011001001001001001101100110010011001001001010010010011010001001001001000000100100110110110110010010010010110010110110010010011011001001001100001011001001001001101100100100100110110100110110010010011001001001001001000011011011001000001110011011110111111100011111111111111111111000111110001001001001001101001101100010",
"101001001001001000100100100001001100100000000000000000000000110000000000000000000000000000000000000000000000000110000000000000000000000000000000000000000001100000000000000000000000000000000000000000001100000000000000000000000000000000000001100011000000000000000000110110001100000000000000000011000000000000000000000000000000010011111111111111110011110000001111110000001011000000000000000000000000000001001101011011011011011011001101101100101000000000000100000001001001000010001000100100100000100011010100100100110100110110010011011001001001001000000101001001001001000000000000000100000000010010100100100001001000010000000000000000000001001001001100100100110110110010010100100100100100001110011011111100111110001111111111111111100011111110001000000000000011001101001010",
"101001001001001001100100100110101100100000000000000000000000110000000000000000000000000000000000000000000000000110000000000000000000000000000000000000000001100000000000000000000000000000000000000000001100000000000000000000000000000000000001100011000000000000000000110110001100000000000000000011000000000000000000000000000000010011111100111111110011110000001111110000001011000000000000000000000000000001001101011011011011011011000000010010011001001101100100100110110110010011011001100100110100110000100100100100101100100000000010000000001001001001101101001001001001001100101100100100110110010001100100100110110110010010011011011001001011001001001100100100100001000000000100100100100100000110011011101100011110000111111111111111000111111110000100110110010010010010011010",
"100110110110110010010011001001001100100000000000000000000000111100000000000000000000000000000000000000000000001110000000000000000000000000000000000000000001100000011111000111111000011111000111110000001100000000000000000000000000000000000001100011000000000000000000110110001100000000000000000011000000000000000000000000000000010011111000111111111000110000001111110000001011000000000000000000000000000001001110100110110100111011010010010010010001000010000000000001000000000000100000010011001001001100100010011011011011001001001100100100110100000010000010010010100110010010010010000000001101001100000010000000001000000000000000000000100100000010010010011011001001001001001000011011011001000000011011100110111111100011111111111110011111111110010100001000000000000010010010",
"101000000100000000010000000001101100100000000000000000000000011000000000000000000000000000000000000000000000001100000000000000000000000000000000000000000001100000111111000111011000111111000111111000001100000000000000000000000000000000000001100011011111111111000000110110001101111111111100000011000000000000000000000000000000010011111101111111111000110000001111110000001011000000000000000000000000000001001101001011001011011011000001001101100100010010010011011001001001001001100100100100001001001001011010000000100100110110000010011000000100000010011100101001001000000010010010010001000010110010011011001001001001001001100100100110100110010000000000000100100110110110110100100100100110010000011011100111100111110001111111110000111111101110001001001001001101101100101010",
"101001001001001100100100100110101100100000000000000000000000011100110000000000000000000000000000000000000110001100000000000000000000000000000000000000000001100000100011000110011000111011000100011000001100000000000000000000000000000000000001100011000000000000000000110110001100000000000000000011000000000000000000000000000000010011111111111111111000010000001111110000001011000000000000000000000000000001001100110100100100011011001100010010000001001100101100100110110010110010010011001100110110110010100101100100100100100000010010011011001001001001001011001001001001001101101100100100100001001001100100100110110110010010011011011001001001001001001100100100100000001001000001010010000010001000001011100111110001111100011111100011111111011000110100110110010010010010000010",
"100110100110010010000100001101001100100000000000000000000000001110110000000000000000000000000000000000000110111000000000000000000000000000000000000000000001100000111011000110011000110011000111011000001100000000000000000000000000000000000001100011000000000000000000110110001100000000000000000011000000000000000000000000000000010011111111111111111000000001001111110000111011000000000000000000000000000001001101001100110101111011010010110010010001010000100100100100000010010010010000001001001011000000100010001111011001001101101100100100100001001000000000101100110010010010010000100100000011001101100100100100100000010010010001001001001001001010010010011011011001001001001001000011010001001000000011100111010111111111001110001111111111110000001000010000000010010010011010",
"100010100110010010010010011000001100100000000000000000000000001110000000000000000000000000000000000000000000111000000000000000000000000000000000000000000001100000110011000110011000110011000100011000001100000000000000000000000000000000000001100011001110000000000000110110001100000000000000000011000000000000000000000000000000010011111111011111111100000011110000001101111011000000000000000000000000000001001101001011001011011011010011001000100100110010010011011001001001001101101100100001001001001001011010011000000000100001100000100100100110110110110100100100110010010010010011011011000100110010011011001001001001101101100100100110110110110110000010010000100000000010100100100100101001100011000011100111011111001111100110011111110011110001001001001001001001001100100010",
"101001001001001100100100100100101100100000000000000000000000000111000000000000000000000000000000000000000000110000000000000000000000000000000000000000000001100000011111000001111000001111000111111000001100000000000000000000000000000000000001100011011111111111000000110110001101111111111100000011000000000000000000000000000000010011111111001111111100000011110000001100011011000000000000000000000000000001001110110111010101111011000101001101100100101100101100100100110010010010000000100100110110010010010100100100100100110010010010011011011001001001001011011001001001001101101100100100100100100000000100000000100010010010010010001001001011001001001101100100100100010011011001011010100100101001110001100111011111000111100000111111100111010000110110110110010010000001001010",
"100010000100000010010011010001001100100000000000000000000000000011100000000000000000000000000000000000000001100000000000000000000000000000000000000000000001100000000000000000000000000000000001111000001100000000000000000000000000000000000001100011000000000000000000110110001100000000000000000011000000000000000000000000000000010011111111111111111100000001110000001100011011000000000000000000000000000001001101001000110010011011010010010010010011001000101100100100100010010010011011011001001001001001000000010010011001001001101100100100100010010100100100100100100010010010010000000000110011001101100100100110100110010010010010001001001000100110010010010011001001000000100100100101010110010010011000000111011001111101111011111110011111010001001001001000000010110010010010",
"100000010110110010010011001001001100100000000000000000000000000011100000000000000000000000000000000000010011100000000000000000000000000000000000000000000001100000000000000000000000000000000001111000001100000000000000000000000000000000000001100011000000000000000000110110001100000000000000000011000000000000000000000000000000010011111111111111111110000001110000001110001011000000000000000000000000000001001101011001001010011011010010010010010010000010010011001001001001000001000100100001001001001101101010010010000001001001100100100100100110110110100100100100100010010010010011011001010011001000000000001001001000000000100100100000110100100000010010010011011001101100100100100101001000000000000000000111011001111100111011111101111011010001001001001001001001010010010010",
"101001001001001101100100100110101100100000000000000000000000000001110010000000000000000000000000000000000011000000000000000000000000000000000000000000000001100000000000000000000000000000000111111000001100000000000000000000000000000000000001101011111111111111111111110110111111111111111111111111000000000000000000000000000000010011111111111111111110001110110000001110001011000000000000000000000000000001001110010110110101011011001101101101100100100100110010010011001001001101100100100100110110110010011001100100100110110010010011011011001001001001011011011001001001001101101100100100100100110010010011011001001001101101100100100110000011001001001101100100100110010011011011010010001001101001101100000011011001111001111011110011100011010000110110010010001001001101101010",
"100000000000000010010001001001101100100000000000000000000000000000111000000000000000000000000000000001000110000000000000000000000000000000000000000000000001100000111111000111111000111111000111111000001100000000000000000000000000000000000001101111111111111111111111110110111111111111111111111011000000000000000000000000000000010001111111111111111110001111110000001111100011000000000000000000000000000001001100101001001100011011000000010010010011000001001101100100110010010010011010011001001001000000110110010000001001001001100100100100000010000000100100100100100010010010010010000010010010001001100100100110110110010010010011001001001000100100010010011010001001000000100100100100100110010010010001000011011001101111001011100111001001010000001001000001110110010010010010",
"100000110110110010011011001001001100100000000000000000000000000000011100000000000000000000000000000000011110000000000000000000000000000000000000000000000001100000100011000100011000100011000111011000001100000000000000000000000000000000000001100000000000000000000000110110000000000000000000000011000000000000000000000000000000010001111100000000000000000000001000000000000011000000000000000000000000000001001101001011001011011011010010010010010011011000010010000001000010010010010010011011001001001000100100010011011001001001101100100100100110110110100100100100110010010010010010010010011010001000100100100100100010010010010000001001000100100110010010010011001001001100100100100100100100010010010011010000011001101111001011011100100101010001001001001001000100010010010010",
"101001001001001100100100100110101100100000000000000000000000000000001100000100000000000000000000011000111100000000000000000000000000000000000000000000000001100000100011000100011000101011000110111000001100000000000000000000000000000000000001110111000000000000011110110110111100000000000011110011000000000000000000000000000000010000000000000000000000000000000000000000000011000000000000000000000000000001001110110100110100011011000101000101101100100110010010011001001001001101100100100100110110010010010001100100100100110010010010011011001001001001011011001001001001001100101100100101100100110110011011001001001001101101101100100100110010001001001101100100100110010010010010011010011001001101100100000000011001101111101111111100001001110000100110010010001001001100101010",
"100000001001001000100100100000101100100000000000000000000000000000000111000100000000001100000000011000111000000000000000000000000000000000000000000000000001100000100011000100011000100011000110011000001100000000000000000000000000000000000001100000000000000000000001110110000000000000000000000011000000000000000000000000000000110000000000000000000000000000000000000000000011000000000000000000000000000001001100001100100101111011000010000000000010000000000000100100000000000000000000100000100000010010000001100100000100000000010010000000000000001000000000000000000000001000100000011010000000000000000010000000000000010000000000100001000000001001000000000000100000000000000000010000000100000000100000100100011001101110111111110001001000010010100000010010000000000001101010",
"100110100110010010010011011001001100100000000000000000000000000000000011100000100000011100000000000011100000000000000000000000000000000000000000000000000001100000111111000111111000111111000111111000001100000000000000000000000000000000000001111111111111111111111111110111111111111111111111111111000000000000000000000000000000111111111111111111111111111111111111111111111111000000000000000000000000000001001101001011001011011011010010010010010010011001001100100100110110010010010011011011001001001100100100011010011011001001101100100100100110110100110100100100110010010010010011000010010011001001100100100100110110010010011011001001001100100110010010011011001001001101101100100100100100110010010010010010000011101110111101100110110100000001001001001101100100110010010010",
"100000000001000100100100100100101100100000000000000000000000000000000000111000000010010100100100000111000000000000000000000000000000000000000000000000000001100000111111000111111000111111000111111000001100000000000000000000000000000000000000111111111111111111111111100011111111111111111111111100000000000000000000000000000000000000000000000000000000000000000000000000000000000000000000000000000000000001001110100100110110011011001101001100101100100100010010010001001001001101000100100100000000010010010010000100100100110010010010010001001001001001000000001001001001001100000100100000100100110010010011001001001001001100100100100100010010001001001100100100100010010010010010010011011001001101000100101101000001101110110000101001001000010010100000010010001001001001001010",
"101011001001001000100100100100101100100000000000000000000000000000000000011111000000011100000000111100000000000000000000000000000000000000000000000000000001100000000000000000000000000000000000000000001100000000000000000000000000000000000000000000000000000000000000000000000000000000000000000000000000000000000000000000000000000000000000000000000000000000000000000000000000000000000000000000000000000001001100101001100101111011000100000000100000100000000010000000001001000000000000100100100010110010011001101100100100100010010010000001001001001010000011001001001000001000000000011001000000000010010010000001001001000000000100100100010010001001001000000100100010010010010010010000000001001001100000000010010001001100110001000010001000010110000010010010010001001100101010",
"101000100110010010010011011001001100100000000000000000000000000000000000001111111100011100001111111100000000000000000000000000000000000000000000000000000001100000000000000000000000000000000000000000001100000000000000000000000000000000000000000000000000000000000000000000000000000000000000000000000000000000000000000000000000000000000000000000000000000000000000000000000000000000000000000000000000000001001111011101011000111011010010010010010010011001001100100100110110010010010010011001001001001000100100010011011001001001101100100100100110110010010100100100110110010010010010000001001001001001101100100110110110010010011011001001001100100110010010011011001001001001101100100100100100110010010010010010010000001100110001100000010100101001001001001000100100100100000010",
"100100100100000000000000000000101100100000000000000000000000000000000000000001111100000000001111110000000000000000000000000000000000000000000000000000000001110000000000000000000000000000000000000000011100000000000000000000000000000000000000000000000000000000000000000000000000000000000000000000000000000000000000000000000000000000000000000000000000000000000000000000000000000000000000000000000000000001001100000100100110011011000000000000000000000000000000000000001000000000000000000000000001000000010010000000000000000000000000000100000000000000001100000000001001001100100100100100110000000000000000000000000000000000000000000000010000000001000000000000000000000000010010000010001001000000001000000101001100001110110001000100000001001000000000000000000000011010011010",
"101001001001001100100100100110101100100000000000000000000000000000000000000000000111111111111111000000000000000000000000000000000000000000000000000000000000111111111111111111111111111111111111111111110000000000000000000000000000000000000000000000000000000000000000000000000000000000000000000000000000000000000000000000000000000000000000000000000000000000000000000000000000000000000000000000000000000001001111111111111111111011000101001101101100100110110010011011001001001001101100100100110110110010100001100100100110110010010011011011001001001001001011001001001001001000010000001001000100110010010011011001001001101101100100100110010010011001001101100100100110110010010010011010011001001101101001011010010010000000110001010010010110100110110010010010010010000000100010",
"100000000000010010011001001001001100100000000000000000000000000000000000000000000111111111110000000000000000000000000000000000000000000000000000000000000000111111111111111111111111111111111111111111110000000000000000000000000000000000000000000000000000000000000000000000000000000000000000000000000000000000000000000000000000000000000000000000000000000000000000000000000000000000000000000000000000000001001000001101111111111011010010000010010010001001001000100100110110010010010010000001001001000011100000010010001001001001101100100100100110110010010000100100110010110010010011011001001001001000100100100100110110010010010011001001000100100000010010010001001001001001101101100100100110110010010110100100000000000000110000100100001000001001001001001001001101101100100010",
"100100100110010010010011011001001100100000000000000000000000000000000000000000000000000000000000000000000000000000000000000000000000000000000000000000000000000000000000000000000000000000000000000000000000000000000000000000000000000000000000000000000000000000000000000000000000000000000000000000000000000000000000000000000000000000000000000000000000000000000000000000000000000000000000000000000000000001001000000000000000000011000010110010010010010001001000000100100100000010010010011011001001001100110010010010000001001001000100100000100110000000000100100100000010000000100100100110100011001000000100100100100100010010010000001001000000100100010010010001001001001001000000000000100100010010010010101001001001000000110000100101001001001001001001001001000000010010011010",
"101001001001001100100100100110001100100000000000000000000000000000000000000000000000000000000000000000000000000000000000000000000000000000000000000000000000000000000000000000000000000000000000000000000000000000000000000000000000000000000000000000000000000000000000000000000000000000000000000000000000000000000000000000000000000000000000000000000000000000000000000000000000000000000000000000000000000000000000000000000000000011001101001001101100100100110010011011001001001101101100100100100010010000100101100100100100110010010011011011001001001001101011011011001001001101100100100000000010110010010011011001001001101101100100110110110010001001001101100100100110110110010010011011011001001001001001000000110110111000000011010010010100100110110110010010110010010000000010",
"100000000100000000000000000100101100100000000000000000000000000000000000111100011100000000000000000100000000000000000000000000000000000000000000001111000000000111000000000000000001110000000000011000000000000000000000000000000000000000001110000011000000000110000000000000111100000000000000000000000000000000000000000000000000000000001111000000000000000000000000000000000000000000000000000000000000000000011111111111111111110011010000000010010010001001000000100100000000000000000000000000100010010010011000010000000001001000000100100000000000010010010100100100100010010010010011011001001001001000100100100100110000010010010001001000000000001000000000000011001001001001001100100100100100100010010000100100001001000110000100101101001001000001001001001001001001101101101010",
"100100100110010010011011001001001100100000000000000000000000000000000000111100011100000000000000000100000000000000000000000000000000000000000000011111100000000111000000000000000001110000000000011000000000000000000000000000000000000000001111000011000000000110000000000001111110000000000000000000000000000000000000000000000000000000001111000000000000000000000000000000000000000000000000000000000000000000011111111111111111111011010010110010010010011001001001100100110110110110010010011001001001000010011010011011001001001001100100100100110110010010010100100100100010010010000000000001001000001100100100100100100110010010010011001001001100100110110010011011001001001000001000100000100110010000010010001001001001001001000100010010010011001001001001001001001000000000000010",
"101001001001000000000000101001001100100000000000000000000000000000000001100110001100000000000000000100000000000000000000000000000000000000000000011001100000000001000000000000000000110000000000011000000000000000000000000000000000000000001001100000000000000110000000000001100110000000000000000000000000000000000000000000000000000000001001100000000000000000000000000000000000000000000000000000000000000000011000000000000000011011001001001001000100100100010010010000001000001001000010010011001001100100100100100100100100110010010010011001001001001001001000011001001001001001100100100110110110010010010011011001001001101001100100100010100000000001000000000100100110110110010011011011000000000000000000000000000000000000000000000000000000000000000000010010110110010010011010",
"101001001001100101100100110110101100100000000000000000000000000000000001100000001100000000000000000110000000000000000000000000000000000000000000011000000000000001000000000000000000110000000000011000000000000000000000000000000000000000001001100000000000100110000000000001100000000100001110000000000000000000000000000000000000000000001001100011100010000000111000111100000000000000000000000000000000000011011000000000000000001011010110000000001000100100110010010001001001001001001100100100100010010000000000000000000000000000000000000000000010010010010010100100100000000000010000001001001001000000000100000000000000000000000000000000000001001001001000000100100001001001100100100100000000000000000000000000000000000000000000000000000000000000000000010000001001001100100010",
"100110110110010010010001001001001100100000000000000000000000000000000001100000001100001110000111100110010000000000000000000000000000000000000000011000000111000001000011110011001000110000111000111100011110011110000000000000000000000000001001100111000011100110011000000001100000011100011110001100100000000000000000000000000000000000001001100011100111011000111000111100000000000000000000000000000000000011011000000000000000001011010010110010010011011001001001100100110110110110010010100000100110010010011001011011001001001001101100100110110110110010000000100100100010010010010011001001001001101101100100100110110110010010011011001001001100100100010010010011011001001001000100100100011111000001100001100011000000000011110000011110000111100011001100001001001001000000100010",
"100000000000000010010001001001001100100000000000000000000000000000000001100000001100011001001100110110110000000000000000000000000000000000000000011000000000100001000110011011001000110000000100011000110011011101000000000000000000000000001001100011000100000110110000000001100000110010011001001100100000000000000000000000000000000000001001100100110110101101001101100000000000000000000000000000000000000011011000000000000000001011001001001101100010000001001000000100000000001000010011011011001001001100100100100100100100010010010010001001001001001001100110011001011001001101100100100110110010010010011011001001001001001100100100000000100100100100010010100100100110110110010011011011011111000001100001100011000000000011110000011110000111100011001100010010110110110010011010",
"101001001001100100100100100110101100100000000000000000000000000000000001100000001100011001001100000110100000000000000000000000000000000000000000011000000000100001000110000011001000110000000100011000110010011001000000000000000000000000001001100011000100000110110000000001100000110011011001001100100000000000000000000000000000000000001001100100110110101101001101100000000000000000000000000000000000000011011000000000000000001011010000001001001100100100110010011011001001001001100100100100100001000000100000100000100100000010010010001000001000000000010010001001000000000000000000000000000000000000000000000000001001001000100100100110010011001001001001100100100001000001000100100100011001100011110001110111000000000011011000001100001100110011001100000001001001000000100010",
"100000000000000010000000000001001100100000000000000000000000000000000001100000001100011001001100000111000000000000000000000000000000000000000000011000000111100001000110000011001000110000111100011000110010011000000000000000000000000000001001100011000011100111100000000001100000110011011001001101100000000000000000000000000000000000001001100111110110101101001100111100000000000000000000000000000000000011011000000001000000001011010010010010010010000000000000000000000000010000001100100100110110110010011011011011001001001001101100100100110110010010010000100100100110010010010011001001001001001100100100100100110110010010011011001001001000000000000010011011011001001001101100100100011001100011011001110111000000000011001100001100001100110011001100001001001001001101101010",
"100100100110010010011011001001001100100000000000000000000000000000000001100000001100011001001100000111100000000000000000000000000000000000000000011000001100100001000110000011001000110001101100011000110010011000000000000000000000000000001001100011000000110110110000000001100000110011011001000101100000000000000000000000000000000000001001100100000110101111001100000100000000000000000000000000000000000011011000000001000000001011001001001000010010011001001001100100100110110010010011011001000000000000000000100100100001001000000000000000001001001001101100100001001001000000000100000010100000010010000000000000000000000000000000001001000100100100010010000100100000010010010011011010011001100011011001111111000000000011001100001100001100000011011000010000010010010010011010",
"101001001000100100100100100110101100100000000000000000000000000000000001100110001100011001001100100110100000000000000000000000000000000000000000011001101100100001000110010011001000110001100100011010110010011000000000000000000000000000001001000011000000110110110000000001100110110010011110000001100000000000000000000000000000000000001001000100000110101111001100000100000000000000000000000000000000000011011000011111111100001011000001001100100100100100010010010001001001001001001010010010001001001101100100110100110110110010011011001001001001000000000001001011011001001101101100100110110110010010010011001001001001101101100100110110110010001001001101101100100100110010010000000000011011100110011001101111000000000011001100001100000110000011110000000110010010010010000010",
"101001001001001001100100100000001100100000000000000000000000000000000000111100001110001111000111100110010000000000000000000000000000000000000000001111000111110001110011110001111000111100111110001110011110011000000000000000000000000000001110000111100111100110011000000000111100011100011000000011000000000000000000000000000000000000001111000011100110001101111001111000000000000000000000000000000000000011011000011111111100001011010010010010001000000110010010010001001001001001001101100100100010010010010000011011001001001000000100110110110110110010010010000100100110010010010010011011001001001101100100100100100010010010000000001000000011001001001010010001001001001101101100100100011111100110001001101011000000000011001100001100000111100011110000001001001001001101101010",
"101110100100000010010011011001001100100000000000000000000000000000000000011100001110001110000111100100010000000000000000000000000000000000000000001111000111110001110011100001111000111000111110001110001110011000000000000000000000000000001110000011100011100010000000000000111100011100011000000011000000000000000000000000000000000000000000000011100000000000111000011000000000000000000000000000000000000011011000011111111000001011000000000100100001011001001000100100110110110010010010010000010010010010011000100100001001001101100100001001001001001000100100100000000000010010010000000000000000000000000100000100100000010011011010000100100100100100110110110100110010010010010011011010011111000111111001101011000000000011001100001100000001110011111000010010010010000010010010",
"101000100100100010010010000110101100100000000000000000000000000000000000000000000000000000000000000000000000000000000000000000000000000000000000000000000000000000000000000000000000000000000000000000000000000000000000000000000000000000000000000000000000000000000000000000000000000000011000001110000000000000000000000000000000000000000000000000000000000000000000000000000000000000000000000000000000000011011000001111111000001011000100100100100100100100001000000100000000000000010010010011001001001101100100100100110110010010010011001001001000001000100000001011001001001001101100100110110010010010011011001001001001101000100100100100100100100001000001001000100110100010010000001010011011000111111001100011000000000011001100001100000000110011011000000010010010010010010010",
"100011001001001101100100100100101100100000000000000000000000000000000000000000000000000000000000000000000000000000000000000000000000000000000000000000000000000000000000000000000000000000000000000000000000000000000000000000000000000000000000000000000000000000000000000000000000000000000000000000000000000000000000000000000000000000000000000000000000000000000000000000000000000000000000000000000000000011011000000111110000001011010010011011001001010110010010011011001001001101101101100100001001000000010011011001001011011010010000110110110110110110010011001100100000010010010011001001001001101100100100100100100110001000110010011011011011001001001001011011001001000101100100100100011001100110001001100011000000000011011100001100001100110011001100001001001101001101101010",
"101000100100000000010010001001001100100000000000000000000000000000000000000000000000000000000000000000000000000000000000000000000000000000000000000000000000000000000000000000000000000000000000000000000000000000000000000000000000000000000000000000000000000000000000000000000000000000000000000000000000000000000000000000000000000000000000000000000000000000000000000000000000000000000000000000000000000001011000000011100000001011000000000000100000001001001000100100100010010010010010000000110110110010010010010100101100101101100100001000001001001000000100100100000110010110010010010001001001001001100100100100100010010010011010000000100100100100110110100100010001001010010010000010011001110110001001100011000000000011111000001100001110110011001100010010000010010010011010",
"100100100110110010010010010000101100100000000000000000000000000000000000000000000000000000000000000000000000000000000000000000000000000000000000000000000000000000000000000000000000000000000000000000000000000000000000000000000000000000000000000000000000000000000000000000000000000000000000000000000000000000000000000000000000000000000000000000000000000000000000000000000000000000000000000000000000000001011000000011100000001011001101100100100100101001001000100100100010010010010010011011001001001001001001100100110000010011011011001000001001001001100100100001001001001001100100100100110110010010011011011001001101001010011001101100100100000000001000000100110110100010010000001010011000110110001001100011000000000011110000011110000111100011001100010010110010010010010010",
"101001001001001001000100100100101100100000000000000000000000000000000000000000000000000000000000000000000000000000000000000000000000000000000000000000000000000000000000000000000000000000000000000000000000000000000000000000000000000000000000000000000000000000000000000000000000000000000000000000000000000000000000000000000000000000000000000000000000000000000000000000000000000000000000000000000000000001011000000001000000001011010000000001001001010010010010011011001001101001101100100100001001000100100010011011000010010010000001000100100110110110010011011001001001000000100000000000000000000000000000001000001000001001100010010010011011001001001001001001001001000000100100100100000000000000000000000000000000000000000000000000000000000000000000001001001001101101101010",
"101011001001001000100100100001001100100000000000000000000000000000000000000000000000000000000000000000000000000000000000000000000000000000000000000000000000000000000000000000000000000000000000000000000000000000000000000000000000000000000000000000000000000000000000000000000000000000000000000000000000000000000000000000000000000000000000000000000000000000000000000000000000000000000000000000000000000001011000000000000000001011010010010010010010010010010000000000000000010000001000100100110110110010110010100100100100100100100110110011001001000000000000101000010010110010010011011001001001001100100100100110110110010010010010010010100100100100100110010010001001001001000000000010000000000000000000000000000000000000000000000000000000000000000000001001001000000000000010",
"100110110110110010010010011001001100100000000000000000000000000000000000000000000000000000000000000000000000000000000000000000000000000000000000000000000000000000000000000000000000000000000000000000000000000000000000000000000000000000000000000000000000000000000000000000000000000000000000000000000000000000000000000000000000000000000000000000000000000000000000000000000000000000000000000000000000000001011000000000000000001011000101100100100100101001101100100100110110110010010010011001001001001001001001100000010011000011001001100001001001001101100100100100010000001000100100100100100010010010010010001001001001101011001001101101100100100001000000100100110110110010011011011011000000000000000000000000000000000000000000000000000000000000000000010010110110010010011010",
"101000001001001000100000000110101100100000000000000000000000000000000000000000000000000000000000000000000000000000000000000000000000000000000000000000000000000000000000000000000000000000000000000000000000000000000000000000000000000000000000000000000000000000000000000000000000000000000000000000000000000000000000000000000000000000000000000000000000000000000000000000000000000000000000000000000000000011011000000000000000001011000100000000000010001000000000001001001001001001000000100100000001000000011000001000000000001000001001000100110110100010000000001000001101001000000000000000100000010000000000001001000000110010010000000010011001001001001000000000000001000000000100100100110110010011010110110110110110110010110010010010010011010110110110110000000000001100100010",
"101001001001001100100101101101001100100000000000000000000000000000000000000000000000000000000000000000000000000000000000000000000000000000000000000000000000000000000000000000000000000000000000000000000000000000000000000000000000000000000000000000000000000000000000000000000000000000000000000000000000000000000000000000000000000000000000000000000000000000000000000000000000000000000000000000000000000011011111111111111111111011010010010010010010110010010010010001001001001001101100100100100110110110110110100100100100100100110010011001001001010010011011001001000010110010010011011011001001101100100100100110100110001001110010010110100100100100110110011011001001001001101100001001001101101101101001001001001001001001001101101101100100101101001001001101001001100000100010",
"100110100110010010010010010000101100111111111111111111111111111111111111111111111111111111111111111111111111111111111111111111111111111111111111111111111111111111111111111111111111111111111111111111111111111111111111111111111111111111111111111111111111111111111111111111111111111111111111111111111111111111111111111111111111111111111111111111111111111111111111111111111111111111111111111111111111111111000000000000000000000011000000000101001001001001001100100100110110110010010010010001001001001001001001011000000000000001001000100000000001000000100100100010110001001000100100100100100010010010010011001001001001001001101100101001001001001001001000100100100010010010010001001011010010010010010000101001001000000010010110010010010000000010001000010010010010010010011010",
"101000010100000010010010010000101100111111111111111111100111111111111111111111111111111111111111111111111111111111111111111111111111111111111111111111111111111111111111111111111111111111111111111111111111111111111111111111111111111111111111111111111111111111111111111111111111111111111111111111111111111111111111111111111111111111111111111111111111111111111111111111111111111111111111111111111111111111000000000000000000000011000101000000001001001000000000100100100100000000010010010000001001001001001010010001011001001001001001100100110100101000100100100001001001001001100100100100100010010010010011001001001000000010000010001011001011001001001000100100100000010010010000100100100000010010010010110000010010010010010010010010010010010010010010010010100010010000000010",
"101001101001101101100101101101001100100000000000000000100110000000000000000000000000000000000000000000000000000000000000000000000000000000000000000000000000000000000000000001000000000000000000000000000000000000000000000000000000000000000000000000000000000000000000000000000000000000000000000000000000000000000000000000000000000000000000000000000000000000000000000000000000000000000000010000000000000001001101111111111111111011010010010010010010010010010010011011001001001101101101001100110110110100110110100100100100100110110010011011000010110010011011001001000110110010010011011001001001101100100100110110110110110010010010010100110100100100110010011011001001101101101100100100101100101101101001001001001001001001101101101001001101101101001001001001001101101100101010",
"100010000010000010010010010000101100100000000000000000100111111111111111111111111111111111111111111111111111111111111111111111111111111111111111111111111111111111111111111111111111111111111111111111111111111111111111111111111111111111111111111111111111111111111111111111111111111111111111111111111111111111111111111111111111111111111111111111111111111111111111111111111111111111111111110000000000000001000111011001111111001011000000000000000001000001000000000100000000110010010010000000000001001001001000000000000000001000000010010001000010010000100000000000100100000000010000000001001001000000000100001000001001001001100100100100000100001000000000100100000000010000010011011011001010000000000000000001000000000000000000000000000010000000000000010010000000010000000010",
"101000010100000010010010010001001100100000000000000000100111111110111111111111111111111111111111111111111111111111111111111111111111111111111111111111111111111111111111111111000000000000000000000000000000000000000000000000000000000000000000000000000000000000000000000000000000000000000000000000000000000000000000000000000000000000000000000000000000000000000000000000000000000000000000010000000000000001000000000000000000011011001101001001001001000101100101100100100110100010010010110010011001001000001010010011011011001001001101100100101101001100100100110101001001001001101101100100110010010010011001001001001000000010010000010011001011001001001001100100100110010010010000100100000000010010010110010110010110010010010010010010010010010010110010110010010010010010011010",
"101001101101100100101101101001001100100000000011000000100111001001010110010001010100100100110100100100100001001011010010010000101101010010010010100100100101101001011011010011000000000000000000000000000000000000000000000000000000000000000000000000000000000000000000000000000000000000000000000000000000000000000000000000000000000000000000000000000000000000000000000000000000000000000000010000011000000001000000000000000000011011010010010010010010010010010010010000001001001001101101000000010010110110110010000000100100000000000010000100001001001000000000001001001001000010010010000000000000000010010010000110100110110010010010000010100100100110000010011011001001001001101101100100100101101001011001001001001001000000010000001001001101101001010000001001000000000000001010",
"100010010010010010010010010100101100100000000111000000100111011001001101101101011011011011011011011011011011001100101101101101100101101101101101111011011010110110100100101011000000000000000000000000000000000000000000000000000000000000000000000000000000000000000000000000000000000000000000000000000000000000000000000000000000000000000000000000000000000000000000000000000000000000000000010000011100000001000000000000000001101011000010010010000000010000000000000100000000000000010010001001100101000001001101100100100100100110110010010011000000010010010001000000100110110010010010001001001001001000100100000000000001001101101100101100100100100000010010010000000001000000000010011011011001001001001000000100000000001101100100100000000100101001000100000100000101101101101010",
"101000000010000010000011001001001100100000001111000000100110110110110110110110110110100100100100110100110100110110111010010011011011010000110110000100100101011001010100011011000000000000000000000000000000000000000000000000000000000000000000000000000000000000000000000000000000000000000000000000000000000000000000000000000000000000000000000000000000000000000000000000000000000000000000010000011110000001000000000000000010001011001101001101001001101100101100100100100110110110010100110010010011001001010010010010011011001001001001100100100100110000100100100100001001001001101100100100100010010010010001001001001001001000010011010010010011001001001001100100110110110010110010000000000001010110010010110110010110110010010000010010011001010010010010010010010010010010001010",
"100101101101100100100101101100101100100000111111000000100111001011010010010010000101100100100100110101100101001011011010010011010111010010010010010100100101101001011011010011000000000000000000000000000000000000000000000000000000000000000000000000000000000000000000000000000000000000000000000000000000000000000000000000000000000000000000000000000000000000000000000000000000000000000000010000011111000001000000000000000110001011010000000010010010010010010010000001001001001001101100100100010010110110010010010010000001001001001000000100100001001100100100100011001001001000000000100100110010010010010000000000110110110010010010010000000000000000001000000000000000010000000101100100100110100000010010001101001001010010010001011001001001001010010010000010010010010011011010",
"101010010010010010011010110010101100100001111111000000100111001101101101101101001001011011011011011011011010100100101101101101100100101101101101001011011011110110100101101111000000000000000000000000000000000000000000000000000000000000000000000000000000000000000000000000000000000000000000000000000000000000000000000000000000000000000000000000000000000000000000000000000000000000000000010000011111110001000000000000000100001011010010110010010010010000000010010011001001001001000011001001001101001001001001101100100100100110110010011011011011010010010011001000100110110110010011001001001001001000100100100100000000001001101100101100100100100110110010010011001001001001001010010011001010010001100100001001001001101100101100100100110110101100101100101100101100101100100010",
"101000010000010010010001010001001100100011111111000000100110110010010010110010110110100110100100110100100101101010010010010011011011011011010110110100101101101001011010011011000000000000000000000000000000000000000000000000000000000000000000000000000000000000000000000000000000000000000000000000000000000000000000000000000000000000000000000000000000000000000000000000000000000000000000010000011111110001000000000000011001101011000101001001001101101100101100100100100110110110010000010010010001001001001010010010011001001000001000000100100100100001100100100100100000001000000000000000000010000100000001001001001001001000000000010010011011001001001001100100100100110110010100010010001000010000000000110010110010010000000000000000000000010010010010010010010000010000001010",
"100100100100100100100100101001101100100000111111000000100111010100010010011011001001000100100100100100111110010011010010010010100101011110010011110100100100101001011010010011000000000000000000000000000000000000000000000000000000000000000000000000000000000000000000000000000000000000000000000000000000000000000000000000000000000000000000000000000000000000000000000000000000000000000000010000011111000001000000000000110001001011010000010010010010010010010000010000001001001000000100100100110010110110110010010010000000001001001001100100100100100100100100010011011011001001101100100100110010010010010010000110100110010010010010010010000000000000100101000100100000010100110100100100110101100110011001001101000010010010011011011011001001001000010000010010010010010010011010",
"101011011010010010010010110110101100100000001111000000100111101101101101101101001001001011011011011011011000110100101101101101100100100100101101001011011010010110100101101111000000000000000000000000000000000000000000000000000000000000000000000000000000000000000000000000000000000000000000000000000000000000000000000000000000000000000000000000000000000000000000000000000000000000000000010000011110000001000000000000100000001011010010010010010010010010010010011011001001001001000000001001001000000000000001100100100100110110000010010011011011001010010001000000000000000010010000001001001000010000000110000000000000000000100101101100100100100100110000001011001001001001001001000000100110010010010001001001001001100101100100100000100100100100100100101101101101100100101010",
"101001001010010010010010000000001100100000000111000000100110101010010011010110110110100110100100100100101001001011011010010110001011001011010110110100100101101001011010010011000000000000000000000000000000000000000000000000000000000000000000000000000000000000000000000000000000000000000000000000000000000000000000000000000000000000000000000000000000000000000000000000000000000000000000010000011100000001000000000011000000001011001001001001101001001100100100100100110110000010011011011001001001001001001001000000001101001100110010010010000100001001000100100100100110110010010010011001001101101101100100001001001001001001001001001000001001001010010010000100101001100001001001010011011010010000000110000001001000000100100100100110100100010010100000000000000000000000100010",
"100100100100100100101101101011001100100000000011000000100110010100101100101001001001011001100101011011010110110100100110111011011110110100101001001011100010011010100101101111000000000000000000000000000000000000000000000000000000000000000000000000000000000000000000000000000000000000000000000000000000000000000000000000000000000000000000000000000000000000000000000000000000000000000000010000011000000001000000000100011001001011010100100100010010110010010101001001001001010100100100100110010010100000010010010011010010010001001001001101001010100010010010011011001001001001001100100100010010010010010010010010010010010010010100010110110100100100101101011011010010010100100100110100101101101101100001100100110110010011011011011011011001001000001011010010010010010010010010",
"101001000010010010010010010100101100100000000000000000100110010101101101101101001001011011011011011011010110110110101101101101110110110110101101101011011011110110101101101111000000000000000000000000000000000000000000000000000000000000000000000000000000000000000000000000000000000000000000000000000000000000000000000000000000000000000000000000000000000000000000000000000000000000000000010000000000000001000000001000000000001011010000000000000010000010010000000001001001000000000100100100000000000000000000000000000000000000000000000000000000000000000010000000000001000000000000100100000000010000010010000000000000000000000000000000000000000000000000000000000000010000000000001000010010000010010010000001000000000100100100100000000110100100100100100100100101001000001010",
"101011000001010010010010000100101100100000000000000000100111111111111111111111111111111111111111111111111111111111111111111111111111111111111111111111111111111111111111111111000000000000000000000000000000000000000000000000000000000000000000000000000000000000000000000000000000000000000000000000000000000000000000000000000000000000000000000000000000000000000000000000000000000000000000010000000000000001000000001000000000001011000000000000000000000000000000000000000000000000000000000000000000000000000000000000000000000000000000000000000000000000000000000000000000000000000000000000000000000000000000000000000000000000000000000000000000000000000000000000000000000000000001001011010010010010010011011001001001000100100100100100000110000100100100100100000101101100101010",
"100100100100101100101101001011001100100000000000000000100110000000000000000000000000000000000000000000000000000000000000000000000000000000000000000000000000000000000000000011000000000000000000000000000000000000000000000000000000000000000000000000000000000000000000000000000000000000000000000000000000000000000000000000000000011111111111111111111111111111111111111111111111111111111111111111111111111111111111111111111111111111111111111111111111111111111111111111111111111111111111111111111111111111111111111111111111111111111111111111111111111111111111111111111111111111111111111111111111111111111111111111111111111111111111111111111111111111111111111111111111111111111100010001001101101101100100100100110010110011011011001011001000011011011011011010010010010010010010",
"101000001000100010010010010100101100111111111111111111100111111111111111111111111111111111111111111111111111111111111111111111111111111111111111111111111111111111111111111111111111111111111111111111111111111111111111111111111111111111111111111111111111111111111111111111111111111111111111111111111111111111111111111111111111110000000000000000000011000000000000000000000000000000000000000000000000000000000000000000000000000000000000000000000000000000000000000000000000000000000000000000000000000000000000000000000000000000000000000000000000000000000000000000000000000000000000000000000000000000000000000000000000000001100000000000000000000000010000000000000000000000001101010010001000010010000000100100000100000000100100000000001000100100100100100101101101001000101010",
"101011011011010010010001001001001100000000000000000000000000000000000000000000000000000000000000000000000000000000000000000000000000000000000000000000000000000000000000000000000000000000000000000000000000000000000000000000000000000000000000000000000000000000000000000000000000000000000000000000000000000000000000000000000000010000000000000000000011000000000000000000000000000000000000000000000000000000000000000000000000000000000000000000000000000000000000000000000000000000000000000000000000000000000000000000000000000000000000000000000000000000000000000000000000000000000000000000000000000000000000000000000000000001100000000000000000000000010000000000000000000000001100100100110010010010010011011011001101001100101100100100100110101000100100100100000101001001101010",
"100100100100100100101001001001001100000000000000000000000000000000000000000000000000000000000000000000000000000000000000000000000000000000000000000000000000000000000000000000000000000000000000000000000000000000000000000000000000000000000000000000000000000000000000000000000000000000000000000000000000000000000000000000000000010000000000000000000011000000000000000000000000000000000000000000000000000000000000000000000000000000000000000000000000000000000000000000000000000000000000000000000000000000000000000000000000000000000000000000000000000000000000000000000000000000000000000000000000000000000000000000000000000001100011111111111111111000010001111111111111111110001101000000001001101100100100100100010010010010001001011001110111001011001011011010010010010010010010",
"100100100100100110010010010110101111111111111111111111111111111111111111111111111111111111111111111111111111111111111111111111111111111111111111111111111111111111111111111111111111111111111111111111111111111111111111111111111111111111111111111111111111111111111111111111111111111111111111111111111111111111111111111111111111110000000000000000000011000000000000000000000000000000000000000000000000000000000000000000000000000000000000000000000000000000000000000000000000000000000000000000000000000000000000000000000000000000000000000000000000000000000000000000000000000000000000000000000000000000000000000000000000000001100011111111111111111000010001111111111111111110001101001001001001000000100100100100100110010010011011011011010010100010000000000100000000000000001010",
"101011011011001001001001001011001111111111111111111111111111111111111111111111111111111111111111111111111111111111111111111111111111111111111111111111111111111111111111111111111111111111111111111111111111111111111111111111111111111111111111111111111111111111111111111111111111111111111111111111111111111111111111111111111111110000011111111111111011000000000000000000000000000000000000000000000000000000000000000000000000000000000000000000000000000000000000000000000000000000000000000000000000000000000000000000000000000000000000000000000000000000000000000000000000000000000000000000000000000000000000000000000000000001100010000000000000011000010001000000000000000010001100110110110010010010011011011001001001101100100100100110101101101100100110101101001100101001101010",
"100100100100100001001000011001100000000000000000000000000000000000000000000000000000000000000000000000000000000000000000000000000000000000000000000000000000000000000000000000000000000000000000000000000000000000000000000000000000000000000000000000000000000000000000000000000000000000000000000000000000000000000000000000000000010000010000000000011011000000000011000110001100000011000011100000110000011000000110000000000000000000000000000000000000000000000000000000000000000000000000000000000000000000000000000000000000000000000000000000000000000000000000000000000000000000000000000000000000000000000000000000000000000001100010000000000000011000010001000000000000000010001100001000000000000000000000000000000000000000000000000000000100000000001001010010010010010010001010",
"100100100100100110110110110110100100101101101010100100100100101010010110110110110010010011010010100110100100100100110110100100101001001001001001001101101100101100100100100110110110010010010011100101001001010010001001100100100101101010100100100100100110010110110110110100110110110010010010010010100110011011010110100101001011010000010000000000011011000000000011000110001100000011000011100000110000011000000110000000000000000000000000000000000000000000000000000000000000000000000000000000000000000000000000000000000000000000000000000000000000000000000000000000000000000000000000000000000000000000000000000000000000000001100010011111111111011000010001000111000011000010001101001001001001101101100100100100110110010011011011011011010010010011010000010010010010010010010010",
"101011001011000001101001001001001001000010010010001011011011001001001001001001001001101100101101001001001011011001001010010010010010110010110010110010010010010010011011001001001001001100100100000010100100100100100010010010010010010011001010011011011001001001001001001001001001001001101100101001101001100100100000010010010100010000010000000000011011000000000011000110001100000000000001100000000000011000000000000000000000000000000000000000000000000000000000000000000000000000000000000000000000000000000000000000000000000000000000000000000000000000000000000000000000000000000000000000000000000000000000000000000000000001100010011111111111011000010001000111100111000010001100010110100110010010011010011001001001101100100100100110101001101100100100101101001001101101101010",
"100100001001011001001001001001001001010010010100000000000000001001001001001001001001000100100101001001001001011011001001011001010100110000010100110010010010010010010000001001000001001100000100011010100100100100100110010010010010010001001010001001001001001001001001001001001001001000100100101101011001000100101001010010010100010000010000000000011011000000000011000110001100000000000001100000000000011000000000000000000000000000000000000000000000000000000000000000000000000000000000000000000000000000000000000000000000000000000000000000000000000000000000000000000000000000000000000000000000000000000000000000000000000001100010011111111111011000010001000111111111000010001100010000000010010010011000001001001001000000100000100000000000100100100100100100000000000000001010",
"100100100100100110100100110110100110101101001000100100100100100100110100110110110110010011010010100110100100100100100100100110101001001001001001001001101101101100100100110110110110110010011000100101011011011011001001001101101101100100100100100100100100110100100100100110110110110110010010110010110010011011010000101100101011010000010000000000011011000000000011000110011111000111000001100001110000111110001110000111100001111000000000000000000000000000000000000000000000000000000000000000000000000000000000000000000000000000000000000000000000000000000000000000000000000000000000000000000000000000000000000000000000000001100010000000000000011000010001000011111110000010001101001001001001101100100100100100110110010010011011011001010010010011010011011010010010010010010010",
"101001001000100000001001001001000000000000010001001011010010000011001001001001001000000000100101001001011000000000001000001000010010000010000000001010010010010010000000001001001001001000000000100100100100100100100000000010010000011001001010011001000001000101001000001001001001000000000000000001001000100100100000010010010100010000010000000000011011000000000011000110001100000011000001100000110000011000000110001100110011000000000000000000000000000000000000000000000000000000000000000000000000000000000000000000000000000000000000000000000000000000000000000000000000000000000000000000000000000000000000000000000000000001100010000000000000011000010001000001111100000010001100000010000010010010010000001001001001000100100100000000001000100100100100100001001001001100101010",
"101001001011011011011001001001001001001010010010110000010010011011001001001001001001101100100001001001001001001001011001001001001100100110010110100110010010010011011011001001001001000010110010010000000100100100100110110110010010010011001010011001011011010011011011011001001001001001101101001001001101100100100110010010010010010000010000000000011011000000000011000110001100000011000001100000110000011000000110001100110011000000000000000000000000000000000000000000000000000000000000000000000000000000000000000000000000000000000000000000000000000000000000000000000000000000000000000000000000000000000000000000000000000001100010000000000000011000010001000001111100000010001101100110110110010010010011011001001001001101100100110110011001101100100100100101001001000001100010",
"100110100100100100100100100100110010100001001001000100101100101100100100110110110010010010010010100100100110110100100100110110010011011001001001001001101101101100100100100110110110110001000000010001001011011001001001001001101101100100100100100100100100100100100100100110100110010010010010010010010010010011011001101101101100010000010000000000011011000000000011000110001100000011000001100000110000011000000110001111110001111000000000000000000000000000000000000000000000000000000000000000000000000000000000000000000000000000000000000000000000000000000000000000000000000000000000000000000000000000000000000000000000000001100010000000000000011000010001000011111110000010001101001001001001101101100100100110010010010010011011001000100110110011011001011010110010010010011010",
"101001010100100100100100000001010000010011001001001011010000100000000001001000010010000000000101000001001001000100100000010010010011000000000001001001000000100100100000000001000000001001001100100100100100101001001001000000010000010000010010000001000100100100100100000010000000010010010010000010010010000000001001010010010000010000010000000000011011000000000011000110001100000011000001100000110000011000000110001111110001111100000000000000000000000000000000000000000000000000000000000000000000000000000000000000000000000000000000000000000000000000000000000000000000000000000000000000000000000000000000000000000000000001100010000000000000011000010001000111101111000010001100010000001001100000100100100100010000000100000000000000100100000100100001000000000000000000010010",
"101001001001010011011011001001001001001010010110100100010010010011011011001001001101101100100101011000001001001011011011001001001100100100110110110110110010010011011011011001001001000100110010100100100100100100110110110010010011010011011011001001011011010011011011011001001001001101101101001001001101101100100110010010010011010000010011111110011011000000000011000110001101000011000001100000110000011010000110001100000000001100000000000000000000000000000000000000000000000000000000000000000000000000000000000000000000000000000000000000000000000000000000000000000000000000000000000000000000000000000000000000000000000001100010000000000000011000010001000111100111000010001100100110110110010010010011011001001001001101100100110010011011001100100100101101001101101101101010",
"100110110100100000100100100110110110100101101001001001101001101100100100110110010010010010010010100100100100110100100100110010010010001011001001001101101100101100100100100110110110010000000011010011001011001001001001001001100100100100100100100100100100100100100100100110100100110010010010110110010010010011001001001100100100110000010011001111011011000000000001111100000111000111100001111001111000001110001111000111100011111000000000000000000000000000000000000000000000000000000000000000000000000000000000000000000000000000000000000000000000000000000000000000000000000000000000000000000000000000000000000000000000000001100010000000000000001000010001000111000011000010001100010001001001101001100100100110010110010010001001001100100100110011001010010010010010010010011010",
"100000010100101100100100000000000000000001001001001001001000000100100100100000010010010010010011000100100100100100100100110010010010011001000001001001001100100100100100100100000000001001001000010000000000001001001001001000000000100100100010100100100000100100100100100100110100010010010010000010010010010010010001001000010000010000010010000111011011000000000001111000000111000111100001111001111000001110001111000111100011111000000000000000000000000000000000000000000000000000000000000000000000000000000000000000000000000000000000000000000000000000000000000000000000000000000000000000000000000000000000000000000000000001100010000000000000011000010001000000000000000010001100011001001001001000100100100100010010000010010001001100100100100000010000000010010010010010010010",
"101011001011010010010001001001001001000010010100100100110010010010011011001001001001101101101100011011001011011011011001001001101101100100100110110010010010010010011011011011001011000100100100101100100100100100110100110010010010010010011011001001001001010010011011011001001001001001001001001001001001101100100100110010010010010000010000000000011011000000000000000000000000000000000000000000000000000000000000000000000000000000000000000000000000000000000000000000000000000000000000000000000000000000000000000000000000000000000000000000000000000000000000000000000000000000000000000000000000000000000000000000000000000001100010000000000000001000010001000000000000000010001101100100110110010010011011001001001001001101100110110010011001001100101100101001001101101101101010",
"100100010100110010010010010100110110100101101100101000100000000000100100000010000010010010000000100000010010100000100001001001000000000101001001001001000000100100100100100100000100110110010010010010001000001100100100010010000100100101101100100100110110010010000000000000001000000000000010001000001010010000010001100101001100010000011111111111111011000000000000000000000000000000000000000000000000000000000000000000000000000000000000000000000000000000000000000000000000000000000000000000000000000000000000000000000000000000000000000000000000000000000000000000000000000000000000000000000000000000000000000000000000000001100011111111111111111000010001111111111111111110001100000000100000010000000000000001001010000100100001000010010001001000010011010010000010000000001010",
"100100110100101101100100100001001001001010011011001001001001101100100100110110010010010010011010100101101101100100100100110110010011011011011001001100101101101100100100100100110100110010010010010011010011001011011001001001001001010101100100101001001001101101100100110110100110110110110010110110010110010011011011011010000100010000011111111111111011000000000000000000000000000000000000000000000000000000000000000000000000000000000000000000000000000000000000000000000000000000000000000000000000000000000000000000000000000000000000000000000000000000000000000000000000000000000000000000000000000000000000000000000000000001100011111111111111111000010001111111111111111110001101011001001101101001100100100110110110011110001001101101100100110011010010010010010010010010010010",
"101001001000100010010010000001000001100100110100100000100010010010010001001001000000101100100100010010010010010001001001001001000100100100100110010010010010010010010011011001001001001001000100100100100100100100100000000010110010100001111000100100000000000010010001001001001001001001001001001000001001001100100100100000010011010000000000000000000011000000000000000000000000000000000000000000000000000000000000000000000000000000000000000000000000000000000000000000000000000000000000000000000000000000000000000000000000000000000000000000000000000000000000000000000000000000000000000000000000000000000000000000000000000001100000000000000000000000010000000000000000000000001101100100100010010010010001001001001000000100100000010010000001000100100100101101001001001101101010",
"101001001010010010010010010110110110100100101100110010110010010010000001001001001000100100100100011010010010010001001001001001100100100100100000010010010010010010001001001001001000000001001100000100100100100100100100100010110000100100100100100100100100110010011011001001001001001001001001001001001001101100100100100101101010010000000000000000000001000000000000000000000000000000000000000000000000000000000000000000000000000000000000000000000000000000000000000000000000000000000000000000000000000000000000000000000000000000000000000000000000000000000000000000000000000000000000000000000000000000000000000000000000000001100000000000000000000000010000000000000000000000001100000100100110010010010001001001001001100100110010010010011011001100000100011000001001101001101010",
"100100100100100100100100101001001001010010010011001001001001101100100100110110010010010010010010100101101101100100110100110110010011011011011001001101101101100100100100100100110110110110010010011010011001011011011011001001001001011011011001011011001001001001100100110110110110110010010110110110110110010010011011010010010010011111111111111111111111111111111111111111111111111111111111111111111111111111111111111111111111111111111111111111111111111111111111111111111111111111111111111111111111111111111111111111111111111111111111111111111111111111111111111111111111111111111111111111111111111111111111111111111111111111111111111111111111111111111111111111111111111111111101011001001001101100100100110110110010010011001001101100100100010010010010011010110010010010010010",
"101001001000000000100000010001001000100010100010001000000010010000000001001001000010000000000100000110100010010001001001001001000000100100100010010010010010001000101010001000101001001001001000000100000100100000100000100000001000100000010010101000001001001001000000101001001000001000001000001000001010000010010100100010010000011111111111111111111111111111111111111111111111111111111111111111111111111111111111111111111111111111111111111111111111111111111111111111111111111111111111111111111111111111111111111111111111111111111111111111111111111111111111111111111111111111111111111111111111111111111111111111111111111111111111111111111111111111111111111111111111111111111100000000000010010000001000001101100000000000100000000010100100001000100100100100000010000011001010",
"101001001010010011010010010110110100100100100100110100110110010010010011001001000101101101101100010011010010011001001001001001000100100100100110010010010010011011010011001001001001001001001101100100100100100100100100110110110100100100100010110100110110110110011011001001001001001001001101001001001001101001100100100100101011010110000000000000000000000000000000000000000000000000000000000000000000000000000000000000000000000000000000000000000000000000000000000000000000000000000000000000000000000000000000000000000000000000000000000000000000000000000000000000000000000000000000000000000000000000000000000000000000000000000000000000000000000000001101100000000000000000001100110100110110010010010001001001001101101100100010010010011011001001000100100001001001001101001010",
"100110100100100100100101101001001001010010010001001001001001101101100100100110010010010010011011100100100101100100100100110110010010011011001001001101100100100100100100100110100100110110010010010010011011001011001011011011001001001001001101001001011011001001100101100010010010010110110010010110110110010110101011010010010100010110000000000000000000000000000000000000000000000000000000000000000000000000000000000000000000000000000000000000000000000000000000000000000000000000000000000000000000000000000000000000000000000000000000000000000000000000000000000000000000000000000000000000000000000000000000000000000000000000000000000000000000000000001101100000000000000000101101011011001001001101100100100110010110010001001001000101100100100110110011010010010010010010010010",
"101001001000000000000000000000000000000000000000000000000000000000000000000000000000000000000000000000000000000000000000000000000000000000000000000000000000000000000000000000000000000000000000000000000000000000000000000000000000000000000000000000000000000000000000000000000000000000000000000000000000000000000000001101001001010110000000000000000000000000000000000000000000000000000000000000000000000000000000000000000000000000000000000000000000000000000000000000000000000000000000000000000000000000000000000000000000000000000000000000000000000000000000000000000000000000000000000000000000000000000000000000000000000000000000000000000000000000001101100000000000000000101100000000000000010000000001100010000010000011001001000000000100100000000100100100100000000001001010",
"101001001011111111111111111111111111111111111111111111111111111111111111111111111111111111111111111111111111111111111111111111111111111111111111111111111111111111111111111111111111111111111111111111111111111111111111111111111111111111111111111111111111111111111111111111111111111111111111111111111111111111111111110010001011010110000000000000000000000000000000000000000000000000000000000000000000000000000000000000000000000000000000000000000000000000000000000000000000000000000000000000000000000000000000000000000000000000000000000000000000000000000000000000000000000000000000000000000000000000000000000000000000000000000000000000000000000000001101100000000000000000101100100100100110010010011001011001001001100100100110010010011010001001001100101000001001001001001010",
"100100100011111111111111111111111111111111111111111111111111111111111111111111111111111111111111111111111111111111111111111111111111111111111111111111111111111111111111111111111111111111111111111111111111111111111111111111111111111111111111111111111111111111111111111111111111111111111111111111111111111111111111110000010100010110000000000000000000000000000000000000000000000000000000000000000000000000000000000000000000000000000000000000000000000000000000000000000000000000000000000000000000000000000000000000000000000000000000000000000000000000000000000000000000000000000000000000000000000000000000000000000000000000000000000000000000000000001101100000001100000000101101001010001001001100100100100010000011001000100001000000000100001000010011010011010010010110010010",
"101001001011000000000000000000100000000000000000000000000000000000000000000000000000000000000000000000000000000000000000000000000000000000000000000000000000000000000000000000000000000000000000000000000000000000000000000000000000000000000000000000000000000000000001000000000000000000000000100000000000000000000001101101001011010110000000000000000000000000000000000000000000000000000000000000000000000000000000000000000000000000000000000000000000000000000000000000000000000000000000000000000000000000000000000000000000000000000000000000000000000000000000000000000000000000000000000000000000000000000000000000000000000000000000000000000000000000001101100000001100000001101100010001001010010000110100110010010010011011001001101100100100110110110100100100100110010000000010",
"100000001011000000000000000000100000000000000000000000000000000000000000000000000000000000000000000000000000000000000000000000000000000000000000000000000000000000000000000000000000000000000000000000000000000000000000000000000000000000000000000000000000000000000001000000000000000000000000100000000000000000000001110010000100010110000000000000000000000000000000000000000000000000000000000000000000000000000000000000000000000000000000000000000000000000000000000000000000000000000000000000000000000000000000000000000000000000000000000000000000000000000000000000000000000000000000000000000000000000000000000000000000000000000000000000000000000000001101100000011110000001101101100100110110010010010011001101001100110000000000010010010000000000000100100001000001001001001010",
"100110110011000000000000000000100000000000000000000000000000000000000000000000000000000000000000000000000000000000000000000000000000000000000000000000000000000000000000000000000000000000000000000000000000000000000000000000000000000000000000000000000000000000000001000011111111111111110000100111111111111111110001111100000100010110000000000000000000000000000000000000000000000000000000000000000000000000000000000000000000000000000000000000000000000000000000000000000000000000000000000000000000000000000000000000000000000000000000000000000000000000000000000000000000000000000000000000000000000000000000000000000000000000000000000000000000000000001101100000111111000001101101010000001001000101100001001000000000101100110110010010010011001001001010011010011010010100011010",
"101001001011000011111111111110100000000000000000000000000000000000000000000000000000000000000000000000000000000000000000000000000000000000000000000000000000000000000000000000000000000000000000000000000000000000000000000000000000000000000000000000000000000000000001000010000000000000110000100100000000000000010001110000110011010110000000000000000000000000000000000000000000000000000000000000000000000000000000000000000000000000000000000000000000000000000000000000000000000000000000000000000000000000000000000000000000000000000000000000000000000000000000000000000000000000000000000000000000000000000000000000000000000000000000000000000000000000001101100000111111100001101100010011110010010010010110110010010001001001001001001101100100100100100100100100100100101100100010",
"101001000011000011111111111110100000000000000000000000000000000000000000000000000000000000000000000000000000000000000000000000000000000000000000000000000000000000000000000000000000000000000000000000000000000000000000000000000000000000000000000000000000000000000001000010000000000000110000100100000000000000010001110010000100010110000000000000000000000000000000000000000000000000000000000000000000000000000000000000000000000000000000000000000000000000000000000000000000000000000000000000000000000000000000000000000000000000000000000000000000000000000000000000000000000000000000000000000000000000000000000000000000000000000000000000000000000000001101100001111111100000101100000100100110010010010001001001000100110001000000010010010011000100001100101100110010010001001010",
"100110110011000011000000000110100000000011110010000000000001110001110000000000011000000000000000000000000000000000000000000000000000000000000000000000000000000000000000000000000000000000000000000000000000000000000000000000000000000000000000000000000000000000000001000010011111111110110000100100000000000000010001111101001100010110000000000000000000000000000000000000000000000000000000000000000000000000000000000000000000000000000000000000000000000000000000000000000000000000000000000000000000000000000000000000000000000000000000000000000000000000000000000000000000000000000000000000000000000000000000000000000000000000000000000000000000000000001101100001111111110000101101101101001101001101101001001101000100110010110110010010011011001011001011010010010010010011011010",
"101000001011000011000000000110100000000110011010000000000000110000010000000000111000000000000000000000000000000000000000000000000000000000000000000000000000000000000000000000000000000000000000000000000000000000000000000000000000000000000000000000000000000000000001000010011111111110110000100100001100011100010001110010110010010110000000000000000000000000000000000000000000000000000000000000000000000000000000000000000000000000000000000000000000000000000000000000000000000000000000000000000000000000000000000000000000000000000000000000000000000000000000000000000000000000000000000000000000000000000000000000000000000000000000000000000000000000001101100011111111110001101100010010010010010010010010010010011101001101101001001001100100100100100100100000000100100100100010",
"101001001011000011000000000110100000000010000011000001110000110000010000000000011000000000000000000000000000000000000000000000000000000000000000000000000000000000000000000000000000000000000000000000000000000000000000000000000000000000000000000000000000000000000001000010011111111110110000100100001110111100010001110000000011010110000000000000000000000000000000000000000000000000000000000000000000000000000000000000000000000000000000000000000000000000000000000000000000000000000000000000000000000000000000000000000000000000000000000000000000000000000000000000000000000000000000000000000000000000000000111111110000000000000000000000000000000000001101100000000000000001101100110000001010000010001001001100001010000010010000010000000100100100100000100100000000000100101010",
"100110110011000011000000000110100000000011000011110001110000110000010000000000011000000000000000000000000000000000000000000000000000000000000000000000000000000000000000000000000000000000000000000000000000000000000000000000000000000000000000000000000000000000000001000010000000000000110000100100001111111000010001111101001100010110000000000000000000000000000000000000000000000000000000000000000000000000000000000000000000000000000000000001111111111111111111111111111111111111111111110000000000000000000000000000000000000000000000000000000000000000000000000000000000000000000000000000000000000000000001111111111000000000000000000000000000000000001101100000000000000001101100001001001001101101101001001100110010110010010010010010011011011011011011011010010010010011011010",
"101001001011000011000000000110100000000011110010011011001000110000010000000000011000000000000000000000000000000000000000000000000000000000000000000000000000000000000000000000000000000000000000000000000000000000000000000000000000000000000000000000000000000000000001000010000000000000110000100100000111110000010001110010110011010110000000000000011111111111111111111111111111111111111111111111111111100000000000000000000000000000000000000111111111111111111111111111111111111111111111111000000000000000000000000000000000000000000000000000000000000000000000000000000000000000000000000000000000000000000001100000011000000000000000000000000000000000001101100000000000000001101100010010110010010010010010000001001101001101101101101001000100100100100100100010010000100100101010",
"101001001011000011000000000110100000000000010010011011111000110000010000000000011000000000000000000000000000000000000000000000000000000000000000000000000000000000000000000000000000000000000000000000000000000000000000000000000000000000000000000000000000000000000001000010000000000000110000100100000111110000010001111100000011010110000000000000111111111111111111111111111111111111111111111111111111100000000000000000000000000000000000000110000000000000000000000000000000000000000000011100000000000000000000000000000000000000000000111111111111111111111111111111111111100000000000000000000000000000000001101110011000000000000000000000000000000000001101100000000000000001101101100000000010000010010010010010010010000000110010000000000100100100100100100101001101000100101010",
"100110110011000011000000000110100000000000010010011011111000110000010000000000011000000000000000000000000000000000000000000000000000000000000000000000000000000000000000000000000000000000000000000000000000000000000000000000000000000000000000000000000000000000000001000010000000000000110000100100000111111000010001110101001000010110000000000000110000000000000000000000000000000000000000000000000001110000000000000000000000000000000000001100000000000000000000000000000000000000000000101100000000000000000000000000000000000000000000111111111111111111111111111111111111100000000000000000000000000000001111101111011111000000000000000000000000000000001101100000000000000001101101001101001101101101101100100010010010010010010010010010110011011011011011011010110010010011011010",
"101000100011000011000000000110100000000110010010011011000000110000010000000000001000000000000000000000000000000000000000000000000000000000000000000000000000000000000000000000000000000000000000000000000000000000000000000000000000000000000000000000000000000000000001000010000000000000110000100100011110111000010001110010110100010110000000000000110000000000000000000000000000000000000000000000011100110000000000000000000000000000000000111000000000000000000000000000000000000000000001001100000000000000000000000000000000000000000000110000000000000000000000000000000001100000000000000000000000000000011111101111011111100000000000000000000000000000001101100000000000000001101100010010110010010010010010000101100101101001100101101101000000000000000000100100000010010000100010",
"101001001011000011011111110110100000000011110010011001110000111000011000000000111100000000000000000000000000000000000000000000000000000000000000000000000000000000000000000000000000000000000000000000000000000000000000000000000000000000000000000000000000000000000001000010000000000000110000100100001100001100010001111100001011010110000000000000110000000000000000000000000000000000000000000000110010110000000000000000000000000000000001110000000000000000000000000000000000000000000110001100000000000000000000000000000000000000000000111111111111111111111111111111111111100000000000000000000000011111111000000000000011111111100000000000000000000000001101111111111111111111101100000010010010010010000010011010011000001100100100000000100100100100100100100101001101101100101010",
"100010101011000011010000010110100000000000000000000000000000000000000000000000000000000000000000000000000000000000000000000000000000000000000000000000000000000000000000000000000000000000000000000000000000000000000000000000000000000000000000000000000000000000000001000010000000000000110000100100000000000000010001111101101011010110000000000000110000000000000000000000000000000000000000000000110010110000000000000000000000000000000001100000000000000000000000000000000000000000000000001100000000000000000000000000000000000000000000111111111111111111111111111111111111100000000000000000000000111111111000000000000011111111100000000000110000000000001100000000000000000000001101101101101101101101101100100010010010010011011011010010010000000000001010010010001010010000001010",
"100100110011000011000000000110100000000000000000000000000000000000000000000000000000000000000000000000000000000000000000000000000000000000000000000000000000000000000000000000000000000000000000000000000000000000000000000000000000000000000000000000000000000000000001000010000000000000110000100100000000000000010001110010000100010110000000000000110000000000000000000000000000000011111111000000011000110000000000000000000000000000000011111111111111111111111111111111111111111111111100001100000000000000000000000000000000000000000000110000000000000000000000000000000001100000000000000000000000110000011111111111111111100001110000000001111000000000001100000000000000000000001100010010010010010010010000100100100101101100101100100101001011010011001000000000110010010010110010",
"101001001011000011111111111110100000000000000000000000000000000000000000000000000000000000000000000000000000000000000000000000000000000000000000000000000000000000000000000000000000000000000000000000000000000000000000000000000000000000000000000000000000000000000001000011111111111111110000100110000000000000010001111100011011010110000000000000110000000000000000000000000000001110000000111000000000110000000000000000000000000000000011000000000000000000000000000000000000000000001100001100000000000000000000000000000000000000000000110011000000000000000000000001100001100000000000000000000000110000011111111111111111100001110000000011001100000000001101111111111111111111001101000010010000000000010011011010011010000001000000100100100100100100100100100110100101001101001010",
"100000101011000011111111111110100000000000000000000000000000000000000000000000000000000000000000000000000000000000000000000000000000000000000000000000000000000000000000000000000000000000000000000000000000000000000000000000000000000000000000000000000000000000000001000011111111111111110000100111111111111111110001110100100010010110000000000000111111111111111111111111111111111110111110101111111111110000000000000000000000000000000011000000000000000000000000000000000000000000001100001100000000000000000000000000000000000000000000110011000111111111111110000011110001100000000000000000000000110000011111111111111111000001110000001111001100000000001101100111101011011011001101101101101001101101100100100010010001010011001011011000000100100100110010011011000010000010000010",
"100010110011000000000000000000100000000000000000000000000000000000000000000000000000000000000000000000000000000000000000000000000000000000000000000000000000000000000000000000000000000000000000000000000000000000000000000000000000000000000000000000000000000000000001000000000000000000000000100000000000000000000001110000100100010110000000000000111111111111111111111111111111111001111111001111111111110000000000000000000000000000000011000000000000000000000000000000000000000000001100001100000000000000000000000000000000000000000000110001000111111111111111000011110001100000000000000000000000110000000000000000000000000001110000001111000110000000001101100110001001001001001100001010110010000010000100100100100100101100100010000101011011010011010001000001000010010010010010",
"101001001011000000000000000000100000000000000000000000000000000000000000000000000000000000000000000000000000000000000000000000000000000000000000000000000000000000000000000000000000000000000000000000000000000000000000000000000000000000000000000000000000000000000001000000000000000000000000100000000000000000000001111101011011010110000000000000110000000000000000000000000001100111000001110111010000110000000000000000000000000000000011000011111111111111111111111111111111111000001100001100000000000000000000000000000000000000000000110000011111000000000111100001110001100000000000000000000000110000000000000000000000000001110000011001100010000000001101101100001011101111001100110010110110010010010011011010001010000100110100100100100100100000000100100100100101001101001010",
"100001100011111111111111111111111111111111111111111111111111111111111111111111111111111111111111111111111111111111111111111111111111111111111111111111111111111111111111111111111111111111111111111111111111111111111111111111111111111111111111111111111111111111111111111111111111111111111111111111111111111111111111110010100100010110000000000000110001111111111111110111100011001000000000001001110000110000000000000000000000000000000011000011111111111111111111111111111111111000001100001100000000000000000000000000000000000000000111111111111111111111111111111000000001100000000000000000000000110000000000000000000000000001110001100100110100000000001101110011100110110011001101001001001101101100100100001001001001011011001001011001000100100100100100010001010010010010010010",
"100010001011011111111111111111111111111111111111111111111111111111111111111111111111111111111111111111111111111111111111111111111111111111111111111111111111111111111111111111111111111111111111111111111111111111111111111111111111111111111111111111111111111111111111111111111111111111111111111111111111111111111111100000100100010110000000000000110001100000000111110100000110111001000000001101110000110000000000000000000000000000000011000011111111111111111011111111111111111000001100001100000000000000000000000000000000000000001111111111111111111111111111111000000001100000000000000000000000110001111111111111111111110001110001100010011100000000001101100001001001010011001101001000000010001000100100100100100100110110001000011011001011000001001011000001000010010010010010",
"101110101011010000000000000000000000000000000000000000000000000000000000000000000000000000000000000000000000000000000000000000000000000000000000000000000000000000000000000000000000000000000000000000000000000000000000000000000000000000000000000000000000000000000000000000000000000000000000000000010000000000000110101101011010010110000000000000110001000000000000110000000100110011000000000100110000110000000000000000000000000000000011000011111111111111111011111111111111111000001100001100000000000000000000000000000000000000011100000000000000000000001111110000000001100000000000000000000000110001111111111111111111110000110011000001011000000000001101101100111001001001001100010010110110010010010010010000000100100110100100110000110000001001001000000000001001101001001010",
"101001101011010000000000000000000000000000000000000000000000000000000000000000000000000000000000000000000000000000000000000000000000000000000000000000000000000000000000000000000000000000000000000000000000000000000000000000000000000000000000000000000000000000000000000000000000000000000000000000010000000000000010100010001000010110000000000000110001000000000010110000001100100110000000000010110000110000000000000000000000000000000011000011111111110001111011111111111111111000001100001100000000000000000000000000000000000000011000000000100000000000011111110001100001100000000000000000000000110000000000000000000000000001110110000010110000000000001101101010000110110011001100100101001101101100101000000001001001001001001001001101001100110100110100110110010010010010010010",
"101001001011010000000000000000000000000000000000000000000000000000000000000000000000000000000000000000000000000000000000000000000000000000000000000000000000000000000000000000000000000000000000000000000000000000000000000000000000000000000000000000000000000000000000000000000000000000000000000000010000000000000010101100100110010110000000000000110001000111100110110001011011101100000000000011011000110000000000000000000000000000000011000011111111100000111111111111111001111000001100001100000000000000000000000000000000000001100000000001100000000001111111110000000001100000000000000000000000110000000000000000000000000001101100000101100000000000001101101011010011011011001101101001000000010000010100100100100100110110010010011010010001001001001001001001001010000010000010",
"100110110011010000001100000000001110110011011100000000010000000000000110001000000000000000100110000000000000100000100000000000000000000000100000000000000000000000000000000000000000000000000000000000000000000000000000000000000000000000000000000000000000000000000000000000000000000000000000000000010000001000000010110010110100010110000000000000110001011111100110110000011011101000000000000001011000110000000000000000000000000000000011000011111111100101111111111101111111111000001100001100000000000000000000000000000000000011000000000011000000000011111111100000000001100000000000000000000000110000000000000000000000000000111000001101100000000000001101100101101101001101001101000110110010010010011010000100000100110100110010010010011001001001001001001001000101001101101010",
"101001001011010000001100000000010010110011010010000000011000000000000110001000000000000000100110000000000000100000100000000000000000000000100000000000000000000000000000000000000000000000000000000000000000000000000000000000000000000000000000000000000000000000000000000000000000000000000000000000010000011100000010111111001011010110000000000000110001000000000000110000011011001000000000000001011000110000000000000000000000000000000011000011111111001110011111111101111111111000001100001100000000000000000000000000000000000111000000000110000000000111111111000000000001100000000000000000000000110001111111111111111111110001110000010110000000000000001101111011010010110011001100100100001101101100100001001011001001001001101101101001100100100100100100110110110010010010010010",
"100000001011010000011100000000010010110011110000001100001100000000000110000000000000000000100110000000000000100000100000000000000000000000100000000000000000000000000000000000000000000000000000000000000000000000000000000000000000000000000000000000000000000000000000000000000000000000000000000000010000011110000010110100000000010110000000000000110001000001000000110000011011000000000000000001011000110000000000000000000000000000000011000011110111001110011111111001111111111000001100001100000000000000000000000000000000001110000000000000000000001111111111000000000001100000000000000000000000110001111111111111111111110001100000111110000000000000001101100111010010010011001101011011001000000000100000100100000000000010010010010010000100100000000100100000010010010000000010",
"100110110011010000001100000000011000011110010000001100000100000000011110011000101100000000100110011100101100100110111100011100111100011100111100000000000000000000000000000000000000000000000000000000000000000000000000000000000000000000000000000000000000000000000000000000000000000000000000000000010000011110000010100000110100010110000000000000110011010011100000110000011011000000000000000001011000110000000000000000000000000000000011000011110011011110111111011001111111111000001100001100000000000000000000000000000000011000000000111000000000011111111100000000000001100000000000000000000000110000000000000000000000000111000001101100000000000000001101100100101101101101001101000000010010010010011010000000000110110010000010010010011011001011001011001001001101101101101010",
"101001001011010000001100000000001100001100001100000000000010000000110110001000110110000000101110110110110110101100100110100110100110100110100100000000000000000000000000000000000000000000000000000000000000000000000000000000000000000000000000000000000000000000000000000000000000000000000000000000010000111111000010111101001011010110000000000000110011110111110110110000011011000000000000000001011000110000000000000000000000000000000011000010000000111110001111011010111111111000001100001100000000000000000000000000000000110000000000000000000000111111111000000001100001100000000000000000000000110000000000000000000000000110000010011000000000000000001101111010010010110011001100000100100100100101100001001001001001001001101101101100100100100000100100110000010010010010010010",
"101100100011010000001100000000000110001100000110000000000100000000110110001000100000000000101010110110110000111000100110111110100110100000100100000000000000000000000000000000000000000000000000000000000000000000000000000000000000000000000000000000000000000000000000000000000000000000000000000000010001111111100010110010000110010110000000000000110011000111110000110000011011000000000000000001011000110000000000000000000000000000000011000010000100111111011111110011000000001000001000001100000000000000000000000000000001111111111111111111111111111111110000000001110001100000000000000000000000110000000000000000000000001100000110110000000000000000001101101001011011001011001101101001001101100110100110000010010100010010010010010010100100100100100100110010110010010000101010",
"101001000011010000001100000000000010001100000010001100001100000000110110001000100000000000111110110110110000111100100110111100100110100000100100000000000000000000000000000000000000000000000000000000000000000000000000000000000000000000000000000000000000000000000000000000000000000000000000000000010001111111100010111101101100010110000000000000110011000011100000110000011001100000000000000011011000110000000000000000000000000000000011000011111111111111001111110111000111111000001100001100000000000000000000000000000011111111111111111111111110111111100000000010110001100000000000000000000000110001111111111111111100011000000101100000000000000000001101110100101101001011001100010100110010010011001001001000001001001000000100110011011001001001011011001001001001100010010010",
"101001001011010000001100001100010010001100110010001100011000000000110110001000100000000000111110110110110000111100100110100000100110100110100110000000000000000000000000000000000000000000000000000000000000000000000000000000000000000000000000000000000000000000000000000000000000000000000000000000010000001100000010111101001011010110000000000000110011000000000110110001001101100000000000000010111000110000000000000000000000000000000011000011111111111111101111100111001111111000001100001100000000000000000000000000000011000000000000000000000010111111100000000011110001100000000000000000000000110001111111111111111100110000011010000000000000000000001101110010010010110011001100010100110100100101001001001101001001101101100100100100001000100001001001001001001001010010010010",
"100100101011010000011110001100011100001100011100000000010000000000011110011100100000000000110100011100110000110110111100011100100110011100100110000000000000000000000000000000000000000000000000000000000000000000000000000000000000000000000000000000000000000000000000000000000000000000000000000000010000001100000010110010000100010110000000000000110001001111100110110000001100110000000000000100111000110000000000000000000000000000000011000011111111111111101111101111111111111000001100001100000000000000000000000000000011000000000000000000000010111110000000000001100001100000000000000000000000110000000000000000000011100000011100000000000000000000001101101011011001001011001101101001001001100110110110110010110010010010011010010110110110100100100100110110110110101100101010",
"101000010011010000000000000000000000000000000000000000000000000000000000000000000000000000000000000000000000000000000000000000000000000000000000000000000000000000000000000000000000000000000000000000000000000000000000000000000000000000000000000000000000000000000000000000000000000000000000000000010000000000000010111101000011010110000000000000110001000011000000110011000111011000000000001001111000110000000000000000000000000000000011000011111101111111100111011111011111111000001000001100000000000000000000000000000011000000000000000000001100111100000000000000000001100000000000000000000000110000000000000000000111000000011000000000000000000000001101110100100110101111001100010100100111011001001001001000000101000010010011011000001011001011001011001001001001010010010010",
"101000010011010000000000000000000000000000000000000000000000000000000000000000000000000000000000000000000000000000000000000000000000000000000000000000000000000000000000000000000000000000000000000000000000000000000000000000000000000000000000000000000000000000000000000000000000000000000000000000010000000000000010110100000010010110000000000000110001000000000000110011000111001000000000011001111000110000000000000000000000000000000011000011111111111111110111001111111111111000001100001100000000000000000000000000000111000000000000000000001100111100000000000000000001100000000000000000000000110000000000000000000110000001111000000000000000000000001101110010010011100111001100010000000000101001001001001101001101101001101100100010001000000000001001001001001001010010010010",
"100100101011010000000000000000000000000000000000000000000000000000000000000000000000000000000000000000000000000000000000000000000000000000000000000000000000000000000000000000000000000000000000000000000000000000000000000000000000000000000000000000000000000000000000000000000000000000000000000000010000000000000010100010110100010110000000000000110001111111111111110111100011000111000001110011011000110000000000000000000000000000000011000011111111111111110110011111111111111000001100001100000000000000000000000000000110000100000000000000001001111111111111111000000001100000000000000000000000110001111111111111001100000011110000000000000000000000001101101001010001001001001101101001001001100110010010110010010010011010010010110110100100110100100100110110110110000101101010",
"101011010011010000001110010000000000011000011000000000000000000000000000000000000000000000000011110011110001110000000000000000000000000000000000000000000110000000000011000110000110000000000000000001000011100000000110001000000000000000000001110000111000000000000010000111000000000111001110000000011111111111111110101101000011010110000000000000110001000000000000110000000000110001111110101111000000110000000000000000000000000000000011000011111111111111110000111111111111111000001100001100000000000000000000000000000110001100000000000000011011111111111111111111111111100000000000000000000000110000000000000000011011000111000000000000000000000000001101100100101100110111001100010110110110011001001001000010010010110010001101001001001001001001001001001001001000010010010010",
"101001001011010000010011010000000000001000001000000000000000000000000000000000000000000000000011011011011011011000000000000000000000000000000000000000001100000000000111001100000110000000000000000011000110010000000111011000000000000000000001001001100000000000000110001101100000001001011001000000010000000000000100110101001010010110000000000000110011111111111111110111111111111000011110001111000100110000000000000000000000000000000011000011111111111111111001111111111111111000001100001100000000000000000000000000000110010000000000000000011011111111111111011111111111100000000000000000000000110000000000000000011001101110010000000000000000000000001101110111100010010011001101110000100010011001001001101001001001100101001101011010001001001001001001001001001001001010010010",
"100100100011010000010010010000000000001000001000000000000000000000000000000000000000000000000011011011011011000000000000000000000000000000000000000000011000000000000111001000000110000000000000000011000110010000000111011000000000000000000001001001100000000000000111001101100010001001000011000000010000000000001100111100010100010110000000000000110011111111111111111111111111111110000111110011101100110000000000000000000000000000000011000011111111111111111101111111111111111000001100001100000000000000000000000000001110100000000000000000110111111111111111111000000000000000000000000000000000110000000000000000011001111110110000000000000000000000001101100100111101011111001101001001001001000100100110010000010010010010010010100111100110101100110100110110110010110001001010",
"101001001011010000011000011100011100001000001000000000000000000000000000000000000000000000000011011011011011000000000000000000000000000000000000000000011000000000001011011000001010000000000000000001000110010000000011111001110011011000000001001001000000000000000011001101100010001011000011000000010111111111111100110101001011010110000000000000110000000000000000000000000000000011111111000001110110010000000000000000000000000000000011000011111111111111111111111111111111111000001100001100000000000000000000000000001110100000000000000000100110000000000101111000000000000000000000000000000000110000000000000000110000111100110000000000000000000000001101100100100101100011001100010110100100100100101001000110110110000100001101101101001000010001001001001001001001010010010010",
"100100100011010000001110010010010010001000001000000000000000000000000000000000000000000000000011110011111011011000000000000000000000000000000000000000011110000000011011011110001010000000000000000001000011110011110010101000011011011011111000110001110000000000000011001111100000001011000110000000010101010010010100110010001100010110000000000000110000000000000000000000000000000000000000000000111011100000000000000000000000000000000011000011111111111111111111111111111111111000001100001100000000000000000000000000001100000111111111111100100111111111111001110000000000000000000000000000000000110001111111111110110011110000110000000000000000000000001101111011011011011001001101100000000010010011001001001101001001100100010011010010010001000001001001001001001000000100011010",
"101000001011010000000011010010011110001000001000000000000000000000000000000000000000000000000011000011110011011000000000000000000000000000000000000000011011000000011011011001011010000000000000000001000000010000000010101001111011011000000001001001001000000000000011001111100000001101100011000000010101101101110100111100110010010110000000000000110000000000000000000000000000000000001000000000111111110000000000000000000000000000000011000000000000000000000000000000000000000000001100001100000000000000000000000000001100001100000111111100100111111111110011000000000000000000000000000000000000110000000000000000111111110000110000000000000000000000001101100110100110100111001101001001001001100100100100010010010001010010010010101000000100100100100110110010110010010001100010",
"101000011011010000000011010010011110001000001000000000000000000000000000000000000000000000000011000011010011011000000000000000000000000000000000000000011001000000011111011001011111000000000000000001000000110000000110001011111001010000000001001001001000000000000010001101100010001101100001000000010101101011010100111100100100010110000000000000110000000000000000000000000000000000001000000000111110111000000000000000000000000000000011000000000000000000000000000000000000000000001100011100000000000000000000011111001100001000000000001100100110000000001111000000000000000000000000000000000000110000000000000001111100000000110000000000000000000000001101100100101100100111001100010010110000000100100000000010110011001001101000010001100100100000001000001001000100101001001010",
"100110100011010000010011010010010000001000001000000000000000000000000000000000000000000000000011000011011011011000000000000000000000000000000000000000011011000110000011011001000010000000000000000001000000100000000110001011011001110000000011001001001000000000000010001101100110001001111001000000010111010110110100110010001000010110000000000000110000000000000000000000000000000000011100000000011111011000000000000000000000000000000011000001100111011000110000010000000000000000001100011100000000000000000000111111111100001100011000001100100111111111111110000000000000000000000000000000000000110000000000000001111100000000110000000000000000000000001101111011011010011001001100010010010010010011011001101101000100001001001010010010010010010001001001001001000100100010011010",
"101001001011010000001110010010011110001110001100000000000000000000000000000000000000000000000011000011001001111000000000000000000000000000000000000000001110000110000011001110000010000000000000000011110011000000000110001001111000100000000001110001110000000000000111100111000000000111001110000000010100101101110100110110001011010110000000000000110000000000000000000000000000000000011100000000001111101100000000000000000000000000000011000001100111011000110000110000000000000000001100111000000000000000000001110001111100001100000100001100100111111111111100000000000000000000000000000000000000110000000000000001100000000000110000000000000000000000001101100110110000110111001101101001001000100100100110010010001000110110110001001101001100100100100100110110011010010010000010",
"101001001011010000000000000000000000000000000000000000000000000000000000000000000000000000000000000000000000000000000000000000000000000000000000000000000000001100000000000000000000000000000000000000000000000000000000000000000001100000000000000000000000000000000000000000000000000000000000000000010111010111010100110110110100010110000000000000110000000000000000000000000000000000000000000000001111110110000000000000000000000000000011000001100110011000100000010000000000000000001111111000000000000000000001000000111100001100111100101100100111000000000000000000000000000000000000000000000000110001111111111111111111110001110000000000000000000000001101110100101101101011001100000000001001100100100100010010011011001001001001000000100100100100000000000010000101101101101010",
"100100110011010000000000000000000000000000000000000000000000000000000000000000000000000000000000000000000000000000000000000000000000000000000000000000000000001000000000000000000000000000000000000000000000000000000000000000000001100000000000000000000000000000000000000000000000000000000000000000010101111110110100110001001010010110000000000000110000000000000000000000000000000000000000000000000011111011000000000000000000000000000011000000000000000000000000000000000000000000001111011000000000000000000001001110111100001100111100111100101110000000000000000000000000000000000000000000000000110001111111111111111111110001110000000000000000000000001101111011010010110011001100011010110010010011001011001101100101101001100110110010110011010011011001001001001010010010010010",
"101001001011010000000000000000000000000000000000000000000000000000000000000000000000000000000000000000000000000000000000000000000000000000000000000000000000000000000000000000000000000000000000000000000000000000000000000000000000000000000000000000000000000000000000000000000000000000000000000000010100101101010100111101001010010110000000000000111111111111111111111111111111111111111111111111111001111111000000000000000000000000000011111111111111111111111111111111111111111111111110011000000000000000000001001110111100001100000000001100101110000000000000000000000000000000000000000000000000110000000000000000000000000001110000000000000000000000001101100100000000010011001101101101000000000100000100010010000100100100000001001101000100100100100100110000010001010000010010",
"101001001011010000011110000000000000001110000000000000000000000000000000000000000000000000000011100001110011110000000000000000000000000000000000000000000000000000000000000000000000000000000000000001000011100000000110001000000000000000000001110000111000000000000111000111000000001111001110000000010111010110110100110010100100010110000000000000011111111111111111111111111111111111111111111111111100111110000000000000000000000000000011111111111111111111111111111111111111111111111110111000000000000000000001000000111100001111111111111100101100000000000000000000000000000000000000000000000000110000000000000000000000000001110000000000000000000000001101100100101101101011001101000001001101100100100100110010011011011011011011001001001101101100100100110010000001101101101010",
"100010110011010000010011000000000000001010000000000000000000000000000000000000000000000000000011010000100011011000000000000000000000000000000000000000000000000000000000000000000000000000000000000011000110010000000111011000000000000000000001001001100000000000001101101101100000001000011001000000010100101101010100111101001011010110000000000000000000000000000000000000000000000000000000000000000000111100000000000000000000000000000000100001100000000000000000000000000000000010000110110000000000000000000001001100111100000000000000000000110000000000000000000000000000000000000000000000000000110000000000000000000000000001110000000000000000000000001101111011010011010111001100010010110010010011011001001001100100100100100100110010010010010011011011001001001010010010010010",
"101001001011010000010011000000000000001000000000000000000000000000000000000000000000000000000011011000100011011000000000000000000000000000000000000000000000000000000000000000000000000000000000000011000110010000000111111000000000000000000001001001000000000000001101101101100110001100000001000000010111011111110100110000000000010110000000000000000000000000000000000000000000000000000000000000000000011100000000000000000000000000000000100001100000000000000000000000000000000010000110000000000000000000000001001100111100000000000000000001110000000000000000000000000000000000000000000000000000110000000000000000000000000001110000000000000000000000001101100100100101011111001101101001001000001000100001000001000100100100101000001001000000000000000000000010110110000000001010",
"101001001011010000010011010110011100011100011100000000000000000000000000000000000000000000000011011000100011011000000000000000000000000000000000000000000000000000000000000000000000000000000000000001000110010000000111111001110011011000000001001001000000000000001101101101100110001111000001000000010101010110110100110000110100010110000000000000000000000000000000000000000000000000000000000000000000000000000000000000000000000000000000110001100000000000000000000000000000000010000111000000000000000000000001100001111100000000000000000001100000000000000000000000000000000000000000000000000000110000000000000000000000000000110000000000000000000000001101100100101100001011001101000100001100100100100110110010011011010010011011001001101100101100100100110010000001101100101010",
"100110010011010000011110011010010010001000110000000000000000000000000000000000000000000000000011011000100011110000000000000000000000000000000000000000000000000000011111011111011111000000000000000001000011110011110110101000011011011011111001110001110000000000001110100111100000000001000010000000010100101001010100111101001011010110000000000000000000000000000000000000000000000000000000000000000000000000000000000000000000000000000000111111100000000000000000000000000000000011111110000000000000000000000001111111101100000000000000000011000000000000000000000000000000000000000000000000000000111111111111111111111111111111110000000000000000000000001101111011011010110011001100010010110000000011001001000010000000100000100100110010010010010011001001001001001000010010010010",
"100100101011010000010000010000011110001000011100000000000000000000000000000000000000000000000011011000100011110000000000000000000000000000000000000000000000000000000000000000000000000000000000000001000000010000000110101001111011011000000001001001001000000000001110100001100000000001000110000000010111010110110100110100000000010110000000000000000000000000000000000000000000000000000000000000000000000000000000000000000000000000000000011110000000000000000000000000000000000001111100000000000000000000000000111111000111111111111111111110000000000000000000000000000000000000000000000000000000011111111111111111111111111111100000000000000000000000001101100100100101101011001100100001001001001001001001101101100100100100100100010010010010010000001001000000100110110010010010",
"101011010011010000010000010000010000001000001110000000000000000000000000000000000000000000000011011000100011011000000000000000000000000000000000000000000000000000000000000000000000000000000000000001000000110000000110001011011001110000000001001001001000000000001100100001100110001001001100000000010100101011110100110010110100010110000000000000000000000000000000000000000000000000000000000000000000000000000000000000000000000000000000000000000000000000000000000000000000000000000000000000000000000000000000111111000111111111111111111110000000000000000000000000000000000000000000000000000000000000000000000000000000000000000000000000000000000000001101100110010011011011001101000100100110110110010010010010010010010010011011001101001100101100100110110110001001001101101010",
"100100000011010000010000010000010000001000000110000000000000000000000000000000000000000000000011110000100011011000000000000000000000000000000000000000000000000000000000000000000000000000000000000001000000100000000110001011011001010000000001001001001000000000001100100001000010001001011000000000010111010101010100111101001000010110000000000000000000000000000000000000000000000000000000000000000000000000000000000000000000000000000000000000000000000000000000000000000000000000000000000000000000000000000000000000000000000000000000000000000000000000000000000000000000000000000000000000000000000000000000000000000000000000000000000000000000000000001101111011010010110011001100010010000001001001010000000010000100000000000000000000010001010001000001000011001010000000010010",
"100100101011010000010000010000001110001000111100000000000000000000000000000000000000000000000011100001110011001000000000000000000000000000000000000000000000000000000000000000000000000000000000000011110011000000000110001001111000110000000001110000110000000000000111000110000000000111011111000000010100110110110100110011001011010110000000000000000000000000000000000000000000000000000000000000000000000000000000000000000000000000000000000000000000000000000000000000000000000000000000000000000000000000000000000000000000000000000000000000000000000000000000000000000000000000000000000000000000000000000000000000000000000000000000000000000000000000001101100101101101101101001100010011001001001101001001000101101100101100100100110010010011010011011011001000110010010010010010",
"101001000011010000000000000000000000000000000000000000000000000000000000000000000000000000000000000000000000000000000000000000000000000000000000000000000000000000000000000000000000000000000000000000000000000000000000000000000011100000000000000000000000000000000000000000000000000000000000000000010111101111010100111000100100110110000000000000000000000000000000000000000000000000000000000000000000000000000000000000000000000000000000000000000000000000000000000000000000000000000000000000000000000000000000000000000000000000000000000000000000000000000000000000000000000000000000000000000000000000000000000000000000000000000000000000000000000000001101111010010010010011001101100100100100110010110010010010010010010010011001001001001100100100100100100100001101101001101010",
"100000001011010000000000000000000000000000000000000000000000000000000000000000000000000000000000000000000000000000000000000000000000000000000000000000000000000000000000000000000000000000000000000000000000000000000000000000000000000000000000000000000000000000000000000000000000000000000000000000010101010111110100111100000100010110000000000000000000000000000000000000000000000000000000000000000000000000000000000000000000000000000000000000000000000000000000000000000000000000000000000000000000000000000000000000000000000000000000000000000000000000000000000000000000000000000000000000000000000000000000000000000000000000000000000000000000000000001101100100010010010011001100000100100110110010010010010010010010010010010001001001000100100100100100100011001101001000001010",
"100100101011010000000000000000000000000000000000000000000000000000000000000000000000000000000000000000000000000000000000000000000000000000000000000000000000000000000000000000000000000000000000000000000000000000000000000000000000000000000000000000000000000000000000000000000000000000000000000000010100101110110100110110011011010110000000000000111100001100000000011000000000000111100000000001110000000000000000000000000000000000000000000001110000000000000000011000000000000000000000000000000000000000000000000000000000000000001111110000011000110000010000000000000000000000000000000000000000111111000000000000000000000000000000011000000000000000001101100100101101101101001100011011001001001101001001101101001100101101100100110110110010010011001011011000110010110010011010",
"101011010011010000010011001100001100011000011000010000110000000000000000000000000000000000000011100001110011110000000000000000000000000000000000000000000000000000000000000000000000000000000000000001000011100000000110001000000000000000000001110000110000000000000111000111000000001111011110000000010111101001010100110010000010010110000000000000110110000000000000011000000000000011000000000001011000000000000000000000000000000000000000000110011000000000000000011000000000000000000000000000000000000000000000000000000000000000001111110000011000110000010000000000000000000000000000000000000000110100000000000000000000000000000000011000000000000000001101111011011011011011001101100000000100000010010000000000010010010010010001000001001100100100100100100100101001001000000010",
"100100101011010000010011001100000000001000000000010000000000000000000000000000000000000000000011010000100011011000000000000000000000000000000000000000000000000000000000000000000000000000000000000011000110010000000111011000000000000000000001001001100000000000001100101101100000001000000001000000010101010110110100111100100100010110000000000000110010000000000000011000000000000011000000000001000000000000000000000000000000000000000000000110011000000000000000011000000000000000000000000000000000000000000000000000000000000000001100000000011000000000010000000000000000000000000000000000000000110000000000000000000000000000000000011000000000000000001101101100100110110011001101100100100110110010010010011010010010010011011011011001001100100110100110011001001001001001101010",
"101000010011010000010011011110000000001000001000111000100000110001110000000000000000000000000011011000100011011000000000000000000000000000000000000000000000000000000000000000000000000000000000000011000110010000000111011001110011001000000001001001000000000000001101101101100010001100000011000000010111011111110100110010010010010110000000000000110010011100001110011001100000000011000101100011110001110000000000000000000000000000000000000110000011001100111100111110001110001111100000000000000000000000000000000000000000000000001100000000011000000000010000000000000000000000000000000000000000110000001110001111100111010000111000011000000000000000001101100100100101101111001100011011001001001001101101100101101101101101100100100110110011011011001001100110110010010010010010",
"101001010011010000010011011110001100001000011000111100110000111001111000000000000000000000000011011000100011011000000000000000000000000000000000000000000000000000000000000000000000000000000000000001000110010000000111111001111011011000000001001001000000000000001101101101100010001111000010000000010100101101010100110010010010010110000000000000110010011100011110011001100000000011000111100011110011111000000000000000000000000000000000000011100011001101111100111110001111001111110000000000000000000000000000000000000000000000001100000001111001110001111100000000000000000000000000000000000000110000001110001111100111111000111000111110000000000000001101100011011001001011001101010000001001001000000000100000010000010010000000100000000100000000001000100100000000000010010010",
"100100101011010000010011001100001100001000011000010000110001001001000000000000000000000000000011011000100011110000000000000000000000000000000000000000000000000000011111011111011111000000000000000001000011110011110110101000011011011011111001110001111000000000001110100111100000000001000110000000010111010110110100111101101100110110000000000000110010001100010000011011000000000011000110110001000011011000000000000000000000000000000000000001110011001101100000011000011001001011010000000000000000000000000000000000000000000000001111100110011000110000010000000000000000000000000000000000000000111100011001101110110111101000000100011000000000000000001101110010100110110111001100100100110110010010010011010010010010010010010011011011000101100100110010011001001001001100101010",
"101001010011010000010011001100001100001000011000010000110001111001110000000000000000000000000011011000100011110000000000000000000000000000000000000000000000000000000000000000000000000000000000000001000000010000000110001001111011011000000001001001001000000000001110100001100000000001000001000000010101101101010100110010010011010110000000000000110010001100011110011110000000000011000110110001000011011000000000000000000000000000000000000000111011001100111000011000011111001011010000000000000000000000000000000000000000000000001100000010011000110000010000000000000000000000000000000000000000110000011001101100110110101000000100011000000000000000001101101100100101001001001101010010000000001001101100101101101101101100101100100100011011010001001001010010010010010010010010",
"100000110011010000010011001100001100001000011000010000110001000000111000000000000000000000000011011000100011010000000000000000000000000000000000000000000000000000000000000000000000000000000000000001000000110000000110001011011001010000000001001001001000000000001100100001100110001001101001000000010111111110110100110000000010010110000000000000110010001100001110011110000000000011000110110001000011011000000000000000000000000000000000000000011001001100111100011000011111001011010000000000000000000000000000000000000000000000001100000010011000110000010000000000000000000000000000000000000000110000011001101100000110101000111100011000000000000000001101101000011011001011001101011011001001001001100100100001000000010000100100100100100000010001001001101000100010010010000010",
"100100101011010000011111001110001100001100011000010100110001100000011000000000000000000000000011110000110011011000000000000000000000000000000000000000000000000000000000000000000000000000000000000001100011100000000110001011111000110000000001011001111000000000001101100111000110001111011101000000010111010010110100111101001000010110000000000000110110001100000011011011000000000011000110110001000011011000000000000000000000000000000000000110011000111000000110011000011000001011010000000000000000000000000000000000000000000000001100000010011000110000010000000000000000000000000000000000000000110000011001101100000110101001000100011000000000000000001101110011010010110111001100100100100010010010010010010010010010010010011001011011100100100100110000000001001001001101101010",
"101011010011010000001110000110001110001110011100001100111000111001110000000000000000000000000011100001110011011000000000000000000000000000000000000000000000000000000000000000000000000000000000000011110011000000000110001001111000110000000001110000110000000000000111000110000010000111001110000000010101101101010100110010010011010110000000000000110110001110011111011011100000000011000100110001000011011000000000000000000000000000000000000111111000011000111110011110011110001011010000000000000000000000000000000000000000000000001100000010011000110000010100000000000000000000000000000000000000110000011001101100000110101001000100011010000000000000001101100100101100110011001100100100100110110010011011001001101101101101101100100001001000110100100010010010000010010010011010",
"100100101011010000000000000000000000000000000000000000000000000000000000000000000000000000000000000000000000000000000000000000000000000000000000000000000000000000000000000000000000000000000000000000000000000000000000000000000011100000000000000000000000000000000000000000000000000000000000000000010111010110110100110010100100010110000000000000111100001110011110011001100000000111100100110001000001110000000000000000000000000000000000000011110000110000111100001110001111001000110000000000000000000000000000000000000000000000001111110011111001111000011100000000000000000000000000000000000000110000001110001100000110001000111110001110000000000000001101100101101101001001001101011011001001001101100100100100010010010010100000100110000011001001001101000000010010010010100010",
"100000010011010000000000000000000000000000000000000000000000000000000000000000000000000000000000000000000000000000000000000000000000000000000000000000000000000000000000000000000000000000000000000000000000000000000000000000000000000000000000000000000000000000000000000000000000000000000000000000010101101111110100111101100010010110000000000000000000000000000000000000000000000000000000000000000000000000000000000000000000000000000000000000000001100000000000000000000000000000000000000000000000000000000000000000000000000000000111110001111000111000001100000000000000000000000000000000000000110000001010001100000100000000110000000110000000000000001101111010010010110011001100100001000000000010010000000000010010000010010011010010000110100101001001001100101101001101001010",
"101001010011010000000000000000000000000000000000000000000000000000000000000000000000000000000000000000000000000000000000000000000000000000000000000000000000000000000000000000000000000000000000000000000000000000000000000000000000000000000000000000000000000000000000000000000000000000000000000000010100101001010100111101000010010110000000000000000000000000000000000000000000000000000000000000000000000000000000000000000000000000000000000000000001100000000000000000000000000000000000000000000000000000000000000000000000000000000000000000000000000000000000000000000000000000000000000000000000000000000000000000000000000000000000000000000000000000001101100010110011010011001101100110100110010010011011001001001001101100100100001001001000000110110010010010010010000010011010",
"100000101011010000011110000000001100000000010000000000000000000000000000000000000000000000000011110011110001110000000000000000000000000000000000000000001110000000000110001110001110000000000000000001000011100000000110001000000000000000000001110000110000000000000010000111000000000011011111000000010110010110110100110010100100010110000000000000000000000000000000000000000000000000000000000000000000000000000000000000000000000000000000000000000000000000000000000000000000000000000000000000000000000000000000000000000000000000000000000000000000000000000000000000000000000000000000000000000000000000000000000000000000000000000000000000000000000000001101100101101101101011001100000001000000001000000100000100000000000000000100100100001001101001001000010000010010010010000010",
"101110010011010000010011000000000000000000010000000000000000000000000000000000000000000000000011011011011011011000000000000000000000000000000000000000011011000000001110011001011001000000000000000011000110010000000111011000000000000000000001001001100000000000000110001101100000000111000001000000010101101011010100111101011011010110000000000000000000000000000000000000000000000000000000000000000000000000000000000000000000000000000000000000000000000000000000000000000000000000000000000000000000000000000000000000000000000000000000000000000000000000000000000000000000000000000000000000000000000000000000000000000000000000000000000000000000000000001101111011010010110011001100011011011001101101100100100100110010010011001011010010110010010011000101101001001101101001101010",
"101001001011010000010011001100001100101100111100000000000000000000000000000000000000000000000011011011011011000000000000000000000000000000000000000000011011000000001110011001000001000000000000000001000110010000000111111001110011011000000001001011000000000000000010001101100110000111000011000000010111010110110100110000100100110110000000000000000000000000000000000000000000000000000000000000000000000000000000000000000000000000000000000000000000000000000000000000000000000000000000000000000000000000000000000000000000000000000000000000000000000000000000000000000000000000000000000000000000000000000000000000000000000000000000000000000000000000001101100100101001001111001100100100100100010010011011001001001000100100100100100001001000000100110100010010010010010010010010",
"101001101011010000010011001110011100111100111100000000000000000000000000000000000000000000000011011011011011000000000000000000000000000000000000000000011011000000000110011001000011000000000000000001000110110000000111111001111011011000000001011001000000000000000010001111100110001111000011000000010111010110110100110000000100110110000000000000000000000000000000000000000000000000000000000000000000000000000000000000000000000000000000000000000000000000000000000000000000000000000000000000000000000000000000000000000000000000000000000000000000000000000000000000000000000000000000000000000000000000000000000000000000000000000000000000000000000000001101100100101101001011001100100100100110010010000000001001000000000000100100100101001101101100001011010010010010010010010010",
"100110010011010000011110000010001100110110010000000000000000000000000000000000000000000000000011110011110011111000000000000000000000000000000000000000001110000000000110001111000110000000000000000001000011100011110110101000011011011011111001110001111000000000000010000111000000011011000010000000010101101011010100111111011011010110000000000000000000000000000000000000000000000000000000000000000000000000000000000000000000000000000000000000000000000000000000000000000000000000000000000000000000000000000000000000000000000000000000000000000000000000000000000000000000000000000000000000000000000000000000000000000000000000000000000000000000000000001101111011010010010011001101011011011001001101100100100110010010010011001011011010010010010011001001101101001101001101101010",
"100000100011010000010000001110001100110110010000000000000000000000000000000000000000000000000011000011110011011000000000000000000000000000000000000000011001000000000110000001000100000000000000000001000110010000000110001001111011011000000001001001001000000000000010001101100000011111000100000000010111010110110100110000100100010110000000000000000000000000000000000000000000000000000000000000000000000000000000000000000000000000000000000000000000000000000000000000000000000000000000000000000000000000000000000000000000000000000000000000000000000000000000000000000000000000000000000000000000000000000000000000000000000000000000000000000000000000001101100100100101101001001101000000000000000010000000001001000000100100100100100010010010010000100110010010010010010010001010",
"101001001011010000010000010010001100110110010000000000000000000000000000000000000000000000000011000011010011011000000000000000000000000000000000000000011011000100000110000011001100000000000000000001000110110000000110001011011001110000000001001001001000000000000011001101100110011111100100000000010101101011010100110100100100010110000000000000000000000000000000000000000000000000000000000000000000000000000000000000000000000000000000000000000000000000000000000000000000000000000000000000000000000000000000000000000000000000000000000000000000000000000000000000000000000000000000000000000000000000000000000000000000000000000000000000000000000000001101101011011010011011001100010110100110010010010011001001001000100100000000100100101100101001000001010010010010010010011010",
"101000000011010000010000010010001100110110011100000000000000000000000000000000000000000000000011000011011011111000000000000000000000000000000000000000011111000110000110000010001000000000000000000011100111110000000110001011011001110000000001011001011000000000000011001111100010000011000100000000010101101011110100111101001011010110000000000000000000000000000000000000000000000000000000000000000000000000000000000000000000000000000000000000000000000000000000000000000000000000000000000000000000000000000000000000000000000000000000000000000000000000000000000000000000000000000000000000000000000000000000000000000000000000000000000000000000000000001101101000111010110111001101001000001001001001100100100100010010010011011001011000010000110010010001001001001101101100100010",
"100110110011010000010000001111011110110110001100000000000000000000000000000000000000000000000010000011011001111000000000000000000000000000000000000000001110000110001111001100011111000000000000000011110011100000000110001001111000110000000001110000110000000000000111100111000000000011000100000000010111010110110100110100000000010110000000000000000000000000000000000000000000000000000000000000000000000000000000000000000000000000000000000000000000000000000000000000000000000000000000000000000000000000000000000000000000000000000000000000000000000000000000000000000000000000000000000000000000000000000000000000000000000000000000000000000000000000001101100100100101101111001101001001001001001000100100100100000010010000000000000011010011000010010100010010010010000000101010",
"101001001011010000000000000000000000000000000000000000000000000000000000000000000000000000000000000000000000000000000000000000000000000000000000000000000000001100000000000000000000000000000000000000000000000000000000000000000011100000000000000000000000000000000000000000000000000000000000000000010101101011010100110000110100010110000000000000000000000000000000000000000000000000000000000000000000000000000000000000000000000000000000000000000000000000000000000000000000000000000000000000000000000000000000000000000000000000000000000000000000000000000000000000000000000000000000000000000000000000000000000000000000000000000000000000000000000000001101111011011011001011001100010110110110010010010011001001001100101100100100110010001101101101101000110010110010010010011010",
"100100001011010000000000000000000000000000000000000000000000000000000000000000000000000000000000000000000000000000000000000000000000000000000000000000000000000000000000000000000000000000000000000000000000000000000000000000000000000000000000000000000000000000000000000000000000000000000000000000010110010110110100111101001000010110000000000000000000000000000000000000000000000000000000000000000000000000000000000000000000000000000000000000000000000000000000000000000000000000000000000000000000000000000000000000000000000000000000000000000000000000000000000000000000000000000000000000000000000000000000000000000000000000000000000000000000000000001101100100100100011111001101001001001001001000100100100100010010010010001001001001100100110010010011001001001001101100100010",
"100100110011010000000000000000000000000000000000000000000000000000000000000000000000000000000000000000000000000000000000000000000000000000000000000000000000000000000000000000000000000000000000000000000000000000000000000000000000000000000000000000000000000000000000000000000000000000000000000000010111010110110100110010001011010110000000000000000000000000000000000000000000000000000000000000000000000000000000000000000000000000000000000000000000000000000000000000000000000000000000000000000000000000000000000000000000000000000000000000000000000000000000000000000000000000000000000000000000000000000000000000000000000000000000000000000000000000001101100100100100110011001101001001001001001000100100100100010010010000001001001001010010000010010010001001001001001100101010",
"101001001011010000001110011100000000000000100000000000000000000000000000000000000000000000000011110011110001110000000000000000000000000000000000000000000110000000000110011111000110000000000000000001000011100000000110001000000000000000000001110000111000000000000010000111000000001111001110000000010101101001010100110011010100110110000000000000000000000000000000000000000000000000000000000000000000000000000000000000000000000000000000000000000000000000000000000000000000000000000000000000000000000000000000000000000000000000000000000000000000000000000000000000000000000000000000000000000000000000000000000000000000000000000000000000000000000000001101111011011011001011001100110100110110010010010011001001101100100100100100110110011011001001001100110010010010010010011010",
"100000001011010000010011001100000000000000100000000000000000000000000000000000000000000000000011011011011011001000000000000000000000000000000000000000001100000000001110000001001100000000000000000011000110010000000111011000000000000000000001001001100000000000000110001101100000001000011001000000010110010110110100111100100000010110000000000000000000000000000000000000000000000000000000000000000000000000000000000000000000000000000000000000000000000000000000000000000000000000000000000000000000000000000000000000000000000000000000000000000000000000000000000000000000000000000000000000000000000000000000000000000000000000000000000000000000000000001101101000100101001101001101000000100000010010010000100001000000000010000000000000100100010010000010010010000000000010000010",
"100110110011010000010000001100001100001100100000000000000000000000000000000000000000000000000011011011011011000000000000000000000000000000000000000000011000000000001110000011011000000000000000000011000110010000000111111001110011011000000001001001000000000000000110001101100010001100011011000000010101101001010100110000101001010110000000000000000000000011111111111111111111111111111111111110000000000000000000000000000000000000000000000000000000000000000000000000000000000000000000000000000000000000000000000000000000000000000000000000000000000000000000000000000000000000000000000000000000000000000000000000000000000000000000000000000000000000001101100100100110110011001101001001001101101100100100100110010010010011001001001001000110010010110010001101001101101100101010",
"101001001011010000010000001100011100011100100110000000000000000000000000000000000000000000000011011011011011000000000000000000000000000000000000000000011000000000000110000011011000000000000000000001000110110000000111111001111011011000000001011001000000000000000010001101100010001111011011000000010100101001110100111110010010010110000000000000000000000011000000000000000000000000000000000011000000000000000000000000000000000000000000000000000000000000000000000000000000000000000000000000000000000000000000000000000000000000000000000000000000000000000000000000000000000000000000000000000000000000000000000000000000000000000000000000000000000000001101111011011001001011001100110110100010010010011011001001001100100100100100110110011001001001001001000010110010010010010010",
"100000000011010000010000001100010010110110101100000000000000000000000000000000000000000000000011110011110011011000000000000000000000000000000000000000011110000000000110000110011110000000000000000001000011100011110110101000011011011011111001110001111000000000000010000111000000000001011101000000010111010110110100110000000000010110000000000000000000000110000000000000000000000000000000000011000000000000000000000000000000000001111111111111111111111111111111111111111111111111111111111111111100000000000000000000000000000000000000000000000000111100000000000000000000000000000000000000000111111111111111111111111111111110000000000000000000000000001101100110100111001101001100000000000000100000010010001001010000000100101000000011000001000010001000010000000000000010001010",
"100110010011010000010000001100010010110000111000000000000000000000000000000000000000000000000011000011110011001000000000000000000000000000000000000000011001000000000110000100011001000000000000000001000110010000000110001001111011011000000001001001001000000000000011001101100000000001011101000000010100101101010100111101001000010110000000000000000000001110000000000000000000000000000000000001100000000000000000000000000000000001111111111111111111111111111111111111111111111111111111111111111100000000000000000000000000000000000000000000000000111111100000000000000000000000000000000000000111111111111111111111111111111110000000000000000000000000001101100100100110110011001101101001001001101100100100100100010010010011001011001001100110110110010100101001001101101101100010",
"101001001011010000010010001100010010110000111100000000000000000000000000000000000000000000000011000011011011011000000000000000000000000000000000000000011001000000000110000100011001000000000000000001000110010000000110001011011001110000000001001001001000000000000011001101100010001001011001000000010111111010110100110010010010010110000000000000000000001100000000000000000000000000000000000001100000000000000000000000000000000001100000000000000000000000000000000000000000000000000000000000000110000000000000000000000000000000000000000000000111111111111110000000000000000000000000000000000111110000000000000000000000000011100000000000000000000000001101101011011001001011001100010000100000010000000001001001100101000100000100010010110001001001001011010010010010010010001010",
"101001101011010000011010001110010110110110100100000000000000000000000000000000000000000000000011000011011011111000000000000000000000000000000000000000011011000110000110000100011111000000000000000001100111110000000110001011111000110000000001011001011000000000000011001111100110001111011101000000010111010011010100110010110110010110000000000000000000001111111111111111111111111111111111111111100000000000000000000000000000000001100000000000000000000000000000000000000000000000000000000000000110000000000000000000000000000000000000000000001111111111111110000000000000000000000000000000000110011100000000000000000000000000110000000000000000000000001101101011011001001111001100110100110110110010011001001001000100100100100100010011011001001001000001010010010010010010011010",
"100110010011010000001110001110001100011100100110000000000000000000000000000000000000000000000010000011011001111000000000000000000000000000000000000000001110000110001111000100001110000000000000000011110011100000000010001001111000110000000000110000110000000000000111100111000000000111001110000000010100101101010100111111001001010110000000000000000000001100000000000000000000000000000000000001100000000000000000000000000000000001101111111111111111110111111111111111111110011111111111111111100110000000000000000000000000000000000000000000111111111111111111110000000000000000000000000000000110011111111111111111111111111111111100000000000000000000001101100100110110110011001101001001001001000101100110010010010010011011011001001000100100110110110010001001001101101101100010",
"101000001011010000000000000000000000000000000000000000000000000000000000000000000000000000000000000000000000000000000000000000000000000000000000000000000000001100000000000000000000000000000000000000000000000000000000000000000011100000000000000000000000000000000000000000000000000000000000000000010111010110110100111000100010010110000000000000000000001100000000000000000000000000000000000001100000000000000000000000000000000001101111111111110000110111111111111111111110011111111111111101100110000000000000000000000000000000000000000001111111111111111111111100000000000000000000000000000110010011111111111111111111111111111100000000000000000000001101111011001011001001001100101001001001001001001101100100010100100010000000100100110100001001001001001001000000000001001010",
"101101001011010000000000000000000000000000000000000000000000000000000000000000000000000000000000000000000000000000000000000000000000000000000000000000000000001000000000000000000000000000000000000000000000000000000000000000000000000000000000000000000000000000000000000000000000000000000000000000010110101101010100110100100100010110000000000000000000001100000000000000000000000000000000000001100000000000000000000000000000000001101000000000000000110110000000000000000110010000000000000001100110000000000000000000000000000000000000000111111111111111111111111100000000000000000000000000000110000011000000000000000000000000011100000000000000000000001101100101101001011011001100010010110110110010001000100100100100100100100100101001001001001001001000110010110010010110010010",
"100010010011010000000000000000000000000000000000000000000000000000000000000000000000000000000000000000000000000000000000000000000000000000000000000000000000000000000000000000000000000000000000000000000000000000000000000000000000000000000000000000000000000000000000000000000000000000000000000000010101010111010100110010001000010110000000000000000000001100000000000000000000000000000000000001100000000000000000000000000000000001101101111111111110110110011111111111100110010011111111111001100110000000000000000000000000000000000000000111111111111111111111111100000000000000000000000000000111000011000000000000000000000000011100000000000000000000001101110110110110110011001101001001001001000010010011010011011001011011011011001001001000100110110100000101001100000100100010",
"100100101011010000001110000000011100000000000000111000000000100000000000000000000000000000000011110011110001110000000000000000000000000000000000000000000110000000001110001110000110000000000000000001000011100000000110001000000000000000000001110000111000000000000010000111000000001111001110000000010111111110110100110000001011010110000000000000000000001100000000000000000000000000000000000001100000000000000000000000000000000001101101111111111110110110011111111111110110010111111111111101100110000000000000000000000000000000000000001111111111111111111111100000000000000000000000000000000111100011000000000000000000000000011100000000000000000000001101101111011011101001001101001001001001001101101100100010011000100000100100100100110110100001001001001001000101101001001010",
"101001010011010000010010000000001100000000000000011000000000100000000000000000000000000000000011011011011011011000000000000000000000000000000000000000000110000000011001011001001100000000000000000011000110010000000111011000000000000000000001001001100000000000000110001101100010001000011001000000010101101101010100111100100100010110000000000000000000001100000000000001111111111100000000000001100000000000000000000000000000000001101101100000000110110110011000000001110110010110000000001101100110000000000000000000000000000000000001111111111111111111111111001110000000000000000000000000000111111011000000000000000000000000011100000000000000000000001101100010101011001001001100010110110110010010000000100100100100101101110000011001001011001001000100110100110010010010110010",
"100100101011010000010000001100001100011100100100011000111001111000110010110000000000000000000011011011011011000000000000000000000000000000000000000000001110000000011011011001011000000000000000000001000110010000000111111001110011001000000001001001000000000000000010001101100010001110011011000000010101010110110100110011000010010110000000000000000000001100000000000001111111111100000000000001100000000000000000000000000000000001101101111111111110110110011111111111110110010111111111111101100110000000000000000000000000000000000011111111111111111111111111011111100000000000000000000000000110011111000000000000000000000000011100000000000000000000001101101011100110110011001101101001000001010010011011001001000010000000000000100011000000100000110110110001000100000001001010",
"100000101011010000010000001110001100011100100100011000111001111001111011110000000000000000000011011011011011000000000000000000000000000000000000000000001010000000011011011001011000000000000000000001000110110000000111111001111011011000000001011001000000000000000010001111100010001111011011000000010101101010110100110010001010010110000000000000000000001100000000000001100000000100000000000001100000000000000000000000000000000001101101111111111110110110011111111111110110010111111111111101100110000000000000000000000000000000000011111111111111111111111100011111100000000000000000000000000110001111000000000000000000000000011100000000000000000000001101101011010010110011001101001001001001101101100100001001001011000000000000100100110110110010001001001011000100001001001010",
"101010010011010000010000000010001100110110100100011000001100100011011011011000000000000000000011110011110011111000000000000000000000000000000000000000011010000000011101001111011110000000000000000001000011100011110110101000011011011011111001110001111000000000000010000111000000000001011101000000010110010101010100111100100100010110000000000000000000001100000000000001100000000100000000000001100000000000000000000000000000000001101100000000000000110110000000000000000110010000000000000001100110000000000000000000000000000000000111111111111111111111111001111001100000000000000000000000000110000111111111111111111111111111111100000000000000000000001101110100011001001001001100010010110110010000100100100100100100001111111100011001001001001001001001100000010010010110110010",
"100100101011010000010000001110001100100000100100011000111100100011011011000000000000000000000011000011110011011000000000000000000000000000000000000000011111000000011101000001011001000000000000000001000110010000000110001001111011011000000001001001001000000000000010001101100000000001011101000000010101101010110100110010001011010110000000000000000000001100000000000001111111111100000000000001100000000000000000000000000000000001101100101111110000110110010000010000000110010010011111000001100110000000000000000000000000000000011111111111111111111111100011111101100000000000000000000000000110000011111111111111111111111111111100000000000000000000001101100100100101010111001101101001001000011011011001001001001100011111111110010010011001101000110110010110100001001000100010",
"101000010011010000010011010010001100110000100100011001101100100011011011000000000000000000000011000011011011011000000000000000000000000000000000000000011111000000011001000011011001000000000000000001000110110000000110001011011001110000000001001001001000000000000011001101100010001001011001000000010110110111010100110100100100010110000000000000000000001100000000000000000000000000000000000001100000000000000000000000000000000001101101100111110110110110010000111001110110010110000111001101100110000000000000000000000000000000111111111111111111111111100111001101100000000000000000000000000110000001000100011000000011000000011100000000000000000000001101110010010110111011001100010000000100100100100010011000000000011000000110000000000110010101001001001001000110010011001010",
"101000000011010000011111010110001100111110111100011001101100111011111011000000000000000000000011000011011011111000000000000000000000000000000000000000000010000110011111000010011111000000000000000011100111110000000110001011111000110000000001111001111000000000000111001111100010001111011111000000010110110101110100111101000100010110000000000000000000001100000000000000000000000000000000000001100000000000000000000000000000000001101101100000111110110110010111001111110110010110000000001101100110000000000000000000000000000011111111111111111111111110001111101101100000000000000000000000000110000001000110011000000011000000011100000000000000000000001101100010011110001011001100010010010100100000100110110000000000010000000110000000000100110001001001001000000010010010100010",
"100100101011010000001110001111001110011100011100011100110100011001110011000000000000000000000011000011011001111000000000000000000000000000000000000000000010000100001110001100001110000000000000000011110011100000000110001001111000110000000000110000110000000000000111100111000000000111001110000000010101101010110100110010011011010110000000000000000000001100000000000000000000000000000000000001100000000000000000000000000000000001101101111111111110110110011111111111110110010111111111111101100110000000000000000000000000000111111111111111111111111100111101101100000000000000000000000000000110000001000100011000000011000000011100000000000000000000001101101101101101001011001101101001001001011011001000000000111111110111110111111111000000001000100100110010011001001100111010",
"101000010011010000000000000000000000000000000000000000000000000000000000000000000000000000000000000000000000000000000000000000000000000000000000000000000000001100000000000000000000000000000000000000000000000000000000000000000011100000000000000000000000000000000000000000000000000000000000000000010110110101110100111100100010010110000000000000000000001100000000000000000000000000000000000001100000000000000000000000000000000001101100000000000000110110000000000000000110010000000000000001100110000000000000000000000000001111111111111111111111110001111001101100000000000000000000000000000110000001000000011000000011000000011100000000000000000000001101110010110010010011001100010110110110100010010000111111100000011111010110000001111111000000001001001000000100010010000010",
"100100110011010000000000000000000000000000000000000000000000000000000000000000000000000000000000000000000000000000000000000000000000000000000000000000000000000000000000000000000000000000000000000000000000000000000000000000000000000000000000000000000000000000000000000000000000000000000000000000010101101010010100111100100100010110000000000000000000001100000000000000000000000000000000000001100000000000000000000000000000000001101111111111111111110111111111111111111110011111111111111111100110000000000000000000000000011111111111111111111111110011111101100000000000000000000000000000000110000001000000011000000011000000011100000000000000000000001101101011001101001011001100000001000000100000000001111110000000011100001110000000000011100010000000001001100100001001001010",
"100100101011010000000000000000000000000000000000000000000000000000000000000000000000000000000000000000000000000000000000000000000000000000000000000000000000000000000000000000000000000000000000000000000000000000000000000000000000000000000000000000000000000000000000000000000000000000000000000000010111111010110100100010010100010110000000000000000000001100000000000000000000000000000000000001100000000000000000000000000000000001101111111111111111110111111111111111111110011111111111111111100110000000000000000000000000011111111111111111111111101111111101100000000000000000000000000000000110000001000000011000000011000000011100000000000000000000001101101101001001001111001101001001001001001101100011100000000000011000000000000000000001110001000100010010010010010100001010",
"101011001011010000011100001100000000100000000000011100000000000000000000000000000000000000000011110011110001110000000000000000000000000000000000000110001110000000001110001110001110000000000000000001000011100000000110001000000000000000000001110000111000000000000010000111000000001111001110000000010110110101010100100001001011010110000000000000000000001100000000000000000000000000000000000001100000000000000000000000000000000001100000000000000000001100000000000000000001100000000000000000000110000000000000000000000000011111111111111111111110001111011100000000000000000000000000000000000110000001000000011000000011000000011100000000000000000000001101110110110010110011001100010110110110010011010011000000000000000000000000000000000000110000001000010010001001000010010010",
"100100100011010000010110000000000000100000000000100110000000000000000000000000000000000000000011011011011011011000000000000000000000000000000000001110011011000000011011011001011001000000000000000011000110010000000111011000000000000000000001001001100000000000000110001101100000001000011011000000010101101010110100101101000010010110000000000000000000001100000000000000000000000000000000000001100000000000000000000000000000000001100000000000000000000000000000000000000001000000000000000000000110000000000000000000000000100111111111111111111100111101011110000000000000000000000000000000000110000001000000011000000011000000011100000000000000000000001101100100011010011011001101101000100100100000000011110000000000000000000000000000000111110010000101101001001101101101101010",
"101000001011010000010011000000001100100000000000100000011000111001100100000000000000000000000011011011011011000000000000000000000000000000000000000110000011000000000011011001011001000000000000000011000110110000000111111001110011011000000001001001000000000000000110001101100010001000000001000000010111010110110100110000110110010110000000000000000000001100000000000000000000000000000000000001100000000000000000000000000000000001101111111111111111111111111111111111111110011111111111111111100110000000000000000000000000110001111111111111111001111111011000000000000000000000000000000000000111000001000000011111111111111111111100000000000000000000001101100100011001001011001100010011001001001100010011111111111111111111111111111111111111110000001000010010110010010010010010",
"101001000011010000010011001100011100100110000000100000111001111101101100000000000000000000000011011011011011000000000000000000000000000000000000000110000011000000000011011011001111000000000000000001000110110000000111111001110011011000000001011001000000000000000010001111100010001111000011000000010100101101010100110000000001010110000000000000000000001111111111111111111111111111111111111111100000000000000000000000000000000001101111111111111111110111111111111111111110011111111111111111100110000000000000000000000001111000111111111111100011110011011000000000000000000000000000000000000111100001000000011111111111111111111100000000000000000000001101110010010010110011001100010110100100001010010010001111111111111111111111111111111100010001001010010010010000000010010010",
"100100101011010000010011001100010000101100000000100000100101100101101100000000000000000000000011110011110011011000000000000000000000000000000000000110000110000000000110001110001110000000000000000001000011100011110110101000011011011011111000110001111000000000000010000111000000000001100110000000010111010010110100111101001011010110000000000000000000001100000000000000000000000000000000000001100000000000000000000000000000000001101000000000000000110110000000000000000110010000000000000001100110000000000000000000000011111111000111111111001111111011000000000000000000000000000000000000000111110001000000011010000011000000000000000000000000000000001101100101001011001011001101101100110110110100000011110000000000000000000000000000000001110010110101101001001001101101101010",
"101000010011010000010011001100011100111000000000100000100101101101101100000000000000000000000011000011110011001000000000000000000000000000000000000110001100000000000100011001011001000000000000000001000110010000000110001001111011011000000001001001001000000000000010001101100000000001001100000000010100101101010100110010100100010110000000000000000000001100000000000000000000000000000000000001100000000000000000000000000000000001101101111111111110110110001111111111100110010011111111111101100110000000000000000000000011001111100001111110011110111011000000000000000000000000000000000000000110011101000000011010000011000000000000000000000000000000001101100100111100101011001100010011001001001000100001111111111111111111111111111111111111100001001010010110110110010010010010",
"101001000011010000010011001100001110111100000000100100100101111100111000000000000000000000000011000011011011001000000000000000000000000000000000000110001100000000001100011001011001000000000000000001000110010000000110001011011001110000000001001001001000000000000011001101100110001001001100000000010101111111110100110100000100010110000000000000000000001100000000000000000000000000000000000001100000000000000000000000000000000001101001111111111110110110011111111111110110010011111111111101100110000000000000000000000011011111100001111110011110011011000000000000000000000000000000000000000110001111000000011000000011000000000000000000000000000000001101100110010110010111001100010011000001001001010001111111111111111111111111111111111111100011001010010010000010010010010010",
"100110101011010000011110001110001110110110000000111100101101111000001000000000000000000000000010000011011011111000000000000000000000000000000000000110011111000110011111011111011111000000000000000011100111110000000110001011111000110000000001111001011000000000000111001111100110001111011111000000010111010110110100111111001011010110000000000000000000001100000000000000000000000000000000000001100000000000000000000000000000000001101001100000000110110110011000000001110110010010000000001101100110000000000000000000000011011000111100111001111111011000000000000000000000000000000000000000000110001111100000011000100011000000000000000000000000000000001101111011001011101011001101100100110110110100100000110000000001110111111110000000000011000010000101001001001001001101101010",
"101000010011010000011100001110011100110110000000011100011001100000010000000000000000000000000010000011011001111000000000000000000000000000000000001111011111000110011111001110001110000000000000000011110011100000000110001001111000100000000000110000110000000000000111100111000000000111011111000000010100101101010100110100100100010110000000000000000000001100000000000000000000000000000000000001100000000000000000000000000000000001101001111111111110110110011111111111110110010011111111111101100110000000000000000000000011011011001111000011110011011000000000000000000000000000000000000000000110000011111000011000010011000000000000000000000000000000001101100100110100110011001100010001001001000000100100110000000000000000000000000000000011001100101000110110010010010010010010",
"100100101011010000000000000000000000000000000000000000000001100001110000000000000000000000000000000000000000000000000000000000000000000000000000000000000000001100000000000000000000000000000000000000000000000000000000000000000011100000000000000000000000000000000000000000000000000000000000000000010101010110110100110100100100010110000000000000000000001100000000000001111111111100000000000001100000000000000000000000000000000001101001111111111110110110011111111111100110010111111111111101100110000000000000000000000001011010011101110111110011010000000000000000000000000000000000000000000110000001011100011000001111000000000000000000000000000000001101100100110101101011001101100001001001001001011010110001000001000001000000100000100011010010100100100000011010010010010010",
"101000010011010000000000000000000000000000000000000000000000000000000000000000000000000000000000000000000000000000000000000000000000000000000000000000000000000000000000000000000000000000000000000000000000000000000000000000000000000000000000000000000000000000000000000000000000000000000000000000010101101101110100100001011011010110000000000000000000001100000000000001111111111100000000000001100000000000000000000000000000000001101000000000000000110110000000000000000110010000000000000001100110000000000000000000000000011010110001110110111011000000000000000000000000000000000000000000000110000001000110011000000011000000000000000000000000000000001101111011011111011011001101100110110110110110100000110011100011100011100001110001110011000011001011001001001101101101101010",
"101001000011010000000000000000000000000000000000000000000000000000000000000000000000000000000000000000000000000000000000000000000000000000000000000000000000000000000000000000000000000000000000000000000000000000000000000000000000000000000000000000000000000000000000000000000000000000000000000000010100101101010100111100000100010110000000000000000000001100000000000001100000000100000000000001100000000000000000000000000000000001101000000111100000110110000000111000000110010000000000000001100110000000000000000000000000001010110011100110011011000000000000000000000000000000000000000000000110111011000011111111111111111111111111111111000000000000001101100100110110110111001100011000000000100000100110110011100011100011100001110001110011001100000100100010010010010000010010",
"101000101011010000011100000000000000000000000000000000000000000000000000000000000000000000000011100001110011110000000000000000000000000000000000000000000000000000000000000000000000000000000000000001000011100000000110001000000000000000000001110000111000000000000111000111000000001111011111000000010101010010110100110000110110010110000000000000000000001100000000000001100000000100000000000001100000000000000000000000000000000001101000000111100100110110010000111000000110010000011111100001100110000000000000000000000000000010110011111111011010000000000000000000000000000000000000000000000110110011000001111111111111111111111111111111000000000000001101100100100101101011001101001001001001001001001010110011100011100011100001110001110011000100100100110100010010010010010010",
"100010010011010000010110000000000000000000000000000000000000000000000000000000000000000000000011010000100011011000000000000000000000000000000000000000000000000000000000000000000000000000000000000011000110010000000111011000000000000000000001001001100000000000001100101101100000001000011000000000010110101101010100111111001011010110000000000000000000001100000000000001111111111100000000000001100000000000000000000000000000000001101001111111111110110110011111111111110110010110000000001101100110000000000000000000000000000000110011000011011000000000000000000000000000000000000000000000000110010011000000011000000011000000011000000011000000000000001101111011011011010011001100110110110110010010001000110011100011100011100001110001110011010011011011001001001001101101101010",
"101000001011010000010011001100011010001100001100000000000000000000000000000000000000000000000011011000100011011000000000000000000000000000000000000000000000000000000000000000000000000000000000000011000110010000000111111001110011001000000001001001000000000000001101101101100010001110011110000000010101011110110100110100000100010110000000000000000000001100000000000000111111111100000000000001100000000000000000000000000000000001101001111111111110110110011111111111100110010111111111111101100110000000000000000000000000000000110011000011011000000000000000000000000000000000000000000000000111000011000000011000000011000000011000000011000000000000001101100100100100111011001100000000000100000110010010110011100011100011100001110001110011000100000000000000000010010000001010",
"101001101011010000010011011110011110011110011110000000000000000000000000000000000000000000000011011000100011011000000000000000000000000000000000000000000000000000000000000000000000000000000000000001000110010000000111111001110011011000000001001001000000000000001101101101100010001111011110000000010110110110110100110000110100010110000000000000000000001100000000000000000000000000000000000001100000000000000000000000000000000001101001111111111110110110011111111111100110010011111111111101100110000000000000000000000000000000000011000011000000000000000000000000000000000000000000000000000011100011000000011000000011000000011000000011000000000000001101100100100100101111001101001001001001001101001100010011100011100011100001110001110010000100100100100110010010010010010010",
"100010010011010000010011010010010101010010010000000000000000000000000000000000000000000000000011011000100011110000000000000000000000000000000000000000000000000000011111011111011111000000000000000001000011110011110010101000011011011011111001110001111000000000001110100111100000000001000001000000010101101101010100111101001011010110000000000000000000001100000000000000000000000000000000000001100000000000000000000000000000000001101000000000000000110110000000000000000110010000000000000001100110000000000000000000000000000000000011000011000000000000000000000000000000000000000000000000000001110011000000011000000011000000011000000011000000000000001101111011011011100111001100000110110110010001001000010011100011100011100001110001110010001011011011011001001001001101001010",
"101101001011010000010011011110010101010010011100000000000000000000000000000000000000000000000011011000100011110000000000000000000000000000000000000000000000000000000000000000000000000000000000000001000000010000000110001001111011011000000001001001001000000000001110100001100000000001000001000000010101010110110100110010000010010110000000000000000000001100000000000000000000000000000000000001100000000000000000000000000000000001101111111111111111110111111111111111111110011111111111111111100110000000000000000000000000000000000000000011000000000000000000000000000000000000000000000000000000011001000000011000000011000000011000000011000000000000001101100100100101101001001100100110000100010010010010010011100011100011100001110001110010010001001000001001001001000001001010",
"100010010011010000010011011000010101010010000110000000000000000000000000000000000000000000000011010000100011010000000000000000000000000000000000000000000000000000000000000000000000000000000000000001000000110000000110001011011001110000000001001001001000000000001100100001000010001001011001000000010101111101010100111100100100010110000000000000000000001100000000000000000000000000000000000001100000000000000000000000000000000001101111111111111111111111111111111111111110011111111111111111000110000000000000000000000000000000000000000000000000000000000000000000000000000000000000000000000000011101000000011000000011000000011000000011000000000000001101100100101110110011001101001001001001101100100000010011100011100011100001110001100010000100100100110100110110110010010010",
"101000000011010000011110011100010101011110011110000000000000000000000000000000000000000000000011110000110011011000000000000000000000000000000000000000000000000000000000000000000000000000000000000011100001100000000110001011111000110000000001011001011000000000001101100011000010001111011111000000010101101001010100110101000000010110000000000000000000001100000000000000000000000000000000000001100000000000000000000000000000000001100000000000000000000000000000000000000000000000000000000000000110000000000000000000000000000000000000000000000000000000000000000000000000000000000000000000000000001111000000011000000011000000011000000011000000000000001101101011011001010011001100010010110010010000000010010011100011100011100001110001100110010001010000000000001001000000001010",
"100100101011010000011100001110010001001100011100000000000000000000000000000000000000000000000011100001110011011000000000000000000000000000000000000000000000000000000000000000000000000000000000000011110011000000000110001001111000110000000001110001110000000000000111000110000000000111001110000000010111010110110100110000001011010110000000000000000000001100000000000000000000000000000000000001100000000000000000000000000000000001100000000000000000000000000000000000000000000000000000000000000110000000000000000000000000000000000000000000000000000000000000000000000000000000000000000000000000000111000000011000000011000000011000000011000000000000001101100100101101001101001100011010000110010011010000010011100011100011100001110001100110010011011001001001001001001001101010",
"101010010011010000000000000000000000000000000000000000000000000000000000000000000000000000000000000000000000000000000000000000000000000000000000000000000000000000000000000000000000000000000000000000000000000000000000000000000011100000000000000000000000000000000000000000000000000000000000000000010101101101010100110100110100010110000000000000000000001100000000000000000000000000000000000001100000000000000000000000000000000001111111111111111111111111111111111111111111111111111111111111111110000000000000000000000000000000000000000000000000000000000000000000000000000000000000000000000000000011111111111111111111111111111111111111000000000000001101100100100010110011001101101101001000100000101100010011100011100011100001110001100110001100100100100100110110110010110010",
"100100001011010000000000000000000000000000000000000000000000000000000000000000000000000000000000000000000000000000000000000000000000000000000000000000000000000000000000000000000000000000000000000000000000000000000000000000000000000000000000000000000000000000000000000000000000000000000000000000010100111111110100111101000010010110000000000000000000001100000000000000000000000000000000000001100000000000000000000000000000000000110000000000000000000000000000000000000000000000000000000000000110000000000000000000000000000000000000000000000000000000000000000000000000000000000000000000000000000000000000000000000000000000000000000000000000000000001101111011011001001111001100010110010001100110010010010011100011100011100001110001100110010010001000000001000001000001001010",
"101000101011010000000000000000000000000000000000000000000000000000000000000000000000000000000000000000000000000000000000000000000000000000000000000000000000000000000000000000000000000000000000000000000000000000000000000000000000000000000000000000000000000000000000000000000000000000000000000000010101010110110100110010000010010110000000000000000000001111111111111111111111111111111111111111100000000000000000000000000000000000111111111111111111111111111111111111111111111111111111111111111110000000000000000000000000000000000000000000000000000000000000000000000000000000000000000000000000000000000000000000000000000000000000000000000000000000001101100100100101101011001100001001010010011001000000010011100011100011100001110001100110010001001001001001001001000001001010",
"101010010011010000000000000000000000000000000000000000000000000000000000000000000000000000000000000000000000000000000000000000000000000000000000000000000000000000000000000000000000000000000000000000000000000000000000000000000000000000000000000000000000000000000000000000000000000000000000000000010100101001010100110010110100010110000000000000000000001111111111111111111111111111111111111111000000000000000000000000000000000000011111111111111111111111111111111111111111111111111111111111111110000000000000000000000000000000000000000000000000000000000000000000000000000000000000000000000000000000000000000000000000000000000000000000000000000000001101100101100110110011001101101001100100000000100100010011100011100011100001110001100110000100100100100100000010010110110010",
"100100101011010000000000000000000000000000000000000000000000000000000000000000000000000000000000000000000000000000000000000000000000000000000000000000000000000000000000000000000000000000000000000000000000000000000000000000000000000000000000000000000000000000000000000000000000000000000000000000010101010110110100111101001011010110000000000000000000000000000000000000000000000000000000000000000000000000000000000000000000000000000000000000000000000000000000000000000000000000000000000000000000000000000000000000000000000000000000000000000000000000000000000000000000000000000000000000000000000000000000000000000000000000000000000000000000000000001101110110001001001001001100010110100100110010010010010011100011100011100001110001100110001000100100100100100100000001001010",
"101001011011010000000000000000000000000000000000000000000000000000000000000000000000000000000000000000000000000000000000000000000000000000000000000000000000000000000000000000000000000000000000000000000000000000000000000000000000000000000000000000000000000000000000000000000000000000000000000000010101101001010100110010110100010110000000000000000000000000000000000000000000000000000000000000000000000000000000000000000000000000000000000000000000000000000000000000000000000000000000000000000000000000000000000000000000000000000000000000000000000000000000000000000000000000000000000000000000000000000000000000000000000000000000000000000000000000001101101011010010111111001101111011001011001001101000010011100011100011100001110001100110010011011001011011010011001001001010",
"101010000011010000000000000000000000000000000000000000000000000000000000000000000000000000000000000000000000000000000000000000000000000000000000000000000000000000000000000000000000000000000000000000000000000000000000000000000000000000000000000000000000000000000000000000000000000000000000000000010100101101010100110010000100010110000000000000000000000000000000000000000000000000000000000000000000000000000000000000000000000000000000000000000000000000000000000000000000000000000000000000000000000000000000000000000000000000000000000000000000000000000000000000000000000000000000000000000000000000000000000000000000000000000000000000000000000000001101100100101101010011001100011000000100000000000001011001100011100011100001110011000110000100100100100100000100010110100010",
"100100101011010000001100000000001110001110011111000000000100011111001110000000001000000000000100000000000000000000000011100000000000000000000000000000000000000000000000000000000000000000000000000000000000000000000000000000000000000000000000000000000000000000000000000000000000000000000000000000010101010110110100111111001011010110000000000000000000000000000000000000000000000000000000000000000000000000000000000000000000000000000000000000000000000000000000000000000000000000000000000000000000000000000000000000000000000000000000000000000000000000000000000000000000000000000000000000000000000000000000000000000000000000000000000000000000000000001101100101101101001011001100000110110110010010010010011001100011100011100001110011001110101100100100100101100100100000001010",
"101001001011010000011100000000010011010011000011000000001100011000011001000000001000000000000100000000000000000000000110000000000000000000000000000000000000000000000000000000000000000000000000000000000000000000000000000000000000000000000000000000000000000000000000000000000000000000000000000000010100101011010100111100110100010110000000000000000000000000000000000000000000000000000000000000000000000000000000000000000000000000000000000000000001110000000000000000000000000000000000000000000000000000000000000000000001000010000000000000000011110000000000001100000000000000000000000000000011110000000000001110000000000000000000000000000000000000001101111111111111111111001101100010001001001101101010011001100011100011100001110011001110010010011011011011010011001101101010",
"100000100011010000001100000000000011010011000010000000000100011110000001000000001110001001001111000110000110000000000110001011000111000111000000000000000000000000000000000000000000000000000000000000000000000000000000000000000000000000000000000000000000000000000000000000000000000000000000000000010101010111110100110000100100010110000000000000000000000000000000000000000000000000000000000000000000000000000000000000000000000000001000010000000001110000010000001100011001000110000000000000000000000000000000000000000001000110000000000000000011110000000000011100000000000000000000000000000011110000000000001110000000000000000000000000000000000000001100000000000000000000001100010010000001001000000000011001100011100011100001110011001110000000000100100100110100000110010010",
"100100100011010000001100000000000010010011000110000000000100011110000011000000001110001001001111001111001111000000001111001111000111000111000000000000000000000000000000000000000000000000000000000000000000000000000000000000000000000000000000000000000000000000000000000000000000000000000000000000010101010010110100110011001010010110000000000000000000000011110000000000000000110000000000000000000000000000000000000000000000000000001100110000000000110000010000001000011001000000000000000000000000000000000000000000000001101110000000000000000001100000000000010110000000000000000000000000000010011000000000011010000000000000000000000000000000000000001000000000000000000000001100000000110110110010010010011001100011100011100001100011001110101100100100101100100100100100001010",
"101011011011010000001100000000001110001111000100000000000100000001000110000000001001001001000100001001001000000000000110001101101001101001100000000000000000000000000000000000000000000000000000000000000000000000000000000000000000000000000000000000000000000000000000000000000000000000000000000000010101101011010100111010010011010110000000000000000000000010011000000000000000110000000000000000000000000000000000000000000000000000001111110000000000110000010000000000011001000000000000000000000000000000000000000000000001111110000000000000000001100000000000110000000000000000000000000000000010001000000000011000000000000000000000000000000000000000001001111111111111111111001101101100001000001001000011011001100011100011100001100011001110001011001011011001011010011001001010",
"100100101011010000001100000000001100000011001100000000000100000001000100000000001001001001000100001111000110000000000110001100001111101111100000000000000000000000000000000000000000000000000000000000000000000000000000000000000000000000000000000000000000000000000000000000000000000000000000000000010111010101110100110100100100010110000000000000000000000010011000000000000000110000000000000000000000000000000000000000000000000000001111110010011000110000111100011100011001001110000111000110011000000000000000000000000001111110001110001101100001100011110001111100011100000000000000000000000010001000111000111110011110000111000011111000000000000000001101111111111111111111101101010011011001001001000100011001100011100011100001100011001110100000001000100000100100010010100010",
"101000010011010000001100000100011000000110001100000100000100001001001000000000001001000111000100001000000001000000000110001000001000001000000000000000000000000000000000000000000000000000000000000000000000000000000000000000000000000000000000000000000000000000000000000000000000000000000000000000010101101011010100110010010010010110000000000000000000000010011001110000111100110010010001001011000000000000000000000000000000000000001011010010011000110000111100011100011001000110001101100100011000000000000000000000000001011010010011001111110001100011101101111100110110000000000000000000000010001001101100111110011111000001100110011000000000000000001101100000000000000001101100100100100110010010010001011001100011100011100001100011001100010100110100100100100101001100101010",
"101000001011010000011110001100011110001110001000000100001110001111011111000000001111000011000111001111001111000000000110001000001111001111000000000000000000000000000000000000000000000000000000000000000000000000000000000000000000000000000000000000000000000000000000000000000000000000000000000000010111010100110100110010010000010110000000000000000000000010011001111000111100110010010001001111000000000000000000000000000000000000001011010010011000110000010000001100011001000110001100100101111000000000000000000000000001011010010011001010110001100011001100110000110010000000000000000000000010001001000100011000011001000000100110011000000000000000001101100000000000000001101101100100100100000000010001011001100011100011100001100011001100101001001010011010011000010010001010",
"100100101011010000011110001100011111001100001100000100001111001110011111000000001110000110000011000111001110000000000110001000000111000111000000000000000000000000000000000000000000000000000000000000000000000000000000000000000000000000000000000000000000000000000000000000000000000000000000000000010101101011010100110101101100010110000000000000000000000011110000001001100110110110010001001001100000000000000000000000000000000000001011010010011000110000010000001100001011000110001111100101111000000000000000000000000001000010011111001011110001100011001100110000110010000000000000000000000010001001111100011000011000000111100110011000000000000000001101100000000000000001101100011011011001101100100100011001100011100011100001100011001100010001001011000100000110100010011010",
"101000010011010000000000001000000000000000000000001100000000000000000000000000000000001100000000000000000000000000000000000000000000000000000000000000000000000000000000000000000000000000000000000000000000000000000000000000000000000000000000000000000000000000000000000000000000000000000000000000010111010101110100110100010011010110000000000000000000000010011000111001100000111100010001001001100000000000000000000000000000000000001000010010011000110000010000001100001011000110001111100101111000000000000000000000000001000010011111001011110001100011001100110000110010000000000000000000000010001001111100011000011000001111100110011000000000000000001101100000000000000001101100000010000100010010010100011001100011100011100001100011001100010010100100100101101001001100101010",
"101001001011010000000000000000000000000000000000000000000000000000000000000000000000000000000000000000000000000000000000000000000000000000000000000000000000000000000000000000000000000000000000000000000000000000000000000000000000000000000000000000000000000000000000000000000000000000000000000000010101101010010100110010100100010110000000000000000000000010011001111001100000111100010001001001100000000000000000000000000000000000001000010010011000110000010000001100001110000110001100000111111000000000000000000000000001000010010000001010110001100011001100110000110010000000000000000000000010010001100000011000011000001100100011111000000000000000001101100000000000000001101101101100100000010010011001011001100011100011100001100011001100101001001011011010010010000001001010",
"100110010011010000000000000000000000000000000000000000000000000000000000000000000000000000000000000000000000000000000000000000000000000000000000000000000000000000000000000000000000000000000000000000000000000000000000000000000000000000000000000000000000000000000000000000000000000000000000000000010101110101110100110101001000010110000000000000000000000010011011001001100000110110010001001111100000000000000000000000000000000000001000010011111000111000011110011110000110001111000111100010110000000000000000000000000001000010011110001000110011110011001100110000111110000000000000000000000011110000111100011000011000001111110000011000000000000000001101100000000100000001101100010000000101001101100001011001100011100011100001100011001100010001100100101000000100110010010010",
"101000010011010000000000000000000000000000000000000000000000000000000000000000000000000000000000000000000000000000000000000000000000000000000000000000000000000000000000000000000000000000000000000000000000000000000000000000000000000000000000000000000000000000000000000000000000000000000000000000010111011011010100111101001011010110000000000000000000000010011011001001100110110110011111001111000000000000000000000000000000000000001000010001111000111000001100011110000110001111000111100010010000000000000000000000000011000010001110001000110011110011001100110000011100000000000000000000000011100000111100011000011000000111110000011000000000000000001101100000000000000001101100010011011010000010000110011001100011100011100001100011001100010110100100100100001001100000001010",
"101001101011010000000000000000000000000000000000000000000000000000000000000000000000000000000000000000000000000000000000000000000000000000000000000000000000000000000000000000000000000000000000000000000000000000000000000000000000000000000000000000000000000000000000000000000000000000000000000000010101111110110100110010110100010110000000000000000000000011110001111100111100110011001111001000000000000000000000000000000000000000000000000000000000000000000000000000000000000000000000000000000000000000000000000000000000000000000000000000000000000000000000000000000000000000000000000000000000000000000000000000000000000000000011110000000000000000001101100011111111110001101101100100100100010010010000011001100011100011100001100011001100101001011010010010010001001101101010",
"100010010011010000000000000000000000000000000000000000000000000000000000000000000000000000000000000000000000000000000000000000000000000000000000000000000000000000000000000000000000000000000000000000000000000000000000000000000000000000000000000000000000000000000000000000000000000000000000000000010111101101010100110001001011010110000000000000000000000000000000000000000000000000000000001000000000000000000000000000000000000000000000000000000000000000000000000000000000000000000000000000000000000000000000000000000000000000000000000000000000000000000000000000000000000000000000000000000000000000000000000000000000000000000011110000000000000000001101100001111111110001101100010100100100101101101101011000100011100011100001100010001100000100100100100000110110110010010010",
"101000000011010000000000000000000000000000000000000000000000000000000000000000000000000000000000000000000000000000000000000000000000000000000000000000000000000000000000000000000000000000000000000000000000000000000000000000000000000000000000000000000000000000000000000000000000000000000000000000010111010110110100110101001000010110000000000000000000000000000000000000000000000000000000001000000000000000000000000000000000000000000000000000000000000000000000000000000000000000000000000000000000000000000000000000000000000000000000000000000000000000000000000000000000000000000000000000000000000000000000000000000000000000000000000000000000000000001101100001111111100001101100011011011010010010010000011000000000000000000000000000001100010000100000001101101001010010010010",
"101001101011010000000000000000000000000000000000000000000000000000000000000000000000000000000000000000000000000000000000000000000000000000000000000000000000000000000000000000000000000000000000000000000000000000000000000000000000000000000000000000000000000000000000000000000000000000000000000000010100101101110100110010110100010110000000000000000000000000000000000000000000000000000000000000000000000000000000000000000000000000000000000000000000000000000000000000000000000000000000000000000000000000000000000000000000000000000000000000000000000000000000000000000000000000000000000000000000000000000000000000000000000000000000000000000000000000001101100000111111000001101101100100000010010010010010011100000000000000000000000000001101010011010011010010010001101101101010",
"100010010011010000000000000000000000000000000000000000000000000000000000000000000000000000000000000000000000000000000000000000000000000000000000000000000000000000000000000000000000000000000000000000000000000000000000000000000000000000000000000000000000000000000000000000000000000000000000000000010111011101110100111101001011010110000000000000000000000000000000000000000000000000000000000000000000000000000000000000000000000000000000000000000000000000000000000000000000000000000000000000000000000000000000000000000000000000000000000000000000000000000000000000000000000000000000000000000000000000000000000000000000000000000000000000000000000000001101100000011111000001101100100100100100101101101001000111111111111111111111111111111000100100100100101101000010010010010010",
"101000000011010000000000000000000000000000000000000000000000000000000000000000000000000000000000000000000000000000000000000000000000000000000000000000000000000000000000000000000000000000000000000000000000000000000000000000000000000000000000000000000000000000000000000000000000000000000000000000010101110110110100110001000010010110000000000000000000000000000000000000000000000000000000000000000000000000000000000000000000000000000000000000000000000000000000000000000000000000000000000000000000000000000000000000000000000000000000000000000000000000000000000000000000000000000000000000000000000000000000000000000000000000000000000000000000000000001101100000011110000001101101011011001000010010000110000111111111111111111111111111111000100100100000100001100101001000000010",
"101001101011010000001100000000001110010011011100000000010000000000000000000000000000000000000000100110000000000000100000000000111100000000011000000000010000000000010000000000000001100100000000000001100000000001111000000000000001100000000000000000000110111000000000011000000000010000000000000000010101101101010100100100100100010110000000000000000000000000000000000000000000000000000000000000000000000000000000000000000000000000000000000000000000000000000000000000000000000000000000000000000000000000000000000000000000000000000000000000000000000000000000000000000000000000000000000000000000000000000000000000000000000000000000000000000000000000001101100000011110000001101101000000000000010010010010000110000000000000000000000000110001010010011011010010010010000101101010",
"111010010011010000001100000000010010010011011110000000011000000000000000000000000000000000000000100110000000000000100000000000110110000000011000000000110000000000010000000000000001100100000000000001100000000001101100000000000001100000000000000000000100100100000000011000000000010000000000000000010111010110110100101001001011010110000000000000000000000000000000000000000000000000000000000000000000000000000000000000000000000000000000000000000000000000000000000000000000000000000000000000000000000000000000000000000000000000000000000000000000000000000000000000000000000000000000000000000000000000000000000000000000000000000000000000000000000000001101100000000100000001101100100100100100100101101001100011111111111111111111111111100010100100100100100000001000010010010010",
"100100001011010000011100000000010010010011010010001100001000000000000000000000000000000000000000100110000000000000100000001000100110000000000000000000110000000000010000000000000001100100000000000001100000010001101100000000000001100000000000000000001100100100000000000000000000010000000000000000010100111110110100110100100100010110000000000000000000000000000000000000000000000000000000000000000000000000000000000000000000000000000000000000000000000000000000000000000000000000000000000000000000000000000000000000000000000000000000000000000000000000000000000000000000000000000000000000000000000000000000000000000000000000000000000000000000000000001101100000000000000001101101001001001011010010010010010011111111111111111111111111100001001000100100101101101000100010011010",
"101100001011010000001100000000011000011010010000001100000100000000011100011100111100100110000000100110011100101100100110001000100110011000111001111001111000000000111100111000000001100100111001111001101100010001100100111000111001101101100101111000001000100100011000011000111000111100000000000000010101101001010100110000000000010110000000000000000000000000000000000000000000000000000000000000000000000000000000000000000000000000000000000000000000000000000000000000000000000000000000000000000000000000000000000000000000000000000000000000000000000000000000000000000000000000000000000000000000000000000000000000000000000000000000000000000000000000001101100000000000000001101100000100000100100100100100000000000000000000000000000000000010010001011010010010010011010100001010",
"101000010011010000001100000000001100011110011100000000000010000000110110110110110110100100000000101110110110110110101100000000111100000100011001101100110000000000010001101100000001110101100101110101101000000001111000001101100101101101100101100100011000111100000100011000110100010000000000000000010101010110110100110001001011010110000000000000000000000000000000000000000000000000000000000000000000000000000000000000000000000000000000000000000000000000000000000000000000000000000000000000000000000000000000000000000000000000000000000000000000000000000000000000000000000000000000000000000000000000000000000000000000000000000000000000000000000000001001100000000000000001101100010110100100100100100100100000000000000000100010010010010110110110100011010010000011010010010010",
"100100101011010000001100000000000110001100001110000000000100000000110000110110100110100100000000101110110110110110111100000000110100011100011001100100110000000000010001101100000001110101100101100101111000000001101100011101100001111001100101100100010000100000011100011000100100010000000000000000010101101011010100111100100100010111111111111111111111111111111111111111111111111111111111111111111111111111111111111111111111111111111111111111111111111111111111111111111111111111111111111111111111111111111111111111111111111111111111111111111111111111111111111111111111111111111111111111111111111111111111111111111111111111111111111111111111111111111001111111111111111111101101101001001000000000000000000000000000000000000000000000000000000000000000001101001101101101101010",
"101000100011010000001100000000000010001100000010001100001100000000110000110110100110111100000000111110110110100000111000001000100000111100011001100100110000000000010001101100000001111101100101100001110000010001100100111101100001111001100101100100100000100000111100011000100100010000000000000000010111001101010100110000100100110010000000000000000000010000000000000000000000000000000000000000000000000000000000000000000000000000000000000000000000000000000000000000000000000000000000000000000000000000000000000000000000000000000000000000000000000000000000000000000000000000000000000000000000000000000000000000000000000000000000000000000000000000001000000000000000000000001100001000000000000000000000000000000000000000000000000000000000000000000000000010010000000001001010",
"101001001011010000001100001100010010001100010010001100011000000000110110110110111100011100000000111110110110100000101100011000100000100100011001101100110000000000010101101100000001101101100101100001101000010001101101101101100101101001100101111000100000100000100100011000100100010100000000000000010101110110110100111001001011110010000000000000000000010000000000000000000000000000000000000000000000000000000000000000000000000000000000000000000000000000000000000000000000000000000000000000000000000000000000000000000000000000000000000000000000000000000000000000000000000000000000000000000000000000000000000000000000000000000000000000000000000000001000000000000000000000001100110100100101111111000000000000000000000000010000000000000000000000000000001100010010010010010010",
"100100101011010000011110001100011110001100011110000000010000000000011100011100100000001000000000110100011100100000100110000000100000011110011101101100011100000000011100111000000000101100111001100001101100000001111000111100111001100100111101100001000000100000011110011100100100011100000000000000010110000000010110100010000110110111111111111111111110011111111111111111111111111111111111111111111111111111111111111111111111111111111111111111111111111111111111111111111111111111111111111111111111111111111111111111111111111111111111111111111111111111111111111111111111111111111111111111111111111111111111111111111111111111111111111111111111111111111001111111111111111100101100001000000001111110000000000000000000000000010000000000000000000000000000001001000000100100100010",
"100100010011010000000000000000000000000000000000000000000000000000000000000000100000111000000000000000000000000000000000000000000000000000000000000000000000000000000000000000000000000000000000000000000000000000000000000000000000000000000001100000000000000000000000000000000000000000000000000000010110000000000110100010110100110110000000000000000010011111111111111111111111111111111111111111111111111111111111111111111111111111111111111111111111111111111111111111111111111111111111111111111111111111111111111111111111111111111111111111111111111111111111111111111111111111111111111111111111111111111111111111111111111111111111111111000000000000001000001001111111101100101101101001001000011000000000000000000000000000010000000000000000000000000000000011000100100100101010",
"101000100011010000000000000000000000000000000000000000000000000000000000000000100000110000000000000000000000000000000000000000000000000000000000000000000000000000000000000000000000000000000000000000000000000000000000000000000000000000000001100000000000000000000000000000000000000000000000000000011111111111111110101101001000110110000000000000000010011000001001001001001001001000010010010100000101100100000100100000000101001000010000000000001001000011000000000000000000000000000000000000000000000000000000000000000000000000000000000000000000000000000000000000000000000000000000000000000000000000000000000000000000000000000000000001000000000000001000000000000000000000001100010110100100011000000000000000000000000000010000000000000000000000000000001101001011010010011010",
"100010101011010000000000000000000000000000000000000000000000000000000000000000000000000000000000000000000000000000000000000000000000000000000000000000000000000000000000000000000000000000000000000000000000000000000000000000000000000000000000000000000000000000000000000000000000000000000000000000010000000000000010100010010010110110000000000100000010011101101010100110110110100100101100101000010010010100110010101101101101110100110110110110110110101111000000000000000000000000000000000000000000000000000000000000000000000000000000000000000000000000000000000000000000000000000000000000000000000000000000000000000000000000000000000001000011000000001000000000000000000001101100000001001000011100011011000011100000111100111110000011100001111000111110000010110010000100100010",
"101000010011010000000000000000000000000000000000000000000000000000000000000000000000000000000000000000000000000000000000000000000000000000000000000000000000000000000000000000000000000000000000000000000000000000000000000000000000000000000000000000000000000000000000000000000000000000000000000000010000000000000010110000010000110110000000001100000010011010010101001001001001011011011010010010111001011011011011100111110101001011001001001101001001111011000000000000000000000000000000000000000000000000000000000000000000000000000000000000000000000000000000000000000000000000000000000000000000000000000000000000000000000000000000000001000011000000001000000000000000000011001101101001001000011100011101100000111001100000111111001110110000001100111011001001001101011100101010",
"101000101011010000000000000000000000000000000000000000000000000000000000000000000000000000000000000000000000000000000000000000000000000000000000000000000000000000000000000000000000000000000000000000000000000000000000000000000000000000000000000000000000000000000000000000000000000000000000000000010000000000000010111101001010110110000000011100000010011010010011001001011011011011010011010100101101101011010100100111010110101001011001001010010011010011000000000000000000000000000000000000000000000000000000000000000000000000000000000000000000000000000000000000000000000000000000000000000000000000000000000000000000000000000000000001000011100000001000000000000000000010101100010010110100011100011101100000011001100000110011101100110000001100111011001001001010010010011010",
"111010000011010000000000000000000000000000000000000000000000000000111111000000000000000000000000000000000000000000000000000000000000000000000000000000000000000000000000000000000000000000000000000000000000000000000000000000000000000000000000000000000000000000000000000000000000000000000000000000010000000000000010110010000100110110000000111100000010011101100010110110110110100100101010101011010010100110101011011010001010111010100101110110111010101111000000000000000000000000000000000000000000000000000000000000000000000000000000000000000000000000000000000000000000000000000000000000000000000000000000000000000000000000000000000001000011111000001000000000000000001000101100001001001000011100011000000011111001111000110001101100000000111100110011000010110010010000100010",
"101000011011010000000000000000000000000000000000000000000000000000111111000000000000000000000000000000000000000000000000000000000000000000000000000000000000000000000000000000000000000000000000000000000000000000000000000000000000000000000000000000000000000000000000000000000000000000000000000000010000001100000010110010010100110110000011111100000010010010110100100101101011011011001001011011011111001011011010101100110101101011011011001001001101001111000000000000000000000000000000000000000000000000000000000000000000000000000000000000000000000000000000000000000000000000000000000000000000000000000000000000000000000000000000000001000011111100001000000000000000010000101101101001001000011100011000000011111000111100110001101100000001111100110011001001001001001101101010",
"100100101011010000001100000000001110010011011110000000010000000000111111000000000000000000000000000000000000000000000000000000000000000000000000000000000000000000000000000000000000000000000000000000000000000000000000000000000000000000000000000000000000000000000000000000000000000000000000000000010000011110000010101101001011110110001111111100000010010001001011011010010100100100110110101100101101100101101101011011011010010100100101101010110010110011000000000000000000000000000000000000000000000000000000000000000000000000000000000000000000000000000000000000000000000000000000000000000000000000000000000000000000000000000000000001000011111110001000000000000000010000101100010110110100011100011000000110011000000100110001101100000011001100110011001001001101010010010010",
"101001010011010000001100000000010011010011010010000000001000000000111111000000000000000000000000000000000000000000000000000000000000000000000000000000000000000000000000000000000000000000000000000000000000000000000000000000000000000000000000000000000000000000000000000000000000000000000000000000010000011110000010111101000000110110001111111100000010011011001011010100110100100101101011011010010110111100011011011010101110011000100100110110010010100111000000000000000000000000000000000000000000000000000000000000000000000000000000000000000000000000000000000000000000000000000000000000000000000000000000000000000000000000000000000001000011111110001000000000000001100000101100010010000000011100011000000110011000001100110001101110110011001100110011000010110010010010011010",
"101001101011010000011100000000010000010011010000001100000100000000111111000000000000000000000000000000000000000000000000000000000000000000000000000000000000000000000000000000000000000000000000000000000000000000000000000000000000000000000000000000000000000000000000000000000000000000000000000000010001111111100010110010000100110110000011111100000010011110110110101100101001011001001001100111010011011011011010101100100101101001010011001001001101101111000000000000000000000000000000000000000000000000000000000000000000000000000000000000000000000000000000000000000000000000000000000000000000000000000000000000000000000000000000000001000011111100001000000000000001000000101101101001001000011100011000000011111001111000110001100011100001111100110011001101001000001001101010",
"100100101011010000001100000000011100001110011000001100000110000000111111000000000000000000000000000000000000000000000000000000000000000000000000000000000000000000000000000000000000000000000000000000000000000000000000000000000000000000000000000000000000000000000000000000000000000000000000000000010001111111100010110010101011110110000001111100000010011001011011011011011010011100110110100101101101100100101101001010010010010100101001001001000110010011000000000000000000000000000000000000000000000000000000000000000000000000000000000000000000000000000000000000000000000000000000000000000000000000000000000000000000000000000000000001000011110000001000000000000110000000101100010010100100001000011000000011111001111000010001100011100001110100110011000001001001001000101010",
"101001010011010000001100000000001110001100001110000000000010000000111111000000000000000000000000000000000000000000000000000000000000000000000000000000000000000000000000000000000000000000000000000000000000000000000000000000000000000000000000000000000000000000000000000000000000000000000000000000010000111111000010111100110100110110000000011100000010011110100100110100100100100111001001010010010010110011010010110101101101101011010110110110110000101111000000000000000000000000000000000000000000000000000000000000000000000000000000000000000000000000000000000000000000000000000000000000000000000000000000000000000000000000000000000001000011100000001000000000001100000000101100010011001000000000000000000000000000000000000000000000000000000000000000000010110010010010010010",
"100100101011010000001100000000000011001100000010000000000110000000111111000000000000000000000000000000000000000000000000000000000000000000000000000000000000000000000000000000000000000000000000000000000000000000000000000000000000000000000000000000000000000000000000000000000000000000000000000000010000011110000010111001011010110110000000001100000010011001010100101100101100100111001001110010011011001011010110100101011010011001110000100101011001000011000000000000000000000000000000000000000000000000000000000000000000000000000000000000000000000000000000000000000000000000000000000000000000000000000000000000000000000000000000000001000011000000001000000000000000001000101101101100000000000000000000000000000000000000000000000000000000000000000000001100000000000000101010",
"101000100011010000001100001100010011001100010010001100001100000000111111000000000000000000000000000000000000000000000000000000000000000000000000000000000000000000000000000000000000000000000000000000000000000000000000000000000000000000000000000000000000000000000000000000000000000000000000000000010000011100000010110000100110110110000000000000000010011011010111011011011011011100110110101101101101101100101101001010010010010110101011011001101111010011000000000000000000000000000000000000000000000000000000000000000000000000000000000000000000000000000000000000000000000000000000000000000000000000000000000000000000000000000000000001000000000000001000000000010000001000101100010000100101101101001001011001010100110110110101111010011011010010100100101001001001101001100010",
"101000010011010000011110001100011110001100011110001100011000000000111111000000000000000000000000000000000000000000000000000000000000000000000000000000000000000000000000000000000000000000000000000000000000000000000000000000000000000000000000000000000000000000000000000000000000000000000000000000011111111111000110110010100100110110000000000000000010011111111111111111111111111111111111111111111111111111111111111111111111111111111111111111111111111111000000000000000000000000000000000000000000000000000000000000000000000000000000000000000000000000000000000000000000000000000000000000000000000000000000000000000000000000000000000001000000000000001000000000000000011100101100010011001001010010010010100100001001001001001010010010100100101001001000010110110010010010010010",
"100100101011010000011110001100001110000100001110000000010000000000111111000000000000000000000000000000000000000000000000000000000000000000000000000000000000000000000000000000000000000000000000000000000000000000000000000000000000000000000000000000000000000000000000000000000000000000000000000000011111111111111110111101001010110110000000000000000010011000000000000000000000000000000000000000000000000000000000000000000000000000000000000000000000000011000000000000000000000000000000000000000000000000000000000000000000000000000000000000000000000000000000000000000000000000000000000000000000000000000000000000000000000000000000000001000000000000001000000010000000000000101101101100000100100001100111001011001011010000100000101101001010010110110011010000000010001101101110",
"101000010011010000000000000000000000000000000000000000000000000000111111000000000000000000000000000000000000000000000000000000000000000000000000000000000000000000000000000000000000000000000000000000000000000000000000000000000000000000000000000000000000000000000000000000000000000000000000000000010000000000000000110010100000110111111111111111111110011111111111111111111111111111111111111111111111111111111111111111111111111111111111111111111111111111111111111111111111111111111111111111111111111111111111111111111111111111111111111111111111111111111111111111111111111111111111111111111111111111111111111111111111111111111111111111111111111111111000000111111111111111101100010010100100100100100001100100110100100010010010010010010110010000100100001001001001101000010010",
"101001011011010000000000000000000000000000000000000000000000000000111111000000000000000000000000000000000000000000000000000000000000000000000000000000000000000000000000000000000000000000000000000000000000000000000000000000000000000000000000000000000000000000000000000000000000000000000000000000010111111111110110110000100100110011111111111111111110011111111111111111111111111111111111111111111111111111111111111111111111111111111111111111111111111111111111111111111111111111111111111111111111111111111111111111111111111111111111111111111111111111111111111111111111111111111111111111111111111111111111111111111111111111111111111111111111111111111000000111111111111111101100011010011011011010010001100100001001001001001000010010001001101001001100110010100000010010010010",
"100100101011010000000000000000000000000000000000000000000000000000000000000000000000000000000000000000000000000000000000000000000000000000000000000000000000000000000000000000000000000000000000000000000000000000000000000000000000000000000000000000000000000000000000000000000000000000000000000000010000000010010000101101001011110000000000000000000000000000000000000000000000000000000000000000000000000000000000000000000000000000000000000000000000000000000000000000000000000000000000000000000000000000000000000000000000000000000000000000000000000000000000000000000000000000000000000000000000000000000000000000000000000000000000000000000000000000000000000000000000000000001100010101100100100100101100011011001011000000000101001101001000110010010010010000000010010101101010",
"101000010011010000000000000000000000000000000000000000000000000000000000000000000000000000000000000000000000000000000000000000000000000000000000000000000000000000000000000000000000000000000000000000000000000000000000000000000000000000000000000000000000000000000000000000000000000000000000000000010000000100000110100010110100011111111111111111111111111111111111111111111111111111111111111111111111111111111111111111111111111111111111111111111111111111111111111111111111111111111111111111111111111111111111111111111111111111111111111111111111111111111111111111111111111111111111111111111111111111111111111111111111111111111111111111111111111111111111111111111111111111111101010010000100100110010010000100110100110110110010010010010110101000000001001001001001001000010010",
"101001001011010000000000000000000000000000000000000000000000000000000000000000000000000000000000000000000000000000000000000000000000000000000000000000000000000000000000000000000000000000000000000000000000000000000000000000000000000000000000000000000000000000000000000000000000000000000000000000010000000000000110101101001010011111111111111111111111111111111111111111111111111111111111111111111111111111111111111111111111111111111111111111111111111111111111111111111111111111111111111111111111111111111111111111111111111111111111111111111111111111111111111111111111111111111111111111111111111111111111111111111111111111111111111111111111111111111111111111111111111111111101010010011011011001101101100101000000011011001101000011001001001101100100101000000010110110010010",
"101000101011010000000000000000000000000000000000000000000000000000000000000000000000000000000000000000000000000000000000000000000000000000000000000000000000000000000000000000000000000000000000000000000000000000000000000000000000000000000000000000000000000000000000000000000000000000000000000000010000000111111110100000001001000000010000000000000010000010010000000000000100100000000000001000000100000100100000100000100000000100100100100100010010000000010010010000000000000000010010000000001001001000000000100000000000000010000010000001001001000000000000000100100010000010010010000000000000000000000000000000000000000000010000010000000000000000000000000100100100000000100000100100100100100100000000000011001100100101100100001000001100100110000100100110010010001001001010",
"100100010011011111111111111111111111111111111111111111111111111111111111111111111111111111111111111111111111111111111111111111111111111111111111111111111111111111111111111111111111111111111111111111111111111111111111111111111111111111111111111111111111111111111111111111111111111111111111111111110111111111111111110010110100101010110010010010010011010010010010010100100100100101001001001001010000100100100100100100100101000100100100100100110010010110010010010010010010010010010010010001001001001001001001101010110110010010010010100101001001001000100100100100100010011010010010010010100100001011001011011011010010010010010010010010100100110110110010000100100100100100100100100000100100100110110010010000100100100100110010010000100100100011011011001001001001001001001010",
"101001001011111111111111111111111111111111111111111111111111111111111111111111111111111111111111111111111111111111111111111111111111111111111111111111111111111111111111111111111111111111111111111111111111111111111111111111111111111111111111111111111111111111111111111111111111111111111111111111111111111111111111111001001010010001001100101101101100101100100100110011011011010010010010100110111001001001001011001010010010110010010011001011001001001001101100101101001001001101001101101100110110110110110010010101001001001101101100100000110110110010010011011011001101100101101100101001001011000100100100100100101001101101001001001101001011001001001001001011001011010010010011010011011010001001001101101101010010011001001001001001001011001000100100000010110100110110110010",
"100000101000000000000000000000000000000000000000000000000000000000000000000000000000000000000000000000000000000000000000000000000000000000000000000000000000000000000000000000000000000000000000000000000000000000000000000000000000000000000000000000000000000000000000000000000000000000000000000000000000000000000000001001001001001001101000100100100100010010010001001001000100100101000000100100110100100000010010011011001001001000010010001010010010010010000000010000000000010010010010010001001001000000110010010010001000001010010001011001001000000000100100100100010010010010000000000000000010010010001001001001001001101000000000010000000100000000000001100100000100100100100100100000100000001001000000010000001100100001000100010010000100100100100100110010010000100001001010",
"100010110100000001001001000001001001001010100100110011000010001001000000000010010010000010000001001001001000000000010100001000000000000010000010010001001001100100100100001001001001000000000000000100001001000010000010010010001010010000000001000001001001000100000000000010000001000010010010000000001001000100100000100110110100100010010010010000001010000010010001001001000100100101101001001001001000110100100000100000001001001000100100100110110010010010010010010010110010010010010010000001001001001001001001000000100100110010010010000001001001001001100100100100100010010010010010010110010000010010010001001001000000000000000100010010100100110110110010000100100100100100000100101100100100100110110010010010010100100100100100010010100100000010011001001001001001000001001010",
"101001001001001001001010100110100110100110110100110011001001101100100110110010010010011011011011001100111011010011001001001001001001001100100001011011001001001100100100100100100110110010110010110010110110010010110010010011010010010010010010011011001001001101100100110010010010011010010011001001001001000100100110100101001000010010010010010010000101001100100100110110010010010010010010010001001001001011001101100100110110110010010000001001001101100101100101001001001001001001101100100100110110110010000000100100100000001001101100100100110110110010010011011011001101101101101101001001001001001100100100100100110110010011011011001001001001001001000000011001001001010010010011011011010000000001000000100100111011011011011001001001001001000010000000001000010000100100101010",
"100100100100100100100101001001010001011001011011001100100100010011011001001001001101100100100100110110000110110100110100110110010010010010010000100100100110010010010010011001001001001001001101001001001001001001001001101101101101101101100101100100100100010010011001001001000101101101100100100110110010010010010011011001001001001101100101100100100100110010010000001001000100100101100000100110110110110100110010011011001001001001011011011000000010000100100110110110110010010010010010010001001001001000110010010011011011001000010010001001001001000000100100100100000010010010010000100100110010010010011011001001001001101000100100010110110001001001001100100100100100100101100100100100101001001001001000100100100100100100100100010010010100100100100100110110010010010010001010",
"100100110100100100100001011001001001001001000100100100100100010011000001001001000100100100100100000001001000000100100000000000000010010010010100100100100010010010010010011001001001001001001001001001001001001001001000000000010010001001000100100100100000010010011001001001100100101000100100100100000010010010010000000100110110001000000000000000000010010010011011001001000100100101100000000100000010100100010010000010001001001001000100100110010010010010010010000000000010010010010011011001001001001101100000000000000000110110010011001001001001001100100100100100110010010010011010100100110010010010010000001001001001001000100100100100100110110110010000000000100000100001100100100100100100110110110011011011000100100100100110110000011011100000100101000001000000010010001010",
"101001001001011011011100100100101100100100100000010011001001001100100100110110010010010010011011011000011001001011011001001001001001101101101011011011001001101101100100100100100110110110110100100110110110110110110110010010010010010010010010011011001001101101100100110110010010010110010011011001001001101100100100100100000000110010010010011011011000001100100100110010010010010010010010011001001001001001001101100100100110110110100100100100001001100000001001001001001001001001001100100100100110110010001101100100100100001001001100100100110010010010010010011001001001001100100101011001001001001100100100100110110110010010011011001001001001001001000010011011011011011010010010011011000000000000000000000100001011010011011011001001100001010011011011001000000101101100101010",
"100000000100100100100100100100010000100010010011010000001001001000000000000001000000100100100100100110100110100100100000010110010000010010010010000000000000000000100100100100100100000010010010000000000000001001001001001001101100101100000000000100100000000000000100100000000010000000000000100000000010010010011011011011001001001000000100100100100100100100100000100000001000000100000010100110110000000000001000000000000000000011011011011011001001000100100110110100110000001001000000000100000000000010010010010010011011001001001000100100000010010010000000001001001001001100100100000100001000000000000010000000000000000010000000001011001001001001001100100100100100100000010000010000001011011001001100100100100100000000000000000000000100101100100100110110110010010000000010",
"100100100100100100100010011001010011001001101100101100100110010010011011001001001100100100100100001001001001000100100100110110010010010010000100100100110110010011011011011011011011001101001001001001001001001001001001000010010010010001001101100100100110010011011011001001101101001001001100110110010010010010100000100100100100001001000100000000000010010010011011001001101101100101101001001000100110110100110010011011001001001100100100100100010010010010000010000000100110110110110010011011001001001101100010000000000100110110010010011011001001001101100100100100100010010010010010100100110110010010010011011001001001001101100100100100110100110110010010000000100011101001101100100100100100100100110010010011001100101100100100110010011011000000101100001000010010110010011010",
"101001001011011011011000001001001001000100000100000000000000000000100100100110010010010010011011001001001001011011011001001001001101001101100000010000000000000000000010000100100000000000000100100100010100110110110110010010010010000000000010010001001001000000100000000010010010010110010010001001101101101100100100100100100110110010010010011010010010010000000000000010010010011010011001001001001001001001000000100000000000000100100100100100110010010011001001001001001001001001000000000000000000000000101101100100100110110010000010000000000000000000000000100100000000000010100001011001001000000000101100100100100100010000000100100000100100100010010010010011010010011000000000000000100100100100010010010010001010011000001001000010000000000011001001001001101000000100101010",
"101000001000100100100100110100100110110010010011011011011001101100100100110110010010000000100100100100110100100001101100000000010010010010010010011011001001101101100100100100100110110110110010110110010000001001001001001001100101100110110010010011001001001101100100110110010010010011010010011010000010010010000001001001001001001000000000100100101101101101100100110110010000000100110110010010010010011001001101100100100110010011011011011001001101100100100100100110011001001001001100100100110110110010010010010010001001001001001100100100110110110010010011011001001001101101100100100001001101100100100000100100110100010010011011011011001001001001001100100100100100100110110010011011011001001001101101101100110100010011011001001100100100100110110100110010000101001000100010",
"100110100100100100100100000010010011001000100000100000100010010010010011001001001101100100100000000000000000000100100000001000010010010000010000000100100000010000000000011001001001000001001000000000000001000000001001000000010000000001001001100100100110010010011011001001000000000000100000100010010000010000010000000001001001000001000100100000000000000001001001001001001100100000000000000000010000000100010010000001000001100000000000100000010010010000000000000000000000110110010010000001000000000000000000010000000100001000000010000001001001000000000000000100000000010000000000000100100000010010011011011001001001001000100100100000000100000000000000000000000000000001000000000000000000000000000000010001001001001100100110010010000000000000000001000000010010010010010010",
"101001001011010010011011001001001001001001100100100100100110010010010001000000010010010010010011011001011011001001011001001001001101101100101100100100110010010010010010010001001001001000001101100101100100100100110110110010010010011001001000000000000100010010000011001001001100100100100100100101101100101100100100100100110110110010010010010010010010010010011001000110110011011011001001001001000100100100010010001001001001101100100100100110010010011011011001001001001001001000010010011011001001001100101100100100100100100110010010011001001001001001100100100100110110110010010011011011001011001100100100100001001001001100100100100100110100110010010010011011011011001001001100100100100100100110110010010011001000000100100000010010011011001001001001001101101101101101001010",
"100010000100100100100100000000100110010010010011011011001001001101100100110110010010000010100100100100100100100100100100100110010010010010010010011011001001101101100100100100100110110010010010010010010000100001001001001001100100100100110010011001001001101101100100110110010010010011011011011010010010010010011001001001001001001000010010001101101100100100100100110000010000100100100010010010010010011011001101100100110010010010010011001001001001100100100000100000010011001001101100100100110110010010010010010010001001001001001100100100110110010010010011011001001001001100100100100100000101001011010000100110110110010010011011011001001001001001100100100100100100110110010010010011001001001001001001100100110110110010011001001100100100110100110100110010010010000000101010",
"100010100100100100100100100100100110000010010000010000001000001000000000001001001101101100100100100100100100100100100100110110010010010010010010010000001001000000000100000000000000010010000010010010010011011001001001001000000100100100000010000000000000010000000000000000010010000000010000110000010010010010010011001001001001001101101101101010001000000000101000001001001100100100100010010000010010000000001000000000000010010010010010001001001000000100100100100100100010110001000000000100100000010010010010010001000001001001000000000100100000000010010010000000001001000000100100100100100110010010011011011000000000000010000000001001001001001001001100100100100100110000010010010010000001001001001001000100100001000000000000000100100100000000000000010010010010010010000010",
"101001001011011010011011001001001001001001101100100100110110010010010011001001000010010010010011011011001001001011001001001001001101101101101100100100110110010010010010011011001001001001101101101101101100100100110010110010010011011001001001101100110110010010011011001001001101101100100100100100101101101100100100100100110110110010010010010010010010010011001001000100110010011011011001001001101100100100110010011011001001101101100100100110110010011011011011001011001001000110010010011001001001001100100100100100100100100110010010011011001001001101101100100100110110010010010011011011011001000100100100011011001001001101100100100100110100110010010010011011011001001001101101101100100100100110110110010011001001001100100100010010011011001001001001001101101101101101001010",
"100010000100100100100101000100100100100010010010010001001001001000100100110110110010010010100000100100100100100100100000000010010010010010010010010011001001001101000100100100100100010010010010010010010010000000001001000000100100100100110010010001001001100100100100100010010010010010010011010010010010010010000001000001001010010000000000001001001000100100100100110110010000100100100010010010010010001001001000100100110010010010010000000001001001000100100100100100010000001001001100100100110010010010010000010000000000001001001100100100100000010010010010001001001001001100100100100100100001001001001000100110010010010010011011001001001000001001001100000100100100010010010010010010000001001001001000001100100110010010011001001100100100110100100100010010010010010010110010",
"101010010100100100100100100100100110110110010010010001001001001000100100100000000001101101100100100100110110110100100110110110010010010010010010011011001001001000101100100100100110110010010010010010010011011001011001001101101100100100100010010011001001000100100100100110010010010010010010010010010010010011011011001001001011101101101101001001001101100100100110110001001101100100100110010010010010001001001000100100110010010010011011001001001001100100100100100100110010111001001100100100110110110010010011011011001001001001001000100100100110110010010010001001001001001000100100100100110110110001001001001100100110010010010011001001001001001001001000100100100110110110010010010011011011001001001001101101100110010010011001001000100100110100100100110010010010010010110010",
"101101001001011010011001011001011001001001101100100100100110110010010011011001001100010010010010011001001001001001001001001001101101101101100100100100110110010010010010011011011001001101101101101101100100100000001000010010010011001001001101100100110110010010011011011001001101101101101100100100100100100100100100100110100110000010010010110110010010011011011001000000000010011001001001001101100100100110110010011011001001001100100100100110010010011011011011011011001001000110110010011011001001001101100100100100100100100110010010011011001001001101101100100100110110110010010011011001001001000000110110011001001001101101101100100110110110110010010010010011001001001001101100101100100100100100110010010010001001001101100100110011011011001001001001001001001001101101001010",
"100000100100000010100000000000100000000000010000000000000001000000100100100000010010010000010000000000001001000000000000000000000000100010000100000100000000000000100100000100000000000000010010010000000010100100000010010000000100000000000000000000000000000000000000000000010010010010010010000010000010100000000100000000000010010110101001001001000100100100000000000100000000000100001000000000000000000001000000000100000000000000000000001000000000000100001000000000001011000000000000000000000000000000000000100000000001001001000000000000000000000000010000000000000000000000000000000100001001001000001000000010000000010000000000000000000001000000000000000000000000000000010000000000100001000001000010010000000000000000000000000000100100000000000000000000000000000000000010",
"101001001001100100100100100110100110110110010010011011001001001101100100100110000001001001100100100100110110110100100110110010011011010010011011010011011001101101100100100100100100110010010010010010010011011001001001001001101100100110110010011011001001101101100100110110010010010010010010011011011010011011011011001001001001001010001001001001001101100100110110011001101100100100110110010010011011011001001101100100110110010010011011001001101100100100100100100110110010010011001100100100110110110010011011011011001001001001001100100100110110010010010011011001001001001101101100100100110110010011001001101100100110010010011011001001001001001101001101101100100110110110010010010011011011001001001001101100100110110010011011001101100100110100110110110010010010010010110010",
"100100100100000010001001000001001001001001101100100100100110010010010011001001001101000000010000001001001001001001001001001000000100100100100100100100100100010010010001011001001001001101101101100000001000001001001001010010010000001001001001100100110110010010011001001001001101100100101100100100100100100100100000000000110001001010010100110110010011010011000000100110010010010001001000000000100100100100010010001001001001000100100100100010010010011011001011001001001000000000110010001001001001001100100100100100100110110010010010011001001001001100100100100100110010010010010011011001001000000100110010010000001001001101100100100100110110010010010010000000001001001001001100100100100100010010000000000000001001101100100100010010011011001001001001001001001001001101001010",
"101000100100010010011011001001001000001001001000100100100100000010010010001001000110110010010011011001001001001001001001001001100100100100100100100100100100000010010010011000001001001000010000000001001100010110110010110010010011001001001001100100100100010010010000001001000010010010100010000000100100100100100100100110110110110100101000000000010010000001001000100100010010010001001001001000100100100100010010011001001001001000100100100100010010010001001010001001001001100100010010010001001001001000100000100100100100100010010010010100001001001000100100100100100010010010010010001001001001101100000010010010001001001000100100000000000000110010010010010010001001001001001001000100100100010000010010010011010011000000100100010010010001101001001001000001001001001001000010",
"101001001001101100100100100100100100110110010010011001001001001100100100110110010001001001101100100100100110110100100110110110010011011011001011010010011011011100100100100100100110110010110010010010110000001001001001001001101101100100110010011011001001101101100100110110110010010010010010011011011011011011011011011001001001001010011011001001101100100100110010010001001101100100110110010010010011001001001101100100110110010010011011001001101101100100100100100100110010001010110100100100110110010010010011011011001011001001001101100100110110110010010011011011001001001101101100100110110010010011001101100100100110110010011011011001001001001101001101100100100110100110110010010011011011001001001001001101100100110010011011001101100100110100110110110010010010010010010010",
"100100100100100100100101001000000001001000000000100000000000010000000001001001000001001010000000000000101001001001001000000000000100000000100100010000000000100010000100000000001001001001001001000001000011001011001001000010000010001001001000000000000000010010010001000001001001100100100100100100100100100100100000001000001001001000000100100010010000001000000010011000001001100100000000000000100100000000000000001001001000000000000000001000000010000001001001000001000010001101001100100001000000000000000100100001001000001000000000000000001000000000000100100100000000010010010000000100000010010000010010000001000000000000000100100000000010001001010000000000000000001001000000000000000000000000000000000010000101101000100000000000001011001001001000001001001001001001101010",
"100110010010010011011001001001011011001001001100100100110110110010011011001001100110010110010011011011001001101001001001001101100100100110110001001100100101101100101010011011011001001000001000101101000000010000000100110110010011011001001101100100110110010010011011001001001001001100000100100100100100100100100100100110110100100100101100100110010010011001001101100100010010011001001001001101100100100110110010011011001001001100100100110110010010011001001001011001001000010001001011011001001001001100100100100110110100110110010010011011011001001101101100100100110110010010010011011011001001000100000010010011011001101101100100100110110010110010010010011011011011001001001101101100100100110110110110010010011011001100100100110010010001001001001001001001001001001001101010",
"101001001010011010000100100100100100100010010010011001001001001000100100110110000000000000000000100000100000100100100110010010010011001001001000100100010010010010010100100100100100100110110010010000100100100110100001001000000100100100000010010001001001001001100100100100110110010010010011011011001011001000000000001000000000010010010011011001100100100100000000000100001000000000010010010010001001001001001000100100110010010010000000001001000000100110100100110010100100100010110010010100100010010010010011001001000000100110000010000000100010010010010010011001001001001000100100100000000001001001101100100100100110000010010011011001001101100101000000100000100100100110110010010010001001001001001000000000000010010010001001000000100100110110100010010010110010010010010010",
"100100100100100100100110011010000001000000000000000100000000000000000101000001001001001001101100100100110110010001000000010010000000001000010000100100000010010010010101000010001001001001001000100011001001001001001010001001001100100100100010010001000000000000010000000010001001001100100100100100100100000001011011011001001001001000100000100010010001000000010010011001001101100100000000010010000100000000000100100100000000010000011011001001001100101001001001001101001001001001001100101100001000011000100100001000010011001001101100100100100000010010000000000001001001001000000100100000110010110010010010001000100100010010000000000001010010011001001000000100100100100001000000010010000001001001001001001000101100100100100101001001001001001000000001010001001001001000000010",
"101001010010010010010000011001011001001001101101100100100110110010011011000100100100010010010010011001001001000001001001100100100100110110010011001011001001101100100100011010000100000000000100100101001000001000000100110110010011011001001001100100100110110010010011001001001000001000100100100100100010100100100100100100100100001000100100100110010001001001101100100100010010011001001001101100100100100110010010011001001001101100100100100110010010010001001000000001010011001000000000010011001001101100110100110110010010001000010010011011001001001100100100100100110110010010011011001001001001000010010001001001001001001001100100100110110010100100010010010010010011011001001001100100100100110110010010010010010010010100100100010010011001001001001000001001001000001101101010",
"100100100001010011011001100100100100010010010000010001001001001100100110010000100110010010010010000001001001100100110100000100100000001001000100100100010010010000101001001000100100110010010011011010110100110100100100100000010010000001001000000100001001001101100100100100110110110010010011011001001001001000100001000100100010110010011011011001000110100000000100100100100010000001000000010000000001001100100100100001001001000000100100100000010010010110110110110010010110110100110010010001000010110010010001001100100100110110010010011001001010010010010010001001000010010010000100001001001101001101101100100100001001000000010011001001001100100100100010000010000000000000110010000100100000000000000010010010010010010011011000010010010110100000001001010010010010010010010010",
"101000100100101100100100001000100100000010010010010011001001001000100100101001001001001001101100100110110110010000000010010011011011001001000000000100110010010010011011001011000011001001101100100000000000001001011011001001101101100100110110011011001001001001000010010010000001001000000100100100100100100011011011011011001001101000000110011001001000110010011011011001001001100100110110011011011001001001100100100100110010010011011011001001101001101001001001001001001001000001001000101100000100000000111001001001000000001001101101100100100110010010010011011011001001101101100100100110110010010010000000000000110110110010011010001001000010000001001101101100101100100100100010011011011011001001101001001101101100101100100101101101101100010010010100101001001000010010010010",
"101001000000000000010000010001001011001001001100100100100110110011011011110100100000000000010010000001001000001001001101100100100100100110010010011011001001101100100100110100100000001000000000100110001001001001000000000110010010010011001000000100100110110110010000010011001001001101100100100100100000110000000100100100100000001000100100100110110011001000000000000000000010010001001001100100100100110110010010001001001001001000100100100110010010010000000001001000110011011001001000100100010001001100000010110010010001001000000000000000001001001101101100100100110010010010011001001001001000000010010011011001001001001001000100100110110010001010010010010010010010011001001001000100100100110110010010010010010010100000100000010010010001001001001011010011001001001101101010",
"100110010010010011011001001100100100100001000000000000100000000000000000000100100110110010010011011011001000000100000000100100100100000000000000000000001000000000100001001001000100110110010010010100100100100110100100100100010010100000001001100100100111001001001000100100100110010010010011011001001001001101101001100100100110010010010010000100100100101101100100100100110010000011000000000000100100001000000000001001001001001100100100100100100010010010110110110100010010000100110010010011011011000010010010000000100100110110010010011011001010010000000100100000000010010010010000001001001101001101100100100100001001000000100100001000001100100100100010010000010010000001100100100100100100010110010010010010010011010010010010010010010010000001001000010010110010010010001010",
"100010000100100100100101001001000100110010010010010011001001001100100110011001001001001001100100100100110110010010110011011011011011001001101100100110110010010010011011001001001000000000000101001001100100100000011011001001001101100100110110011011011001001001001100000100100100110010010010001011001010010010010011011011001000010010010011011011011000010010010010000001001001100100010110010011011011001001101100100100110010010010011011001001101001001101001001001001001101100100100010000000000000011001001101001001100100100000000010000100100110010010010011011001001001001100100100110110110010010000000100100110110110010010010011011001001000101001000101101100100101100100100000010011011011001001101001001001101000100100100101101101100100110110110100101100110100010010010010",
"101001000100100100100110001001011001001000000000000000100100010010010000100100001001001001000100100100100010000001000000100000000100000010000010001001001000000000000100100000001001001001000100100001001011001001000000000000000010000100000010010001001000010010010010011011011001001001100100100100110010010010010010010000101001101001100100100100000001010010010010001001001000000100100000100000100100000010010000000100000000010010010000100100000001000001001001001000000010011011001001100100100100101000010010010001011011001001001101100100100101001001100000100000000001000000000000000000000010010010011010000001001000010000000000100100110010011000001000000000100000000010011010010010000000001001001000000001001100100100100100010010000100101001000000010000001001101001101010",
"100110011011011011011001010010100110101101101100101100100000001001001100100000110010110010010010011011001101101100100100100100100100110010010010000001001001001000100100100100100110110010010010010010110110100100100100110100100010011011011000100100100101100101101100100100100100000010010010001001001001101101101101101100100100000000000000000100100100101100100100110110110110010011001000100100100100100100100011001001001001001100100100000100100010010010110110110110110010010001000000001001001001010010010010010010010100110000010010011011010010110010000100100100010010010011011011001001101101101100100011001001001101101001100100100100100100100110010010010010010010010000010101100100100110100110010010010010010010010010011010010010011011001001001001001001001010011010010010",
"101000000100100100100100101001001000010010010010010011011001000100010010011001001001001000000000100100010010010010011011001001001001001001001000100100010010010010011011001001001001001001001001100101001001000010011011001011001000100100100100101001011010010010010000100100100010110010010010011011010010010010010010010010010010010010010011011011011010010010010010001001001001000100010000011010011001011000000100100100110010010000011010011011001001001001001001001001001001001100110010010000000001001001101001001101100100100010010000100100000100001001001011011001001001100100100100110010010010010010010100110110110010010010010010010011001011001001001001100100100100101101101000010010011001001001001001001001001001101101100101101100100100100110100100100100100100100100100010",
"101001000100100100100100100010011001100010010011000010000000010010010010000001001001001001100100100100110010010010010000001000000001001001001000100100000000010010000100001001001001001001001000000110001001010010010011001010001000100100100010011001001010100010010011011011011001001000100100100100010010010010010010010011001101101000010000000010000000010010011011001001001001100100101010000000000001001011011000100100100010010011010000000000001001001000001001000000001001001001001000010010100110100000010010000000000001001001001100100100100101001001100001001001000001101100100100100010010010000010001100000100000010100010010010010000110001011001000000100100100100100010001000010010001001001001101001001001001001001000100000000100100100100000000000100100000000100101101010",
"100010110010001001011011000010010000101101101100101100100100101001001000100110110110110010010010011011001001101100100100100110100110110110110011011011001001101101100100100110100110110110110010010010110110101100100100100100110110010011010010000100100100100100100100101000001001001000100100100100100101101100101101001100000000001100100100100100100100101100100100100110110110001001001001000100100100100100100011001001001001001000100101100100110010110010010110110110110010010001001001001001001001000010010010010010010011001001000010011011010010010110100100100100110010011011011011001001001101101100110011001001001001101101101100101100100110110110010010011010010010010010010101101100100110110110010110010010110010010010010010011011011011001001001011011011001011010010010010",
"101001001100010100100100101001001110010010010010010010011011010100100011001001001001000000000100100100110010010010010010011001001001001001001001100100100010010010010011001001001001001001000100100101001001010010010011011011001001000100101101001001011010010010010010010110110110010010010010010011011010010010010010010010010010010010010010010001011010010010011011001011001001010010010010010011011010010010010110100100110110110110110010010011001001001001001001001001001001001010110010010010110100101101001001101101101100100010010010100100101001001001001011001001000100100100100100010010010010010010010010010010010010010010010010010010001001001001001100100100100101101101101010010010001001001001001001001001001001001001101101100100100100100100100100100100110100110100100010",
"101001001100000100100100000001001000010010010010010010010011010100100011010001001001000001000100100100010010010010010000011001001001001001001001100100010010010010010001001001001001001000000100100101001001000010010010010010001001000100000100001001001010010010010010010010010010010010010010010000000000010010010010010010010000010010010010010000000000010010010001011010001001000010010000000000010010011010010000100100100100110110010000010010001001000001001001001001001001001010100010010000010000100001001001001001001100100101001100100100101001001001000010010001101100100100100100110010010010010010010010110000010010010010010000010010011001001101001101100100101000001001001000010010011000001001001001001001001001001101100101100100100100100100100100000100000100000001101010",
"111111111111111111111111111111111111111111111111111111111111111111111111111111111111111111111111111111111111111111111111111111111111111111111111111111111111111111111111111111111111111111111111111111111111111111111111111111111111111111111111111111111111111111111111111111111111111111111111111111111111111111111111111111111111111111111111111111111111111111111111111111111111111111111111111111111111111111111111111111111111111111111111111111111111111111111111111111111111111111111111111111111111111111111111111111111111111111111111111111111111111111111111111111111111111111111111111111111111111111111111111111111111111111111111111111111111111111111111111111111111111111111111111111111111111111111111111111111111111111111111111111111111111111111111111111111111111111111110",
"111111111111111111111111111111111111111111111111111111111111111111111111111111111111111111111111111111111111111111111111111111111111111111111111111111111111111111111111111111111111111111111111111111111111111111111111111111111111111111111111111111111111111111111111111111111111111111111111111111111111111111111111111111111111111111111111111111111111111111111111111111111111111111111111111111111111111111111111111111111111111111111111111111111111111111111111111111111111111111111111111111111111111111111111111111111111111111111111111111111111111111111111111111111111111111111111111111111111111111111111111111111111111111111111111111111111111111111111111111111111111111111111111111111111111111111111111111111111111111111111111111111111111111111111111111111111111111111111"
};
