/* XPM - hand-composed 1-bit LCD artwork */
static const char *retro_gaming[] = {
"768 512 2 1",
"  c #FFFFFF",
". c #000000",
"................................................................................................................................................................................................................................................................................................................................................................................................................................................................................................................................................................................................................................................................................................................................................................................................",
"................................................................................................................................................................................................................................................................................................................................................................................................................................................................................................................................................................................................................................................................................................................................................................................................",
"................................................................................................................................................................................................................................................................................................................................................................................................................................................................................................................................................................................................................................................................................................................................................................................................",
"................................................................................................................................................................................................................................................................................................................................................................................................................................................................................................................................................................................................................................................................................................................................................................................................",
"................................................................................................................................................................................................................................................................................................................................................................................................................................................................................................................................................................................................................................................................................................................................................................................................",
"................................................................................................................................................................................................................................................................................................................................................................................................................................................................................................................................................................................................................................................................................................................................................................................................",
"................................................................................................................................................................................................................................................................................................................................................................................................................................................................................................................................................................................................................................................................................................................................................................................................",
"................................................................................................................................................................................................................................................................................................................................................................................................................................................................................................................................................................................................................................................................................................................................................................................................",
".................            ......            ......         ......            ......               ........................         .........         ......            ...............   ......               ......         ..........................               ...   .........   ...               ...            .........            ...   .........   ...............................................................................................................................................................................................................................................................   ...............               ...   .........   ...               ...   ....................................         ...............   ....................",
".................            ......            ......         ......            ......               ........................         .........         ......            ...............   ......               ......         ..........................               ...   .........   ...               ...            .........            ...   .........   ...............                                                                                                                                            ....              ....              ....              ....              ............................   ...............               ...   .........   ...               ...   ....................................         ...............   ....................",
".................            ......            ......         ......            ......               ........................         .........         ......            ...............   ......               ......         ..........................               ...   .........   ...               ...            .........            ...   .........   ...............                                                                                                                                            ....              ....              ....              ....              ............................   ...............               ...   .........   ...               ...   ....................................         ...............   ....................",
"..............   ...............   ...............   .........   ...   .........   ...   .................................   .........   ...   .........   ...............   .........      ......   ...............   .........   .......................   ...............      ......   ...   ...............   .........   ...   ...............   .........   ...............                                                                                                                                            ....  ..........  ....  ..........  ....  ..........  ....  ..........  ............................   ...............   ...............   .........   ...   ...............   .................................   .........   .........      ....................",
"..............   ...............   ...............   .........   ...   .........   ...   .................................   .........   ...   .........   ...............   .........      ......   ...............   .........   .......................   ...............      ......   ...   ...............   .........   ...   ...............   .........   ...............                                                                                                                                            ....  ..........  ....  ..........  ....  ..........  ....  ..........  ............................   ...............   ...............   .........   ...   ...............   .................................   .........   .........      ....................",
"..............   ...............   ...............   .........   ...   .........   ...   .................................   .........   ...   .........   ...............   .........      ......   ...............   .........   .......................   ...............      ......   ...   ...............   .........   ...   ...............   .........   ...............                                                                                                                                            ....  ..........  ....  ..........  ....  ..........  ....  ..........  ............................   ...............   ...............   .........   ...   ...............   .................................   .........   .........      ....................",
"..............   ...............   ...............   .........   ...   .........   ...   .................................   ......      ...............   ...............   ......   ...   ......   ...............   ......      .......................   ...............   ...   ...   ...   ...............   .........   ...   ..................   ...   ..................                                                                                                                                            ....  ..........  ....  ..........  ....  ..........  ....  ..........  ............................   ...............   ...............   .........   ...   ...............   .................................   ......      ......   ...   ....................",
"..............   ...............   ...............   .........   ...   .........   ...   .................................   ......      ...............   ...............   ......   ...   ......   ...............   ......      .......................   ...............   ...   ...   ...   ...............   .........   ...   ..................   ...   ..................                                                                                                                                            ....  ..........  ....  ..........  ....  ..........  ....  ..........  ............................   ...............   ...............   .........   ...   ...............   .................................   ......      ......   ...   ....................",
"..............   ...............   ...............   .........   ...   .........   ...   .................................   ......      ...............   ...............   ......   ...   ......   ...............   ......      .......................   ...............   ...   ...   ...   ...............   .........   ...   ..................   ...   ..................                                                                                                                                            ....  ..........  ....  ..........  ....  ..........  ....  ..........  ............................   ...............   ...............   .........   ...   ...............   .................................   ......      ......   ...   ....................",
".................         ......   ...............   .........   ...            ......            ........................   ...   ...   ............   .........         ......   ......   ......            ......   ...   ...   .......................            ......   ......      ...            ......            ......   ...         .........   .....................                                                                                                                                            ....  ..........  ....  ..........  ....  ..........  ....  ..........  ............................   ...............            ......   .........   ...            ......   .................................   ...   ...   ...   ......   ....................",
".................         ......   ...............   .........   ...            ......            ........................   ...   ...   ............   .........         ......   ......   ......            ......   ...   ...   .......................            ......   ......      ...            ......            ......   ...         .........   .....................                                                                                                                                            ....  ..........  ....  ..........  ....  ..........  ....  ..........  ............................   ...............            ......   .........   ...            ......   .................................   ...   ...   ...   ......   ....................",
".................         ......   ...............   .........   ...            ......            ........................   ...   ...   ............   .........         ......   ......   ......            ......   ...   ...   .......................            ......   ......      ...            ......            ......   ...         .........   .....................                                                                                                                                            ....  ..........  ....  ..........  ....  ..........  ....  ..........  ............................   ...............            ......   .........   ...            ......   .................................   ...   ...   ...   ......   ....................",
"..........................   ...   ...............   .........   ...   ...   .........   .................................      ......   .........   .....................   ...               ...............   ...      ......   .......................   ...............   .........   ...   ...............   ...   .........   .........   .........   .....................                                                                                                                                            ....  ..........  ....  ..........  ....  ..........  ....  ..........  ............................   ...............   ...............   .........   ...   ...............   .................................      ......   ...               .................",
"..........................   ...   ...............   .........   ...   ...   .........   .................................      ......   .........   .....................   ...               ...............   ...      ......   .......................   ...............   .........   ...   ...............   ...   .........   .........   .........   .....................                                                                                                                                            ....  ..........  ....  ..........  ....  ..........  ....  ..........  ............................   ...............   ...............   .........   ...   ...............   .................................      ......   ...               .................",
"..........................   ...   ...............   .........   ...   ...   .........   .................................      ......   .........   .....................   ...               ...............   ...      ......   .......................   ...............   .........   ...   ...............   ...   .........   .........   .........   .....................                                                                                                                                            ....  ..........  ....  ..........  ....  ..........  ....  ..........  ............................   ...............   ...............   .........   ...   ...............   .................................      ......   ...               .................",
"..........................   ...   ...............   .........   ...   ......   ......   .................................   .........   ......   ........................   ............   ..................   ...   .........   .......................   ...............   .........   ...   ...............   ......   ......   .........   .........   .....................                                                                                                                                            ....  ..........  ....  ..........  ....  ..........  ....  ..........  ............................   ...............   ..................   ...   ......   ...............   .................................   .........   ............   ....................",
"..........................   ...   ...............   .........   ...   ......   ......   .................................   .........   ......   ........................   ............   ..................   ...   .........   .......................   ...............   .........   ...   ...............   ......   ......   .........   .........   .....................                                                                                                                                            ....  ..........  ....  ..........  ....  ..........  ....  ..........  ............................   ...............   ..................   ...   ......   ...............   .................................   .........   ............   ....................",
"..........................   ...   ...............   .........   ...   ......   ......   .................................   .........   ......   ........................   ............   ..................   ...   .........   .......................   ...............   .........   ...   ...............   ......   ......   .........   .........   .....................                                                                                                                                            ....  ..........  ....  ..........  ....  ..........  ....  ..........  ............................   ...............   ..................   ...   ......   ...............   .................................   .........   ............   ....................",
"..............            .........            ......         ......   .........   ...               ........................         ......               ...            ...............   ......            .........         ..........................               ...   .........   ...               ...   .........   ......            .........   .....................                                                                                                                                            ....  ..........  ....  ..........  ....  ..........  ....  ..........  ............................               ...               .........   .........               ...               ........................         ...............   ....................",
"..............            .........            ......         ......   .........   ...               ........................         ......               ...            ...............   ......            .........         ..........................               ...   .........   ...               ...   .........   ......            .........   .....................                                                                                                                                            ....  ..........  ....  ..........  ....  ..........  ....  ..........  ............................               ...               .........   .........               ...               ........................         ...............   ....................",
"..............            .........            ......         ......   .........   ...               ........................         ......               ...            ...............   ......            .........         ..........................               ...   .........   ...               ...   .........   ......            .........   .....................                                                                                                                                            ....              ....              ....              ....              ............................               ...               .........   .........               ...               ........................         ...............   ....................",
"..................................................................................................................................................................................................................................................................................................................................................................................                                                                                                                                            ....              ....              ....              ....              ..........................................................................................................................................................................................",
"................................................................................................................................................................................................................................................................................................................................................................................................................................................................................................................................................................................................................................................................................................................................................................................................",
"................................................................................................................................................................................................................................................................................................................................................................................................................................................................................................................................................................................................................................................................................................................................................................................................",
"................................................................................................................................................................................................................................................................................................................................................................................................................................................................................................................................................................................................................................................................................................................................................................................................",
"................................................................................................................................................................................................................................................................................................................................................................................................................................................................................................................................................................................................................................................................................................................................................................................................",
"................................................................................................................................................................................................................................................................................................................................................................................................................................................................................................................................................................................................................................................................................................................................................................................................",
"................................................................................................................................................................................................................................................................................................................................................................................................................................................................................................................................................................................................................................................................................................................................................................................................",
"................................................................................................................................................................................................................................................................................................................................................................................................................................................................................................................................................................................................................................................................................................................................................................................................",
"................................................................................................................................................................................................................................................................................................................................................................................................................................................................................................................................................................................................................................................................................................................................................................................................",
"................................................................................................................................................................................................................................................................................................................................................................................................................................................................................................................................................................................................................................................................................................................................................................................................",
"................................................................................................................................................................................................................................................................................................................................................................................................................................................................................................................................................................................................................................................................................................................................................................................................",
"................................................................................................................................................................................................................................................................................................................................................................................................................................................................................................................................................................................................................................................................................................................................................................................................",
"................................................................................................................................................................................................................................................................................................................................................................................................................................................................................................................................................................................................................................................................................................................................................................................................",
"................................................................................................................................................................................................................................................................................................................................................................................................................................................................................................................................................................................................................................................................................................................................................................................................",
"                                                                                                                                                                                                                                                                                                                                                                                                                                                                                                                                                                                                                                                                                                                                                                                                ",
"                                                                                                                                                                                                                                                                                                                                                                                                                                                                                                                                                                                                                                                                                                                                                                                                ",
"                                                                                                                                                                                                                                                                                                                                                                                                                                                                                                                                                                                                                                                                                                                                                                                                ",
"................................................................................................................................................................................................................................................................................................................................................................................................................................................................................................................................................................................................................................................................................................................................................................................................",
"................................................................................................................................................................................................................................................................................................................................................................................................................................................................................................................................................................................................................................................................................................................................................................................................",
"................................................................................................................................................................................................................................................................................................................................................................................................................................................................................................................................................................................................................................................................................................................................................................................................",
"................................................................................................................................................................................................................................................................................................................................................................................................................................................................................................................................................................................................................................................................................................................................................................................................",
"................................................................................................................................................................................................................................................................................................................................................................................................................................................................................................................................................................................................................................................................................................................................................................................................",
"................................................................................................................................................................................................................................................................................................................................................................................................................................................................................................................................................................................................................................................................................................................................................................................................",
"................................................................................................................................................................................................................................................................................................................................................................................................................................................................................................................................................................................................................................................................................................................................................................................................",
"................................................................................................................................................................................................................................................................................................................................................................................................................................................................................................................................................................................................................................................................................................................................................................................................",
"................................................................................................................................................................................................................................................................................................................................................................................................................................................................................................................................................................................................................................................................................................................................................................................................",
".............................    ...............................................................................................................................................................................................................................................................................................................................................................................................................................................................................................................................................................................................................................................................................................................................................................",
".............................    .................................................................................................................................................................................................................................................................................................................................................................................  ............................................................................................................................................................................................................................................................................................................................................................................",
".......  ....................    .................................................................................................................................................................................................................................................................................................................................................................................  ............................................................................................................................................................................................................................................................................................................................................................................",
".......  ....................    ................................................             ..............................................................................................................................................................................................................................................................................................  ..................................................................................................................................................................................................................................................................................................................................................................................................",
"............................................................................     .............     .........................................................................................................................................................................................................................................................................................  ...........................       ................................................................................................................................................................................................................................................................................................................................................................",
".........................................................................   .......................   .................................................................................................................................................................................................................................................................................................................   .....   ..............................................................................................................................................................................................................................................................................................................................................................",
"......................................................................   .............................   ...............   ...........................................................................................................................................................................................................................................................................................  .........  .............................................................................................................................................................................................................................................................................................................................................................",
"....................................................................  ...................................  ........     .............................................................................................................................................................................................................................................................................................  ...........  ............................................................................................................................................................................................................................................................................................................................................................",
"..................................................................  .......................................  .     ......................................................................................................................................................................................................................................................  .........................................  .............  ...........................................................................................................................................................................................................................................................................................................................................................",
"................................................................  .......................................      ..........................................................................................................................................................................................................................................................  ......................................... ............... .........................................................................................................................................................................................................................................................................................................................  ................................",
"..............................................................  ....................................     ......  ..................................................................................................................................................................................................................................  ..............................................................  ...............  ........................................................................................................................................................................................................................................................................................................................  ................................",
".............................................................  ................................     ............  .................................................................................................................................................................................................................................  .............................................................. ................. ..................................................................................................................................................................................................................................................................................................  ......................................................",
"............................................................ .............................     ................... ................................................................................................................................................................................................................................................................................................ ................. ..................................................................................................................................................................................................................................................................................................  ......................................................",
"..........................................................  .........................     .........................  ...   ........................................................................................................................................................................................................................................................................................ ................. ..........................................................................................................................................................................................................................................................................................................................................................",
".........................................................  .....................     ..............................     ........................................................................................................................................................................................................................................................................................... ................. ..........................................................................................................................................................................................................................................................................................................................................................",
"........................................................  .................     ..............................     ..  ............................................................................................................................................................................................................................................................................................ ................. ..........................................................................................................................................................................................................................................................................................................................................................",
".......................................................  .............     ..............................     ........  ...........................................................................................................................................................................................................................................................................................  ...............  ...............................................................................................................................................................................................................................................................................  .........................................................................",
"......................................................  .........     ..............................     ..............  .................................................................................................................................................................................  ........................................................................................................ ............... ................................................................................................................................................................................................................................................................................  .........................................................................",
".....................................................  .....     ..............................     ....................  ................................................................................................................................................................................  ........................................................................................................  .............  ..........................................................................................................................................................................................................................................................  ...............................................................................................",
"....................................................  .     ..............................     ..........................  .........................................................................................................................................................    .............................................................................................................................  ...........  ...........................................................................................................................................................................................................................................................  ...............................................................................................",
"....................................................   ..............................     ..............................   .........................................................................................................................................................    ..............................................................................................................................  .... ....  .............................................................................................................................................................................................................................................................................................................................................................",
"................................................... ............................     ..............................     ... ........................................................................................................................................................    ...............................................................................................................................   .. ..   ..............................................................................................................................................................................................................................................................................................................................................................",
".................................................. ........................     ..............................     ......... .......................................................................................................................................................    .................................................................................................................................       ................................................................................................................................................................................................................................................................................................................................................................",
".................................................  ...................     ..............................     ..............  .............................................................................................................................................................................................................................................................................................. ...................................................................................................................................................................................................................................................................................................................................................................",
"................................................. ...............     ..............................     .................... ...................................................................................................................................  ......................................................................................................................................................... ...................................................................................................................................................................................................................................................................................................................................................................",
"................................................ ...........     ..............................     .......................... ..................................................................................................................................  ......................................................................................................................................................... .........................................................................................................................................................................................................................    ......................................................................................................................................",
"................................................ ......     ..............................     ............................... ............................................................................................................  ............................................................................................................................................................................... .........................................................................................................................................................................................................................    ......................................................................................................................................",
"............................................... ....   ..............................     ..............................   .... ...........................................................................................................  ............................................................................................................................................................................... ...................................................................................................................................................................................................  ....................    ......................................................................................................................................",
"............................................... ................................     ..............................     ....... ............................................................................................................................................................................................................................................................................................ ...................................................................................................................................................................................................  ....................    ......................................................................................................................................",
".............................................. ............................     ..............................     ............. ........................................................................................................................................................................................................................................................................................... ...................................................................................................................................................................................................................................................................................................................................................................",
".............................................. .......................     ..............................     .................. ........................................................................................................................................................................................................................................................................................... ...................................................................................................................................................................................................................................................................................................................................................................",
"............................................. ...................     ..............................     ........................ .......................................................................................................................................................................................................................................................................................... ...................................................................................................................................................................................................................................................................................................................................................................",
"............................................. ..............     ..............................     ............................. .......................................................................................................................................................................................................................................................................................... ................................................................................................................................................................................  .................................................................................................................................................................................",
"............................................. .........     ..............................     .................................. ................................................................  ........................................................................................................................................................................................................................ ................................................................................................................................................................................  .................................................................................................................................................................................",
"............................................ .......   ..............................     ..............................   ....... ...............................................................  ........................................................................................................................................................................................................................ ..........................................................................................................................................................  .......................................................................................................................................................................................................",
"............................................ ...................................     ..............................     .......... ......................................................................................................................................................................................................................................................................................... ..........................................................................................................................................................  .......................................................................................................................................................................................................",
"............................................ ..............................     ..............................     ............... ......................................................................................................................................................................................................................................................................................... ...................................................................................................................................................................................................................................................................................................................................................................",
"........................................... ..........................     ..............................     ..................... ........................................................................................................................................................................................................................................................................................ ...................................................................................................................................................................................................................................................................................................................................................................",
"........................................... .....................     ..............................     .......................... ........................................................................................................................................................................................................................................................................................ ...................................................................................................................................................................................................................................................................................................................................................................",
"........................................... ................     ..............................     ............................... ........................................................................................................................................................................................................................................................................................ ...................................................................................................................................................................................................................................................................................................................................................................",
"........................................... ...........     ..............................     .................................... .....................  ................................................................................................................................................................................................................................................................. ...................................................................................................................................................................................................................................................................................................................................................................",
"........................................... ........   ..............................     ..............................   ........ .....................  ................................................................................................................................................................................................................................................................. .................................................................................................................  ................................................................................................................................................................................................................................................",
".......................................... .....................................     ..............................     ...........  ....................................................................................................................................................................................................................................................................................... .................................................................................................................  ................................................................................................................................................................................................................................................",
".......................................... ................................     ..............................     ................  ....................................................................................................................................................................................................................................................................................... ...................................................................................................................................................................................................................................................................................................................................................................",
".......................................... ...........................     ..............................     ...................... ....................................................................................................................................................................................................................................................................................... ...................................................................................................................................................................................................................................................................................................................................................................",
".......................................... ......................     ..............................     ........................... ....................................................................................................................................................................................................................................................................................... ...................................................................................................................................................................................................................................................................................................................................................................",
".......................................... .................     ..............................     ................................ ....................................................................................................................................................................................................................................................................................... ...................................................................................................................................................................................................................................................................................................................................................................",
".......................................... ............     ..............................     .................  .................. ....................................................................................................................................................................................................................................................................................... ...................................................................................................................................................................................................................................................................................................................................................................",
".......................................... .........   ..............................     ......................  ......   ......... ....................................................................................................................................................................................................................................................................................... ........................................................................  .........................................................................................................................................................................................................................................................................................",
".......................................... .....................................     .....  .......................     ............ ....................................................................................................................................................................................................................................................................................... ........................................................................  .........................................................................................................................................................................................................................................................................................",
".......................................... ................................     ..........  ..................     ................. ....................................................................................................................................................................................................................................................................................... ..................................................    .............................................................................................................................................................................................................................................................................................................",
".......................................... ...........................     ..............................     ...................... ....................................................................................................................................................................................................................................................................................... ..................................................    .............................................................................................................................................................................................................................................................................................................",
".......................................... ......................     ..............................     ........................... ....................................................................................................................................................................................................................................................................................... ..................................................    .............................................................................................................................................................................................................................................................................................................",
".......................................... .................     ..............................     ................................ ....................................................................................................................................................................................................................................................................................... ..................................................    .............................................................................................................................................................................................................................................................................................................",
".......................................... ............     ..............................     ..................................... ....................................................................................................................................................................................................................................................................................... ...................................................................................................................................................................................................................................................................................................................................................................",
"........................................... ........   ..............................     ..............................   ........ ........................................................................................................................................................................................................................................................................................ ...............................  ..................................................................................................................................................................................................................................................................................................................................",
"........................................... .....    ...........................     ..............................     ........... ................................................................................................................................................................................................................................................ ................... ................... ................... ...........  ...... ...........................................................................................................................................................................................................................................................................................................................",
"........................................... .....    ......................     ..............................     ................ ................................................................................................................................................................................................................................................ ................... ................... .........  ........ ................... ...........................................................................................................................................................................................................................................................................................................................",
"...........................  .............. .....    .................     ..............................     ..................... ................................................................................................................................................................................................................................................. .................. ................... .........  ........ .................. ............................................................................................................................................................................................................................................................................................................................",
"...........................  .............. .....    ............     ..............................     .......................... ................................................................................................................................................................................................................................................. .................. ................... ................... .................. ............................................................................................................................................................................................................................................................................................................................",
"............................................ ...............     ..............................     .............................. .................................................................................................................................................................................................................................................. ................... .................. .................. ................... ............................................................................................................................................................................................................................................................................................................................",
"............................................ ..........     ..............................     ................................... .................................................................................................................................................................................................................................................. ................... .................. .................. ................... ............................................................................................................................................................................................................................................................................................................................",
"............................................ .......   ..............................     ..............................   ....... ................................................................................................................................................................................................................................................... .................. .................. .................. .................. .............................................................................................................................................................................................................................................................................................................................",
"........  ................................... ..................................     ..............................     ......... .................................................................................................................................................................................................................................................... .................. .................. .................. .................. .............................................................................................................................................................................................................................................................................................................................",
"........  ................................... .............................     ..............................     .............. .................................................................................................................................................................................................................................................... ......  .......... .................. .................. .................. .............................................................................................................................................................................................................................................................................................................................",
"............................................. ........................     ..............................     ................... ..................................................................................................................................................................................................................................................... .....  .......... .................. .................. ................. ................................................................................................................................................................................................................................................................................................................  ............",
".............................................. ..................     ..............................     ....................... ......................................................................................................................................................................................................................................  .............. ................. .................. .................. ................. ................................................................................................................................................................................................................................................................................................................  ............",
".............................................. .............     ..............................     ............................ ......................................................................................................................................................................................................................................  .............. .................. ................. ................. .................. ..............................................................................................................................................................................................................................................................................................................................",
"............................................... .......     ..............................     ................................ ....................................................................................................................................................................................................................................................... .................. ................. ................. .................. ..............................................................................................................................................................................................................................................................................................................................",
"............................................... ....   ..............................     ..................................... ........................................................................................................................................................................................................................................................ ................. ................. ................. ................. ...............................................................................................................................................................................................................................................................................................................................",
"................................................ ...............................     ......................................... ......................................................................................................................................................................................................................................................... ................. ................. ................. ................. ...............................................................................................................................................................................................................................................................................................................................",
"................................................ ..........................     .............................................. .....................................................................................................................................................................................................................  .................................. ................. ................. ................. ................. ...............................................................................................................................................................................................................................................................................................................................",
"................................................. ....................     .................................................. ......................................................................................................................................................................................................................  .................................. ................. ................. ................. ................. ........................................................................................................................................................................................................................................................................  .....................................................",
".................................................  ..............     ......................................................  ................................................................................................................................................................................................  ......................................................... ................ ................. ................. ................ .........................................................................................................................................................................................................................................................................  .....................................................",
".................................................. .........     ........................................................... .................................................................................................................................................................................................  ......................................................... ................. ................ ................ ................. ...................................................................................................................................................................................................................................................  ...........................................................................",
"................................................... ...     ............................................................... ............................................................................................................................................................................................................................................................. ................. ................ ................ ................. ...................................................................................................................................................................................................................................................  ...........................................................................",
"....................................................   ................................................................... ............................................................................................................................................................................................................................................................... ................ ................ ................ ................ .................................................................................................................................................................................................................................................................................................................................",
"....................................................  ...................................................................  ............................................................................................................................................................................................................................................................... ................ ................ ................ ................ .................................................................................................................................................................................................................................................................................................................................",
".....................................................  .................................................................  ................................................................................................................................................................................................................................................................ ................ ................ ................ ................ .................................................................................................................................................................................................................................................................................................................................",
"......................................................  ...............................................................  ................................................................................................................................................................................................................................................................. ................ ................ ................ ................ .................................................................................................................................................................................................................................  ..............................................................................................",
".......................................................  .............................................................  .............................................................................................................................................................  .................................................................................................... ............... ................ ................ ............... ..................................................................................................................................................................................................................................  ..............................................................................................",
"........................................................  ................................................ ..........  ...................................................................................................................................... .......................  .................................................................................................... ............... ................ ................ ............... ............................................................................................................................................................................................................    ..................................................................................................................",
".........................................................  ............................................       ......  ...................................................................................................................................... .............................................................................................................................. ................ ............... ............... ................ ............................................................................................................................................................................................................    ..................................................................................................................",
"..........................................................  ..........................................         ....  ......................................................................................................           ..................... ................................................................................................................................                                                                 .............................................................................................................................................................................................................    ..................................................................................................................",
"............................................................ .........................................         ... .....................................................................................................   ...........   ................. ................................................................................................................................. ............... ............... ............... ............... .............................................................................................................................................................................................................    ..................................................................................................................",
".............................................................  .......................................         .  ...................................................................................................   .................   ............. .................................................................................................................................. ............... ............... ............... ............... ...................................................................................................................................................................................................................................................................................................................................",
"..............................................................  .....................................            ..................................................................................................  .......................  .......... ................................................................................................................................... ............... ............... ............... ............... ...................................................................................................................................................................................................................................................................................................................................",
"................................................................  ....................................         ..................................................................................................  .........................    ....... ..................................................................................................................................... .............. ............... ............... .............. ....................................................................................................................................................................................................................................................................................................................................",
"..................................................................  ..................................         .................................................................................................  ..........................     ..... ...................................................................................................................................... .............. ............... ............... .............. .....................................................................................................................................................................  .............................................................................................................................................................",
"....................................................................  ................................         ................................................................................................ ......  ....................    . ... ....................................................................................................................................... ............... .............. .............. ............... .....................................................................................................................................................................  .............................................................................................................................................................",
"......................................................................   .............................        ................................................................................................ .......  ....................    .. . ......................................................................................................................................... .............. .............. .............. .............. .....................................................................................................................................................................................................................................................................................................................................",
".........................................................................   .......................   .... .................................................................................................. .............................. ... .. .......................................................................................................................................... .............. .............. .............. .............. .....................................................................................................................................................................................................................................................................................................................................",
"............................................................................     .............     ....... ................................................................................................. .............................. .... . . ......................................................................................................................................... .............. .............. .............. .............. .....................................................................................................................................................................................................................................................................................................................................",
".................................................................................             ............ ................................................................................................ .............................. .....  ... ........................................................................................................................................ .............. .............. .............. .............. .....................................................................................................................................................................................................................................................................................................................................",
".......................................................................................................... ........................................................................................  ..... .............................. ...... ..... ........................................................................................................................................ ............. .............. .............. ............. ......................................................................................................................................................................................................................................................................................................................................",
".......................................................................................................... ........................................................................................  ....  ............................. ...... . ....  ....................................................................................................................................... ............. .............. .............. ............. ..............................................................................................................................  ......................................................................................................................................................................................................",
".......................................................................................................... ..................................................................  .......................... ............................. ...... .. ..... ....................................................................................................................................... .............. ............. ............. .............. ..............................................................................................................................  ......................................................................................................................................................................................................",
".......................................................................................................... ..................................................................  ......................... ............................. ...... ... ...... ...................................................................................................................................... .............. ............. ............. .............. ........................................................................................................  ............................................................................................................................................................................................................................",
".......................................................................................................... ............................................................................................. ............................ ...... .... ...... ....................................................................................................................................... ............. ............. ............. ............. .........................................................................................................  ............................................................................................................................................................................................................................",
".......................................................................................................... ............................................................................................ ............................ ...... ...... ...... ...................................................................................................................................... ............. ............. ............. ............. .......................................................................................................................................................................................................................................................................................................................................",
".......................................................................................................... ............................................................................................ ........................... ...... ....... ...... ...................................................................................................................................... ............. ............. ............. ............. .......................................................................................................................................................................................................................................................................................................................................",
".......................................................................................................... ............................................................................................ .......................... ...... ........ ...... ....................................................................................................................................... ............ ............. ............. ............ ........................................................................................................................................................................................................................................................................................................................................",
".......................................................................................................... ........................................................................................... .......................... ...... ......... ....... ...................................................................................................................................... ............ ............. ............. ............ .......................................................................................  ...............................................................................................................................................................................................................................................",
".......................................................................................................... .........................  ................................................................ ......................... ...... ........... ...... ...................................................................................................................................... ............. ............ ............ ............. .......................................................................................  ...............................................................................................................................................................................................................................................",
".......................................................................................................... .........................  ................................................................ ........................ ...... ............ ...... ...................................................................................................................................... ............. ............ ............ ............. .................................................................  .....................................................................................................................................................................................................................................................................",
".......................................................................................................... ...  ..................................................................................... ........................ ...... ............. ....... ...................................................................................................................................... ............ ............ ............ ............ ..................................................................  .....................................................................................................................................................................................................................................................................",
".......................................................................................................... ...  ..................................................................................... ....................... ...... .............. ....... ...................................................................................................................................... ............ ............ ............ ............ .........................................................................................................................................................................................................................................................................................................................................",
".......................................................................................................... .......................................................................................... ...................... ...... ................ ...... ...................................................................................................................................... ............ ............ ............ ............ .........................................................................................................................................................................................................................................................................................................................................",
".......................................................................................................... .......................................................................................... ..................... ...... ................. ...... ................................................................................................................................                                                                 ...................................................................................................................................................................................................................................................................................................................................",
".......................................................................................................... .......................................................................................... .................... ...... .................. ...... ....................................................................................................................................... ........... ............ ............ ........... ..........................................................................................................................................................................................................................................................................................................................................",
"...........................................................................................  ............. .......................................................................................... ................... ...... ................... ...... ....................................................................................................................................... ............ ........... ........... ............ ..........................................................................................................................................................................................................................................................................................................................................",
"...........................................................................................  ............. .......................................................................................... .................. ............................ ..... ....................................................................................................................................... ............ ........... ........... ............ ..........................  ..............................................................................................................................................................................................................................................................................................................",
".....................................................................    ................................. .......................................................................................... ................. ............................. ..... ........................................................................................................................................ ........... ........... ........... ........... ...........................  ..............................................................................................................................................................................................................................................................................................................",
".....................................................................    ................................. .......................................................................................... ................ .............................. ..... ........................................................................................................................................ ........... ........... ........... ........... .....  ....................................................................................................................................................................................................................................................................................................................................",
".....................................................................    ................................. .......................................................................................... ............... ............................... ..... ........................................................................................................................................ ........... ........... ........... ........... .....  ....................................................................................................................................................................................................................................................................................................................................",
".....................................................................    ................................. .......................................................................................... .............. ................................. .... ......................................................................................................................................... .......... ........... ........... .......... ............................................................................................................................................................................................................................................................................................................................................",
"..................................................................                                                                                                         ........................... ............ .................................. ... .......................................................................................................................................... .......... ........... ........... .......... ............................................................................................................................................................................................................................................................................................................................................",
"..................................................................                                                                                                         ........................... ........... ................................... ... .......................................................................................................................................... ........... .......... .......... ........... ............................................................................................................................................................................................................................................................................................................................................",
"..................................................................                                                                                                         ........................... .......... .................................... ... .......................................................................................................................................... ........... .......... ..........    ........ ............................................................................................................................................................................................................................................................................................................................................",
"............................  ....................................                                                                                                         ............................ ........ ..................................... .. ............................................................................................................................................ .......... .......... ..........    ....... .............................................................................................................................................................................................................................................................................................................................................",
"............................  ....................................                                                                                                         ............................ ....... ....................................... . ............................................................................................................................................ ..........  ......... ..........    ....... .............................................................................................................................................................................................................................................................................................................................................",
"......  ..........................................................                                                                                                         ............................ ...... ........................................ . ............................................................................................................................................ ..........  ......... ..........    ....... .............................................................................................................................................................................................................................................................................................................................................",
"......  ..........................................................                                                                                                         ............................. .... .........................................  ............................................................................................................................................. .......... .......... .......... .......... .............................................................................................................................................................................................................................................................................................................................................",
"..................................................................                                                                                                         ............................. ... ..........................................  .............................................................................................................................................. ......... .......... .......... ......... ..............................................................................................................................................................................................................................................................................................................................................",
"..................................................................                                                                                                         .............................. . ...........................................  .............................................................................................................................................. .......... ......... ......... .......... ..............................................................................................................................................................................................................................................................................................................................................",
"..................................................................                                                                                                         ..............................  ...........................................   .............................................................................................................................................. .......... ......... ......... .......... ..............................................................................................................................................................................................................................................................................................................................................",
"..................................................................                                                                                                         ..............................  ........................................... . ............................................................................................................................................... ......... ......... ......... ......... ..................................................................................................................................................................................................................................................................................................................................  ...........",
"..................................................................                                                                                                         ............................. .. ......................................... .. ...............................................................................................................  .............................. ......... ......... ......... ......... ..................................................................................................................................................................................................................................................................................................................................  ...........",
"..................................................................                                                                                                         ............................ .... ....................................... .... ..............................................................................................................  .............................. ......... ......... ......... ......... ............................................................................................................................................................................................................................................................................................................  .................................",
"..................................................................                                                                                                         ........................... ...... ..................................... ..... .............................................................................................................................................. ......... ......... ......... ......... ............................................................................................................................................................................................................................................................................................................  .................................",
"..................................................................                                                                                                         .......................... ........ ................................... ...... ............................................................................................................................................... ........ ......... ......... ........ ................................................................................................................................................................................................................................................................................................................................................",
"..................................................................                                                                                                         ......................... .......... ................................. ....... ............................................................................................................................................... ........ ......... ......... ........ ................................................................................................................................................................................................................................................................................................................................................",
"..................................................................                                                                                                         .....................................  .............................  ......... .............................................................................................................................................. ......... ........ ........ ......... ................................................................................................................................................................................................................................................................................................................................................",
"..................................................................                                                                                                         ......................................  ...........................  .......... .................................................................................................................................                                                                 ...................................................................................................................................................................................................................................................................................................................................",
"..................................................................                                                                                                         ........................................  .......................  ............ ....................................................................  ......................................................................... ........ ........ ........ ........ .................................................................................................................................................................................................................................................................................................................................................",
"..................................................................                                                                                                         ..........................................   .................   .............. ....................................................................  ......................................................................... ........ ........ ........ ........ .....................................................................................................................................................................................................................................................................  ..........................................................................",
"..................................................................                                                                                                         .............................................   ...........   .................. .............................................  .....       ................................................................................... ........ ........ ........ ........ .....................................................................................................................................................................................................................................................................  ..........................................................................",
"..................................................................                                                                                                         ................................................           ..................... .............................................  ..   .......   ................................................................................. ....... ........ ........ ....... ..................................................................................................................................................................................................................................................................................................................................................",
".................................................                                                                                                                                            .............................................................. ...............................................  .............  ............................................................................... ....... ........ ........ ....... ..................................................................................................................................................................................................................................................................................................................................................",
".................................................                                                                                                                                            .............................................................. ..............................................  ...............  .............................................................................. ........ ....... ....... ........ ..................................................................................................................................................................................................................................................................................................................................................",
".................................................                                                                                                                                            ............................................................... ............................................ ................... ............................................................................. ........ ....... ....... ........ ..................................................................................................................................................................................................................................................................................................................................................",
".................................................                                                                                                                                            ............................................................... .........................  ................ ..................... ............................................................................. ....... ....... ....... ....... ...................................................................................................................................................................................................................................................................................................................................................",
".................................................    ....................................................................................................................................    .......................                              .......... .........................  ...............  .....................  ............................................................................ ....... ....... ....... ....... ..............................................................................................................................................................................................................................  ...................................................................................................................",
".................................................    ....................................................................................................................................    .......................                              ..............    ................................... ....................... ............................................................................ ....... ....... ....... ....... ..............................................................................................................................................................................................................................  ...................................................................................................................",
".................................................    ....................................................................................................................................    .......................                              ..............    .................................. ......................... ............................................................................ ...... ....... ....... ...... .........................................................................................................................................................................................................  .........................................................................................................................................",
".................................................    ....................................................................................................................................    .......................                              ..............    .................................. ......................... ............................................................................ ...... ....... ....... ...... .........................................................................................................................................................................................................  .........................................................................................................................................",
".................................................    ....................................................................................................................................    .......................                              ..............    .................................. ......................... ............................................................................ ....... ...... ...... ....... ....................................................................................................................................................................................................................................................................................................................................................",
".................................................    ....................................................................................................................................    .......................                              ................................................... ........................... ........................................................................... ....... ...... ...... ....... ....................................................................................................................................................................................................................................................................................................................................................",
".................................................    ....................................................................................................................................    .......................                              ................................................... ........................... ............................................................................ ...... ...... ...... ...... .....................................................................................................................................................................................................................................................................................................................................................",
".................................................    ....................................................................................................................................    .......................                              ................................................... ........................... ............................................................................ ...... ...... ...... ...... .........................................................................................                               ...............................................................    ..........................................................................................................................................................",
".................................................    ....................................................................................................................................    ..........................  ............................................................................ ........................... ............................................................................ ...... ...... ...... ...... .........................................................................................                               ...............................................................    ..........................................................................................................................................................",
".................................................    ....................................................................................................................................    ..........................  ............................................................................ ........................... ............................................................................. ..... ...... ...... ..... ..........................................................................................                               .........................................  ....................    ..........................................................................................................................................................",
".................................................    ....................................................................................................................................    ....  .................................................................................................. ........................... ............................................................................. ..... ...... ...... ..... ..........................................................................................   .........................   .........................................  ....................    ..........................................................................................................................................................",
".................................................    ....................................................................................................................................    ....  .................................................................................................. ........................... ............................................................................. ...... ..... ..... ...... ..........................................................................................   .........................   .............................................................................................................................................................................................................................",
".................................................    ....................................................................................................................................    ......................................................................................................... ......................... .............................................................................. ...... ..... ..... ...... ..........................................................................................   .........................   .............................................................................................................................................................................................................................",
".................................................    ....................................................................................................................................    ......................................................................................................... ......................... ............................................................................... ..... ..... ..... ..... ...........................................................................................   .........................   .............................................................................................................................................................................................................................",
".................................................    ....................................................................................................................................    ......................................................................................................... ......................... ............................................................................... ..... ..... ..... ..... ...........................................................................................   .........................   .............................................................................................................................................................................................................................",
".................................................    .........................................................................................................................  .........    .......................................................................................................... ....................... ................................................................................ ..... ..... ..... ..... ...........................................................................................   .........................   .            ................................................................................................................................................................................................................",
".................................................    .........................................................................................................................  .........    ..........................................................................................................  .....................  ............................................................                                                                 .......................................................................   .........................                ................................................................................................................................................................................................................",
".................................................    ...................................................................................................  ...............................    ........................................................................................................... ..................... .................................................................................. .... ..... ..... .... ............................................................................................   .........................                ................................................................................                 ...............................................................................................................",
".................................................    ...................................................................................................  ...............................    ............................................................................................................ ................... ................................................................................... ..... .... .... ..... ............................................................................................   ......  .................   .            ..........................................................................      .................      .........................................................................................................",
".................................................    ....................................................................................................................................    .............................................................................................................  ...............  .................................................................................... ..... .... .... ..... ............................................................................................   ......  .................   .            ......................................................................    .............................    .....................................................................................................",
".................................................    ....................................................................................................................................    ..............................................................................................................  .............  ...................................................................................... .... .... .... .... .............................................................................................   .........................   .            ..................................................................    .....................................    .................................................................................................",
".................................................    ....................................................................................................................................    ................................................................................................................   .......   ........................................................................................ .... .... .... .... .............................................................................................   .........................   .            ...............................................................   .............................................   ..............................................................................................",
".................................................    ....................................................................................................................................    .......................................................................................................                              ................................................................................ .... .... .... .... .............................................................................................   .........................   ..........................................................................   .................................................   ............................................................................................",
".................................................    ....................................................................................................................................    .......................................................................................................                              ................................................................................ .... .... .... .... ...................................................................................  ........                               .......................................................................   .......................................................   .........................................................................................",
".................................................    ..........................................................  ........................................................................    .......................................................................................................                              ................................................................................. ... .... .... ... ....................................................................................  ........                               .....................................................................   ...........................................................   .......................................................................................",
".................................................    ..........................................................  ........................................................................    .......................................................................................................   ........................   ................................................................................. .... ... ... .... ..............................................................  ..............................                               ...................................................................   .......................                 .......................   .....................................................................................",
".................................................    ....................................    ............................................................................................    .......................................................................................................   ........................   ................................................................................. .... ... ... .... ..............................................................  .......                                                                               .........................................  ....................      ...............      ....................  ....................................................................................",
".................................................    ....................................    ............................................................................................    .......................................................................................................   ........................   .................................................................................. ... ... ... ... ........................................................................                                                                               .......................................  ..................    ...........................    ..................  ..................................................................................",
".................................................    ....................................    ............................................................................................    .......................................................................................................   ........................   .................................................................................. ... ... ... ... ........................................................................                                                                               .....................................  .................   ...................................   .................  ................................................................................",
".................................................    ....................................    ............................................................................................    .......................................................................................................   ........................   .................................................................................. ... ... ... ... ........................................................................                                                                               ....................................  ...............   .........................................   ...............  ...............................................................................",
".................................................    ....................................................................................................................................    .......................................................................................................   ........................   .................................................................................. ... ... ... ... ........................................................................    .......................................................................    ..................................  ..............   ...............................................   ..............  .............................................................................",
".................................................    .................  .................................................................................................................    .......................................................................................................   ........................   ................................................................................... .. ... ... .. .........................................................................    .......................................................................    .................................  .............   ...................................................   .............  ............................................................................",
".................................................    .................  .................................................................................................................    .......................................................................................................   ........................   ................................................................................... ... .. .. ... .......................    ..............................................    .......................................................................    ................................ .............   .......................................................   ............. ...........................................................................",
"................................................     ....................................................................................................................................    ...............................................................................................                                              ........................................................................... ... .. .. ... .......................    ..............................................    .......................................................................    ..............................  ............   ......................               ......................   ............  .........................................................................",
"................................................     ....................................................................................................................................    ...............................................................................................                                              ............................................................................ .. .. .. .. ........................    ..............................................    .......................................................................    .............................  ............  ...................     ...............     ...................  ............  ........................................................................",
".................................................    ....................................................................................................................................    ...............................................................................................                                                                 ......................................................... .. .. .. .. ........................    ..............................................    .......................................................................    ............................  ...........  .................    .........................    .................  ...........  .......................................................................",
".................................................    ....................................................................................................................................    ...............................................................................................                                                                 ......................................................... .. .. .. .. ..........................................................................    .......................................................................    ...........................  ...........  ...............   .................................   ...............  ...........  ......................................................................",
".................................................    ....................................................................................................................................    ...............................................................................................                                                                 ......................................................... .. .. .. .. ..........................................................................    .......................................................................    ..................  ...... ...........  ..............   .......................................   ..............  ........... .....................................................................",
".................................................    ....................................................................................................................................    ...............................................................................................                                                                 .......................................................... . .. .. . ...........................................................................    .......................................................................    ................      ... ...........  .............   ...........................................   .............  ........... ....................................................................",
".................................................    ....................................................................................................................................    ...............................................................................................                                                                 .......................................................... . .. .. . ...........................................................................    .......................................................................    ..............           ........... .............  .................................................  ............. ........... ...................................................................",
".................................................    ....................................................................................................................................    ...............................................................................................                                              ............................................................................. .. . . .. ...........................................................................    .......................................................................    ............              ......... ............  .....................................................  ............ ........... ..................................................................",
".................................................    ....................................................................................................................................    .......................................................................................................   ........................   ..........................................................                                                                 ................................................    .......................................................................    ..........                  .....  ............  .......................................................  ............  .........  .................................................................",
".................................................    ....................................................................................................................................    .......................................................................................................   ........................   ...................................................................................... . . . . ............................................................................    .......................................................................    ........                      ..  ...........  ...........................................................  ...........  .........  ................................................................",
".................................................    ....................................................................................................................................    .......................................................................................................   ........................   ...................................................................................... . . . . ............................................................................    .......................................................................    ......                           ........... ............................................................... ...........  .....   .  ...............................................................",
".................................................    ....................................................................................................................................    .......................................................................................................   ........................   ...................................................................................... . . . . ............................................................................    .......................................................................    ....                               .......  .................................................................  ..........            ...............................................................",
".................................................    ....................................................................................................................................    .......................................................................................................   ........................   .......................................................................................  . .  ...........................................................................      .......................................................................    ..                                   ....  ...................................................................  ........               .............................................................",
".................................................    ....................................................................................................................................    .......................................................................................................   ........................   .......................................................................................  . .  .........................................................................        .......................................................................                                          .. ....................................................................... ...                      ..........................................................",
".................................................    ....................................................................................................................................    .......................................................................................................   ........................   ....................................................................................... .   . .......................................................................            .....................................................................                                        ... ............  ......  ..............          ........................... ...                        .......................................................",
".................................................    ....................................................................................................................................    .......................................................................................................   ........................   ....................................................................................... .   . .....................................................................                 .....       .....................................       ..........                                       ... .............  ......  ..............          ............................ ...                          ....................................................",
".................................................    ....................................................................................................................................    .......................................................................................................   ........................   ........................................................................................     ....................................................................                        .......   ...............................   .......   .....                                        ... ..............    ..    ......................  ............................. ...                            .................................................",
".................................................    ....................................................................................................................................    .......................................................................................................   ........................   ........................................................................................     ..................................................................                          .........  .............................  ...........  ...                                         .. ...............    ..    ......................  .............................. ..                              ...............................................",
"...............................................      ....................................................................................................................................    .......................................................................................................   ........................   ........................................................................................     ...............................................................                                                                                                                               .. ................  ..  ..  ....................  ................................. ..                                ............................................",
".............................................        ....................................................................................................................................    .......................................................................................................   ........................   .........................................................................................   ..............................................................                                                                                                                                .. .................  ..  ..  ....................  .................................. ..                                  .........................................",
"...........................................             .................................................................................................................................    .......................................................................................................   ........................   ..............................................................   ........................   ............................................................                                                                                                                                 .. ..................  ..  ..  ..          ......  ..................................... ..                                    ......................................",
".........................................                                          ...                                ...                                                                    .......................................................................................................   ........................   ............................................................         ....................   ..........................................................                                                                                                                                  .. ...................  ..  ..  ..          ......  ...................................... ..                                      ...................................",
".......................................                                            ......................................                                                                    .......................................................................................................   ........................   ..........................................................              .................   ........................................................                                                  .  ...................  ...........                                               .  ...................  ......  ................  ........................................  .                                        .................................",
"....................................                                               ......................................                                                                    .......................................................................................................   ........................   .......................................................                     .............. .......................................................                                                       ................... ..........                                                .. ....................  ......  ................  ......................................... ..                                          ..............................",
"..................................                                                 ......................................                                                                    .......................................................................................................   ........................   ..................................................                                                                                 ............                                                             ................ ........                                                 .. .....................  ......  ................  .......................................... ..                                            ...........................",
"................................                                        ..........................................................................                       ...........................................................................................................................   ........................   ...................................................                               ...........................................................                                                                 ............. .......                                                  .. ......................  ......  ................  ........................................... ..                                              ........................",
"..............................                                             ...................................................................                              ........................................................................................................................   ........................   .................................................                                     .....................................................                                                                      .......... .....                                                    .. ......................  ......  ................  ........................................... ..                                                 .....................",
"............................                                                  ............................................................                                    ......................................................................................................................   ........................   ..............................................                                           ................................................                                                                           ....... ...                                                     .. .......................  ......  ................  ............................................ ..                                                  ...................",
"..........................                                                       .....................................................                                           ..................................................................................................   ..............                              ............................................                                                 ..........................................                                                                               ..... .                                                       .  ...............................................................................................  .                                                     ................",
".......................                                                             ..............................................                                                 ............................................................................................           ..........                              ..........................................                                                      .....................................                                                                                    ..                                                        .. ................................................................................................. ..                                                       .............",
".....................                                                                  .......................................                                                        ......................................................................................                 .......                              .......................................                                                             ..............................                                                                                                                                                 . ................................................................................................... .                                                          ..........",
"...................                                                                       ................................                                                              .................................................................................                       ......... .................. ..........................................                                                                  .........................                                                                                                                                                  .. ................................................................................................... ..                                                            .......",
".................                                                                             ........................                                                                     ..........................................................................                               ..... .................. ........................................                                                                       ....................                                                                                                                                                    . ..................................................................................................... .                                                              .....",
"...............                                                                                  .................                                                                           .....................................................................                                     . .................... .....................................                                                                             ..............                                                                                                                                                     .. ..................................................................................................... ..                                                                ..",
"............                                                                                        ..........                                                                                  ..............................................................                                            ................... ..................................                                                                                   .........                                                                                                                                                       .  .....................................................................................................  .                                                                  ",
"..........                                                                                             ...                                                                                         ........................................................                                                   ................ ...............................                                                                                         ...                                                                                                                                                        .. ....................................................................................................... ..                                                                 ",
"........                                                                                                                                                                                             ..................................................                                                          ............. .............................                                                                                                                                                                                                                                                      .. ....................................................................................................... ..                                                                 ",
"......                                                                                                                                                                                                  ............................................                                                                 .......... .........................                                                                                                                                                                                                                                                         . ......................................................................................................... .                                                                 ",
"....                                                                                                                                                                                                      .......................................                                                                       ....... .......................                                                                                                                                                                                                                                                          .. ......................................................................................................... ..                                                                ",
"..                                                                                                                                                                                                           ................................                                                                              .... .....................                                                                                                                                                                                                                                                            .. ......................................................................................................... ..                                                                ",
"                                                                                                                                                                                                               ...........................                                                                                     . ..................                                                                                                                                                                                                                                                              . ........................................................................................................... .                                                                ",
"                                                                                                                                                                                                                  ....................                                                                                            ..............                                                                                                                                                                                                                                                                .. ........................................................................................................... ..                                                               ",
"                                                                                                                                                                                                                    ...............                                                                                                  .........                                                                                                                                                                                                                                                                  .. ........................................................................................................... ..                                                               ",
"                                                                                                                                                                                                                       .........                                                                                                         ...                                                                                                                                                                                                                                                                    .. ........................................................................................................... ..                                                               ",
"                                                                                                                                                                                                                         ...                                                                                                                                                                                                                                                                                                                                                                                    . ............................................................................................................. .                                                               ",
"                                                                                                                                                                                                                                                                                                                                                                                                                                                                                                                                                                                                                . ............................................................................................................. .                                                               ",
"                                                                                                                                                                                                                                                                                                                                                                                                                                                                                                                                                                                                                                                                                                                                                                                                ",
"                                                                                                                                                                                                                                                                                                                                                                                                                                                                                                                                                                                                                                                                                                                                                                                                ",
"                                                                                                                                                                                                                                                                                                                                                                                                                                                                                                                                                                                                                                                                                                                                                                                                ",
"                                                                                                                                                                                                                                                                                                                                                                                                                                                                                                                                                                                                                                                                                                                                                                                                ",
"                                                                                                                                                                                                                                                                                                                                                                                                                                                                                                                                                                                                                                                                                                                                                                                                ",
"                                                                                                                                                                                                                                                                                                                                                                                                                                                                                                                                                                                                                                                                                                                                                                                                ",
"                                                                                                                                                                                                                                                                                                                                                                                                                                                                                                                                                                                                                                                                                                                                                                                                ",
"                                                                                                                                                                                                                                                                                                                                                                                                                                                                                                                                                                                                                                                                                                                                                                                                ",
"                                                                                                                                                                                                                                                                                                                                                                                                                                                                                                                                                                                                                                                                                                                                                                                                ",
"                                                                                                                                                                                                                                                                                                                                                                                                                                                                                                                                                                                                               . ..... ................. ................. ............... . ............... . ................. ............... .                                                              ",
"                                                                                                                                                                                                                                                                                                                                                                                                                                                                                                                                                                                                              .. ...... ................. ................. ..............                   .. ................. .............. ..                                                             ",
"                                                                                                                                                                                                                                                                                                                                                                                                                                                                                                                                                                                                              .. ....... ................. ................. ............. ... ............. ... ................. ............. .                                                              ",
"                                                                                                                                                                                                                                                                                                                                                                                                                                                                                                                                                                                                              .. ........ ................. ................. ............ .... ............ .... ................. ............ .                                                              ",
"                                                                                                                                                                                                                                                                                                                                                                                                                                                                                                                                                                                                              .. ......... ................. ................. ........... ..... ........... ..... ................. ........... .                                                              ",
"                                                                                                                                                                                                                                                                                                                                                                                                                                                                                                                                                                                                              .. ......... ................. ................. ........... ..... ........... ..... ................. ........... .                                                              ",
"                                                                                                                                                                                                                                                                                                                                                                                                                                                                                                                                                                                                              .. .......... ................. ................. .......... ...... .......... ...... ................. .......... .                                                              ",
"                                                                                                                                                                                                                                                                                                                                                                                                                                                                                                                                                                                                              .. ........... ................. ................. ......... ....... ......... ....... ................. ......... .                                                              ",
"                                                                                                                                                                                                                                                                                                                                                                                                                                                                                                                                                                                                              .. ............ ................. ................. ........ ........ ........ ........ ................. ........ .                                                              ",
"                                                                                                                                                                                                                                                                                                                                                                                                                                                                                                                                                                                                              ... ............ ................. ................. ....... ......... ....... ......... ................. ...... ..                                                              ",
"                                                                                                                                                                                                                                                                                                                                                                                                                                                                                                                                                                                                              ... ........................................................ ................. .................................. ..                                                              ",
"                                                                                                                                                                                                                                                                                                                                                                                                                                                                                                                                                                                                              ... ........................................................ ................. .................................. ..                                                              ",
"                                                                                                                                                                                                                                                                                                                                                                                                                                                                                                                                                                                                              ... ........................................................ ................. .................................. ..                                                              ",
"                                                                                                                                                                                                                                                                                                                                                                                                                                                                                                                                                                                                              ... ........................................................ ................. .................................. ..                                                              ",
"                                                                                                                                                                                                                                                                                                                                                                                                                                                                                                                                                                                                              .... ....................................................... ................. ................................. ...                                                              ",
"                                                                                                                                                                                                                                                                                                                                                                                                                                                                                                                                                                                                              .... ....................................................... ................. ................................. ...                                                              ",
"                                                                                                                                                                                                                                                                                                                                                                                                                                                                                                                                                                                                              .... ....................................................... ................. ................................. ...                                                              ",
"                                                                                                                                                                                                                                                                                                                                                                                                                                                             .                                                                                                                                                .... ....................................................... ................. ................................. ...                                                              ",
"                                                                                                                                                                                                                                                                                                                                                                                                                                                           .. ..                                                                                                                                              ..... ...................................................... ................. ................................ ....                                                              ",
"                                                                                                                                                                                                                                                                                                                                                                                                                                                           ... .                                                                                                                                              ..... ......................................................                   ................................ ....                                                              ",
"                                                                                                                                                                                                                                                                                                                                                                                                                                                          ..... .                                                                                                                                             ..... ...................................................... ................. ................................ ....                                                              ",
"                                                                                                                                                                                                                                                                                                                                                                                                                                                           .....                                                                                                                                              ...... ..................................................... ................. ............................... .....                                                              ",
"                                                                                                                                                                                                                  .                                                                                                                                                                                                                                        .....                                                                                                                                              ...... ..................................................... ................. ............................... .....                                                              ",
"                                                                                                                                                                                                                .....                                                                                                                                                                                                                                        .                                                                                                                                                ......  .................................................... ................. ..............................  .....                                                              ",
"                                                                                                                                                                                                                .....                                                                                                                                                                                                                                                                                                                                                                                         ....... .................................................... ................. .............................. ......                                                              ",
"                                                                                                                                                                                                               .......                                                                                                                                                                                                                                                                                                                                                                                        ....... .................................................... ................. .............................. ......                                                              ",
"                                                                                                                                                                                                                .....                                                                                                                                                                                                                                     .                                                                                                                                                   ........ ................................................... ................. ............................. .......                                                              ",
"                                                                                                                                                                                                                .....                                                                                                                                                                                                                                    . .                                                                                                                                                   ....... ................................................... ................. ............................. .......                                                              ",
"                                                                                                                                                                                                                  .                                                                                                                                                                                                                                     .   ..                                                                                                                                                 ........ .................................................. ................. ............................ ........                                                              ",
"                                                                                                                                                                                                                                                                                                                                                                                                                                                      ..      .                                                                                                                                                 .......  ................................................. ................. ...........................  .......                                                               ",
"                                                                                                                                                                                                                                                                                                                                                                                                                                                     .         .                                                                                                                                              . ........ ................................................. ................. ........................... ........                                                               ",
"                                                                                                                                                                                                               .                                                                                                                                                                                                                                    .           ..                                                                                                                                            .  ........ ................................................ ................. .......................... ........                                                                ",
"                                                                                                                                                                                                              . .                                                             .                                                                                                                                                                    .              .                                       .                                                                                                   .. ........ ................................................ ................. .......................... ........ .                                                              ",
"                                                                                                                                                                                                             .   ..                                                    ...............                                                                                                                                                                                                             . .............                                                                                            ..  ........ ............................................... ................. ......................... ........  .                                                              ",
"                                                                                                                                                                                                           ..      .                                                .....................                                                                                                                                                                                                       .... ................                                                                                         ... ......... .............................................. ................. ........................ ......... ..                                                              ",
"                                                                                                                                                                                                          .         .                                ........ .................................................................................................................................................................................................................... ................. ..............................                                                                           .... ........  ............................................. ................. .......................  ........ ...                                                              ",
"                                                                                                                                                                                                         .           ..                              ........ .................................................................................................................................................................................................................... ................. ..............................                                                                           ....  ........ ............................................. ................. ....................... ........  ...                                                              ",
"                                                                                                                                                                                                        .              .                             ........ ....................................................................................................................................................................................................................                   ..............................                                                                           ..... ......... ............................................                   ...................... ......... ....                                                              ",
"                                                                                                                                                                                                                                                     ........ .................................................................................................................................................................................................................... ................. ..............................                                                                           ...... ......... ........................................... ................. ..................... ......... .....                                                              ",
"                                                                                                                                                                                                                                                     ........ .................................................................................................................................................................................................................... ................. ..............................                                                                           ......  ......... .......................................... ................. .................... .........  .....                                                              ",
"                                                                                                                                                                                                                                                     ........ .................................................................................................................................................................................................................... ................. ..............................                                                                           ....... .......... ......................................... ................. ................... .......... ......                                                              ",
"                                                                                                                                                                                                                                                     ........ .................................................................................................................................................................................................................... ................. ..............................                                                                           ........ .......... ........................................ ................. .................. .......... .......                                                              ",
"                                                                                                                                                                                                                                                              .................................................................................................................................................................................................................... ................. ..............................                                                                           ......... .......... ....................................... ................. ................. .......... ........                                                              ",
"                                                                                                                                                                                                                                                     ........ .................................................................................................................................................................................................................... ................. ..............................                                                                            ......... .......... ...................................... ................. ................ .......... .........                                                              ",
"                                                                                                                                                                                                                                                     ........ .................................................................................................................................................................................................................... ................. ..............................                                                                            .........  .......... ..................................... ................. ............... ..........  .........                                                              ",
"                                                                                                                                                                                                                                                     ........ .................................................................................................................................................................................................................... ................. ..............................                        .                                                  . .........  ..........  ................................... ................. .............  ..........  .........                                                               ",
"                                                                                                                                                                                                                                                     ........ .................................................................................................................................................................................................................... ................. ..............................                     .......                                               .. .........  ..........  .................................. ................. ............  ..........  ......... .                                                              ",
"                                                                                                                                                                                                                                                     ........ .................................................................................................................................................................................................................... ................. ..............................                    .........                                              ..  .........  ........... ................................. ................. ........... ...........  .........  .                                                              ",
"                                                                                                                                                                                                                                                     ........ .................................................................................................................................................................................................................... ................. ...............................                  ...........                                             ...  .........  ...........  ............................... ................. .........  ...........  .........  ..                                                              ",
"                                                                                                                                                                                                                                                     ........ .................................................................................................................................................................................................................... ................. ...............................                 .............                                            ....  .........  ............  ............................. ................. .......  ............  .........  ...                                                              ",
"                                                                                                                                                                                                                                                    ......... .................................................................................................................................................................................................................... ................. ................................                .............                                            ..... ........... ............  ............................ ................. ......  ............ ........... ....                                                              ",
"                                                                                                                                                                                                                                                    ......... .................................................................................................................................................................................................................... ................. ................................                .............                                            ...... ........... .............  .......................... ................. ....  ............. ........... .....                                                              ",
"                                                                                                                                                                                                                                                    ......... .................................................................................................................................................................................................................... ................. ................................               ...............                                           ....... ...........  .............   ....................... ................. .   .............  ........... ......                                                              ",
"                                                                                                                                                                                                                                                   .......... .................................................................................................................................................................................................................... ................. .................................               .............                                            ........ ...........  ..............   ..................... .................   ..............  ........... .......                                                              ",
"                                                                                                                                                                                                                                                   .......... .................................................................................................................................................................................................................... ................. .................................               .............                                            .........  ...........  ...............   .................. ..............    ..............  ...........  ........                                                              ",
"                                                                     .                                                                                                                                                                             .......... ....................................................................................................................................................................................................................                   .................................               .............                                            ..........  ...........  .................    ..............                   .............  ...........  .........                                                              ",
"                                                                  .......                                                                                                                                                                          .......... .................................................................................................................................................................................................................... ................. .................................                ...........                                             ...........  ............  ...................     ......... .....     ....... ...........  ............  ..........                                                              ",
"                                                                 .........                                                                                                                                                                         .......... .................................................................................................................................................................................................................... ................. .................................                 .........                                              ............  ............   ......................               ............ .........   ............  ...........                                                              ",
"                                                                ...........                                                                                                                                                                        .......... .................................................................................................................................................................................................................... ................. .................................                  .......                                               .............. .............   ............................. ................. .......   ............. .............                                                              ",
"                                                               .............                                                                                                                                                                       .......... .................................................................................................................................................................................................................... ................. .................................                 . . .                                                  ...............  .............   ........................... ................. .....   .............  ..............                                                              ",
"                                                               .............                                                                                                                                                                                  .................................................................................................................................................................................................................... ................. ..................................               .   ..                                                  ................  ..............   ......................... ................. ...   ..............  ...............                                                              ",
"                                                               .............                                                                                                                                                                       .......... .................................................................................................................................................................................................................... ................. .................................              ..      .                                                 ..................  ...............   ...................... .................    ...............  .................                                                              ",
"                                                              ...............                                                                                                                                                                      .......... .................................................................................................................................................................................................................... ................. .................................             .         .                                                ...................  .................   ................... ...............   .................  ..................                                                              ",
"                                                               .............                                                                                                                                                                       .......... .................................................................................................................................................................................................................... ................. .................................            .           ..                                              .....................  ..................    ............... ...........    .. ...............  ....................                                                              ",
"                                                               .............                                                                                                                                                                       .......... .................................................................................................................................................................................................................... ................. .................................           .              .                                             .......................  ....................      ......... .....      ...... .............  ......................                                                              ",
"                                                               .............                                                                                                                                                                       .......... .................................................................................................................................................................................................................... ................. .................................                                                                        ........................   .......................                 ........... ...........   .......................                                                              ",
"                                                                ...........                                                                                                                                                                        .......... .................................................................................................................................................................................................................... ................. .................................                                                                        ..........................   ............................... ................. .........   .........................                                                              ",
"                                                                 .........                                                                                                                                                                         .......... .................................................................................................................................................................................................................... ................. .................................                                                                        ............................   ............................. ................. .......   ...........................                                                              ",
"                                                                  .......                                                                                                                                                                           ......... .................................................................................................................................................................................................................... ................. ................................                                                                         ...............................   .......................... ................. ....   ..............................                                                              ",
"                                                                 . . .                                                                                                                                                                              ......... .................................................................................................................................................................................................................... ................. ................................                                                                         .................................   ........................ ................. ..   ................................                                                              ",
"                                                                .   ..                                                                                                                                                                              ......... .................................................................................................................................................................................................................... ................. ................................                                                                         ....................................    .................... ................    ...................................                                                              ",
"                                                              ..      .                                                                                                                                                                              ........ .................................................................................................................................................................................................................... ................. ...............................                                                                          ........................................    ................ ............    . .....................................                                                              ",
"                                                             .         .                                                                                                                                                                             ........ .................................................................................................................................................................................................................... ................. ...............................                                                                          ............................................      .......... ......      ..... .....................................                                                              ",
"                                                            .           ..                                                                                                                                                                           ........ ....................................................................................................................................................................................................................                   ..............................                                                                           ..................................................                             .....................................                                                              ",
"                                                           .              .                                                                                                                                                                          ........ .................................................................................................................................................................................................................... ................. ..............................                                                                           ............................................................ ................. .....................................                                                              ",
"                                                                                                                                                                                                                                                     ........ .................................................................................................................................................................................................................... ................. ..............................                                                                           ............................................................ ................. .....................................                                                              ",
"                                                                                                                                                                                                                                                     ........ .................................................................................................................................................................................................................... ................. ..............................                                                                           ............................................................ ................. .....................................                                                              ",
"                                                                                                                                                                                                                                                     ........ .................................................................................................................................................................................................................... ................. ..............................                                                                           ............................................................ ................. .....................................                                                              ",
"                                                                                                                                                                                                                                                              .................................................................................................................................................................................................................... ................. ..............................                                                                           ............................................................ ................. .....................................                                                              ",
"                                                                                                                                                                                                                                                     ........ .................................................................................................................................................................................................................... ................. ..............................                                                                           ............................................................ ................. .....................................                                                              ",
"                                                                                                                                                                                                                                                     ........ .................................................................................................................................................................................................................... ................. ..............................                                                                           ............................................................ ................. .....................................                                                              ",
"                                                                                                                                                                                                                                                     ............................................................................................................................................................................................................................. ................. ..............................        ..........                                                         ............................................................ ................. .....................................                                                              ",
"                                                                                                                                                                                                                                                     ............................................................................................................................................................................................................................. ................. ..............................        .        .                                                         ............................................................ ................. .....................................                                                              ",
"                                                                                                                                                                                                                                                     ............................................................................................................................................................................       .......................................... ................. ..............................        .        .                                                         ............................................................ ................. .....................................                                                              ",
"                                                                                                                                                                                                                                                     .........................................................................................................................................................................   .......   ....................................... ................. ..............................        .        .                                                         ............................................................ ................. .....................................                                                              ",
"                                                                                                                                                                                                                                                     .......................................................................................................................................................................  .............  ..................................... ................. ..............................        .        .                                                         ............................................................ ................. .....................................                                                              ",
"                                                                                                                                                                                                                                                     ......................................................................................................................................................................  ...............  .................................... ................. ..............................        .        .                                                         ............................................................ ................. .....................................                                                              ",
"                                                                                                                                                                                                                                                     ..................................................................................................................................................................... ................... ................................... ................. ..............................        ..........                                                         ............................................................ ................. .....................................                                                              ",
"                                                                                                                                                                   .                                                                                 .................................................................................................................................................................... ..................... .................................. ................. ..............................                                                                           ............................................................ ................. .....................................                                                              ",
"                                                                                                                                                                .......                                                                              ...................................................................................................................................................................  .....................  ................................. ................. ..............................                                                                           ............................................................ ................. .....................................                                                              ",
"                                                                                                                                                               .........                                                                             ................................................................................................................................................................... ....................... ................................. ................. ..............................                                                                           ............................................................ ................. .....................................                                                              ",
"                                                                                                                                                              ...........                                                                            .................................................................................................................................................................. ......................... ................................                   ..............................                                                                           ............................................................                   .....................................                                                              ",
"                                                                                                                                                              ...........                                                                            .................................................................................................................................................................. ......................... ................................ ................. ..............................                                                                           ............................................................ ................. .....................................                                                              ",
"                                                                                                                                                              ...........                                                                            .................................................................................................................................................................. ......................... ................................ ................. ..............................                                                                           ............................................................ ................. .....................................                                                              ",
"                                                                                                                                                             .............                                                                           ................................................................................................................................................................. ........................... ............................... ................. ..............................                                    .........                              ............................................................ ................. .....................................                                                              ",
"                                                                                                                                                              ...........                                                                            ................................................................................................................................................................. ........................... ............................... ................. ..............................                                 ...         ...                           ............................................................ ................. .....................................                                                              ",
"                                                                                                                                                              ...........                                                                            ................................................................................................................................................................. ........................... ............................... ................. ..............................                               ..               ..                         ............................................................ ................. .....................................                                                              ",
"                                                                                                                                                              ...........                                                                            ................................................................................................................................................................. ........................... ............................... ................. ..............................                              ..                 ..                        ............................................................ ................. .....................................                                                              ",
"                                                                                                                                                               .........                                                                             ................................................................................................................................................................. ........................... ............................... ................. ..............................                            ..                     ..                      ............................................................ ................. .....................................                                                              ",
"                                                                                                                                                                .......                                                                              ................................................................................................................................................................. ........................... ............................... ................. ..............................                           ..                       ..                     ............................................................ ................. .....................................                                                              ",
"                                                                                                                                                                .  .                                                                                 ................................................................................................................................................................. ........................... ............................... ................. ..............................                          ..                         ..                    ............................................................ ................. .....................................                                                              ",
"                                                                                                                                                               . .                                                                                   .................................................................................................................................................................. ......................... ................................ ................. ..............................                          .                           .                    ............................................................ ................. .....................................                                                              ",
"                                                                                                                                                              .   ..                                                                                 .................................................................................................................................................................. ......................... ................................ ................. ..............................                         .                             .                   ............................................................ ................. .....................................                                                              ",
"                                                                                                                                                            ..      .                                                                                .................................................................................................................................................................. ......................... ................................ ................. ..............................                        ..                             ..                  ............................................................ ................. .....................................                                                              ",
"                                                                                                                                                           .         .                                                                               ................................................................................................................................................................... ....................... ................................. ................. ..............................                        .                               .                  ............................................................ ................. .....................................                                                              ",
"                                                                                                                                                          .           ..                                                                             ...................................................................................................................................................................  .....................  ................................. ................. ..............................                       .                                 .                 ............................................................ ................. .....................................                                                              ",
"                                                                                                                                                         .              .                                                                            .................................................................................................................................................................... ..................... .................................. ................. ..............................                       .                                 .                 ............................................................ ................. .....................................                                                              ",
"                                                                                                                                                                                                                                                     ....................................................................................................................................................................                      ................................... ................. ..............................                       .                                 .                 ............................................................ ................. .....................................                                                              ",
"                                                                                                                                                                                                                                                     ....................................................................................................................................................................                      ............... ................... ................. ..............................                      .                                   .                ............................................................ ................. .....................................                                                              ",
"                                                                                                                                                                                                                                                     ....................................................................................................................................................................                      .............. . ..................                   ..............................                      .                                   .                ............................................................                   .....................................                                                              ",
"                                                                                                                                                                                                                                                     ....................................................................................................................................................................                      .............. . .................. ................. ..............................                      .                                   .                ............................................................ ................. .....................................                                                              ",
"                                                                                                                                                                                                                                                     ....................................................................................................................................................................                      ............. ... ................. ................. ..............................                      .                                   .                ............................................................ ................. .....................................                     .                                        ",
"                                                                                                                                                                                                                                                     ....................................................................................................................................................................                      ............. ... ................. ................. ..............................                      .                                   .                ............................................................ ................. .....................................                  .......                                     ",
"                                                                                                                                                                                                                                                     ....................................................................................................................................................................                      ............ ..... ................ ................. ..............................                      .                                   .                ............................................................ ................. .....................................                 .........                                    ",
"                                                                                                                                                                                                                                                     ....................................................................................................................................................................                      ........... ....... ............... ................. ..............................                      .                                   .                ............................................................ ................. .....................................                 .........          ..........                ",
"                                                                                                                                                                                                                                                     ....................................................................................................................................................................                      ........... ....... ............... ................. ..............................                      .                                   .                ............................................................ ................. .....................................                 .........          .        .                ",
"                                                                                                                                                                                                                                                     ...................................................................................... .............................................................................                      .......... ......... .............. ................. ..............................                      .                                   .                ............................................................ ................. .....................................                ...........         .        .                ",
"                                                                                                                                                                                                                                                     ..................................................................................... . ...........................................................................                       . ........ ......... .............. ................. ..............................                       .                                 .                 ............................................................ ................. .....................................                 .........          .        .                ",
"                                                                                                                                                                                                                                                     ..................................................................................... . .......................................................................... .                      .. ...... ........... ............. ................. ..............................                       .                                 .                 ............................................................ ................. .....................................                 .........          .        .                ",
"                                                                                                                                                                                                                                                     .................................................................................... ... ........................................................................ ....... ........... ....... .... ............. ............ ................. ..............................                       .                                 .                 ............................................................ ................. .....................................                 .........          .        .                ",
"                                                                                                                                                                                                                                                     .................................................................................... ... ........................................................................ ....... ........... ....... .... ............. ............ ................. ..............................                        .                               .                  ............................................................ ................. .....................................                  .......           ..........                ",
"                                                                                                                                                                                                                                                     ................................................................................... ..... ...................................................................... ........ ........... ........ .. ............... ........... ................. ..............................                        ..                             ..                  ............................................................ ................. .....................................                     .                                        ",
"                                                                                                                                                                                                                                                     .................................................................................. ....... .................................................................... ........ ............. ........ . ............... ........... ................. ..............................                         .                             .                   ............................................................ ................. .....................................                  .                                           ",
"                                                                                                                                                                                                                                                     .................................................................................. ....... ................................................................... ......... ............. ......... ................. .......... ................. ..............................                          .                           .                    ............................................................ ................. .....................................                 . .                                          ",
"                                                                                                                                                                                                                                                     ................................................................................. ......... .................................................................. ......... ............. ........  .................. ......... ................. ..............................                          ..                         ..                    ............................................................ ................. .....................................                .   ..                                        ",
"                                                                                                                                                                                                                                                     ................................................................................. ......... ................................................................. ......... ............... ....... . ................. ......... ................. ..............................                          ............................                     ............................................................ ................. .....................................              ..      .                                       ",
"                      .                                                                                                                                                                                                                              ................................................................................ ........... ............................................................... .......... ............... ...... ... ................. ........ ................. ..............................                          ............................                     ....................................................................................................................             .         .                                      ",
"                   .......                                                                                                                                                                                                                           ............................................................................... ............. ............................................................. ........... ............... ...... .... ................ ........                   ..............................                          ............................                     ....................................................................................................................            .           ..                                    ",
"                  .........                                                                                                                                                                                                                          ............................................................................... ............. ............................................................. ........... ............... ..... ..... ................. ....... ................. ..............................                          ............................                     ....................................................................................................................           .              .                                   ",
"            ...............                                                                                                                                                                                                                          .............................................................................. ............... ........................................................... ........... ................. ..... ..... ............... ........ ................. ..............................                        . ............................  .                  ....................................................................................................................                                                              ",
"            .     .........                                                                                                                                                                                                                          .............................................................................. ............... .......................................................... ............ ................. ...... ..... ............. ......... ................. ..............................                       .  ............................   .                 ....................................................................................................................                                                              ",
"            .    ...........                                                                                                                                                                                                                         ............................................................................. ................. ........................................................ ............. ................. ...... ...... ............ ......... ................. ..............................                      .   ............................    .                ....................................................................................................................                                                              ",
"            .     .........                                                                                                                                                                                                                          ............................................................................ ................... ....................................................... ............ ................... ...... ..... ........... .......... ................. ..............................                      .   ............................    .                ....................................................................................................................                                                              ",
"            .     .........                                                                                                                                                                                                                          ............................................................................ ................... ...................................................... ............. ................... ....... ..... ......... ........... ................. ..............................                     .    ............................     .                                                                                                                                                                                                 ",
"            .     .........                                                                                                                                                                                                                          ........................................................................... ..................... ................................................................................................ ............. ............ ................. ..............................                    .     ............................      .                                                                                                                                                                                                ",
"            ..............                                                                                                                                                                                                                           ........................................................................... ..................... ............................................... ................................................. ........... ............. ................. ..............................                   .      ............................       .                                                                                                                                                                                               ",
"                      .                                                                                                                                                                                                                              .......................................................................... ....................... ............................................. . ................................................ ........... ..............................................................                  .       ............................        .                                                                                                                                                                                              ",
"                   .                                                                                                                                                                                                                                 ........................................................................... ..................... .............................................. . ................................................. ......... ...............................................................                  .       ............................        .                                                                                                                                                                                              ",
"                  . .                                                                                                                                                                                                                                ............................................................................ ................... .............................................. ... ................................................. ....... ................................................................                 .        ............................         .                                                                                                                                                                                             ",
"                 .   ..                                                                                                                                                                                                                              ............................................................................ ................... .............................................. ... .................................................. ..... .................................................................                .           .                       .           .                                                                                                                                                                                            ",
"               ..      .                                                             ..........                                                                                                                                                      ............................................................................. ................. .............................................. ..... .................................................. ... ..................................................................               .            .                       .            .                                                                                                                                                                                           ",
"              .         .                                                            .        .                                                                                                                                                      .............................................................................. ............... .............................................. ....... ................................................. ... ..................................................................              .            .                         .            .                                                                                                                                                                                          ",
"             .           ..                                                          .        .                                                                                                                                                      ............................................................................... ............. ............................................... ....... .................................................. . ...................................................................              .            .                         .            .                                                                                                                                                                                          ",
"            .              .                                                         .        .                                                                                                                                                      ................................................................................ ........... ............................................... ......... .................................................. ....................................................................             .            .                           .            .                                                                                                                                                                                         ",
"                                                                                     .        .                                                                                                                                                      ................................................................................ ........... ............................................... ......... .......................................................................................................................            .             .                           .             .                                                                                                                                                                                        ",
"                                                                                     .        .                                                                                                                                                      ................................................................................. ......... ............................................... ........... ......................................................................................................................           .              .                           .              .                                                                                                                                                                                       ",
"                                                                                     ..........                                                                                                                                                      .................................................................................. ....... ............................................... ............. .....................................................................................................................          .              .                             .              .                                                                                                                                                                                      ",
"                                                                                                                                                                                                                                                     ................................................................................... ..... ................................................ ............. .....................................................................................................................          .              .                             .              .                                                                                                                                                                                      ",
"                                                                                                                                                                                                                                                     .................................................................................... ... ................................................ ............... ....................................................................................................................         .              .                               .              .                                                                                                                                                                                     ",
"                                                                                                                                                                                                                                                     .................................................................................... ... ................................................ ............... ....................................................................................................................        .               .                               .              ..                                                                                                                                                                                    ",
"                                                                                                                                                                                                                                                     ..................................................................................... . ................................................ ................. ...................................................................................................................                                                                     .....                                                                                                                                                                                   ",
"                                                                                                                                                              ..........                                                                             ...................................................................................... ................................................ ................... ..................................................................................................................                                                                    .......                                                                                                                                                                                  ",
"                                                                                                                                                              .        .                                                                             ....................................................................................................................................... ................... ..................................................................................................................                                                                    .......                                                                                                                                                                                  ",
"                                                                                                                                                              .        .                                                                             ...................................................................................................................................... ..................... .................................................................................................................                                                                   .........                                                                                                                                                                                 ",
"                                                                                                                                                              .        .                                                                             ...................................................................................................................................... ..................... .................................................................................................................                                                                    .......                                                                                                                                                                                  ",
"                                                                                                                                                              .        .                                                                             ..................................................................................................................................... ....................... ................................................................................................................                                                                    .......                                                                                                                                                                                  ",
"                                                                                                                                                              .        .                                                                             ...................................................................................................................................... ..................... .................................................................................................................                                                                     .....                                                                                                                                                                                   ",
"                                                                                                                                                              ..........                                                                             ....................................................................................................................................... ................... ..................................................................................................................                                                                       .                                                                                                                                                                                     ",
"                                                                                                                                                                                                                                                     ....................................................................................................................................... ................... ..................................................................................................................                                                                                                                                                                                                                                                             ",
"                                                                                                                    .                                                                                                                                ........................................................................................................................................ ................. ...................................................................................................................                                                                    .                                                                                                                                                                                        ",
"                                                                                                                  .....                                                                                                                              ......................................................................................................................................... ............... ....................................................................................................................                                                                   . .                                                                                                                                                                                       ",
"                                                                                                                 .......                                                                                                                             .......................................................................................................................................... ............. .....................................................................................................................                                                                  .   ..                                                                                                                                                                                     ",
"                                                                                                                 .......                                                                                                               ..........    ........................................................................................................................................... ........... ......................................................................................................................                                                                ..      .                                                                                                                                                                                    ",
"                                                                                                                .........                                                                                                              .        .    ........................................................................................................................................... ........... ......................................................................................................................                                                               .         .                                                                                                                                                                                   ",
"                                                                                                                 .......                                                                                                               .        .    ............................................................................................................................................ ......... .......................................................................................................................                                                              .           ..                                                                                                                                                                                 ",
"                                                                                                                 .......                                                                                                               .        .    ............................................................................................................................................. ....... ........................................................................................................................                                                             .              .                                                                                                                                                                                ",
"                                                                                                                  .....                                                                                                                .        .    .............................................................................................................................................. ..... .........................................................................................................................                                                                                                                                                                                                                                                             ",
"                                                                                                                    .                                                                                                                  .        .    ............................................................................................................................................... ... ..........................................................................................................................                                                                                                                                                                                                                                                             ",
"                                                                                                                                                                                                                                       ..........    ............................................................................................................................................... ... ..........................................................................................................................                                                                                                                                                                                                                                                             ",
"                                                                                                                 .                                                                                                                                   ................................................................................................................................................ . ...........................................................................................................................                                                                                                                                                                                                                                                             ",
"                                                                                                                . .                                                                                                                                  ................................................................................................................................................. ............................................................................................................................                                                                                                                                                                                                                                                             ",
"                                                                                                               .   ..                                                                                                                                ..............................................................................................................................................................................................................................................................................                                                                                                                                                                                                                                                             ",
"                                                                                                             ..      .                                                                                                                               ..............................................................................................................................................................................................................................................................................                                                                                                                                                                                                                                                             ",
"                                                                                                            .         .                                                                                                                              ..............................................................................................................................................................................................................................................................................                                                                                                                                                                                                                                                             ",
"                                                                                                           .           ..                                                                                                                            ..............................................................................................................................................................................................................................................................................                                                                                                                                                                                                                                                             ",
"                                                                                                          .              .                                                                                                                           ..............................................................................................................................................................................................................................................................................                                                                                                                                                                                                                                                             ",
"                                                                                                                                                                                                                                                     ..............................................................................................................................................................................................................................................................................                                                                                                                                                                                                                                                             ",
"                                                                                                                                                                                                                                                     ..............................................................................................................................................................................................................................................................................                                                                                                                                                                                                                                                             ",
"                                                                                                                                                                                                                                                     ..............................................................................................................................................................................................................................................................................                                                                                                                                                                                                                                                             ",
"                                                                                                                                                                                                                                                     ..............................................................................................................................................................................................................................................................................                                                                                                                                                                                                                                                             ",
"                                                                                                                                                                                                                                                     ..............................................................................................................................................................................................................................................................................                                                                                                                                                                                                                                                             ",
"                                                                                                                                                                                                                                                     ..............................................................................................................................................................................................................................................................................                                                                                                                                                                                                                                                             ",
"                                                                                                                                                                                                                                                     ..............................................................................................................................................................................................................................................................................                                                                                                                                                                                                                                                             ",
"                                                                                                                                                                                                                                                     ..............................................................................................................................................................................................................................................................................                                                                                                                                                                                                                                                             ",
"                                                                                                                                                                                                                                                     ..............................................................................................................................................................................................................................................................................                                                                                                                                                                                                                                                             ",
"                                                                                                                                                                                                                                                                                                                                                                                                                                                                                                                                                                                                                                                                                                                                                                                                ",
"                                                                                                                                                                                                                                                                                                                                                                                                                                                                                                                                                                                                                                                                                                                                                                                                ",
"                                                                                                                                                                                                                                                                                                                                                                                                                                                                                                                                                                                                                                                                                                                                                                                                ",
"                                                                                                                                                                                                                                                                                                                                                                                                                                                                                                                                                                                                                                                                                                                                                                                                ",
"                                                                                                                                                                                                                                                                                                                                                                                                                                                                                                                                                                                                                                                                                                                                                                                                ",
"                                                                                                                                                                                                                                                                                                                                                                                                                                                                                                                                                                                                                                                                                                                                                                                                ",
"                .                           .                           .                           .                           .                           .                           .                           .                           .                           .                           .                           .                           .                           .                           .                           .                           .                           .                           .                           .                           .                           .                           .                           .                           .                           .                           .                       ",
"               . .                         . .                         . .                         . .                         . .                         . .                         . .                         . .                         . .                         . .                         . .                         . .                         . .                         . .                         . .                         . .                         . .                         . .                         . .                         . .                         . .                         . .                         . .                         . .                         . .                         . .                         . .                      ",
"              .   .                       .   .                       .   .                       .   .                       .   .                       .   .                       .   .                       .   .                       .   .                       .   .                       .   .                       .   .                       .   .                       .   .                       .   .                       .   .                       .   .                       .   .                       .   .                       .   .                       .   .                       .   .                       .   .                       .   .                       .   .                       .   .                       .   .                     ",
"              .   .                       .   .                       .   .                       .   .                       .   .                       .   .                       .   .                       .   .                       .   .                       .   .                       .   .                       .   .                       .   .                       .   .                       .   .                       .   .                       .   .                       .   .                       .   .                       .   .                       .   .                       .   .                       .   .                       .   .                       .   .                       .   .                       .   .                     ",
"             .     .                     .     .                     .     .                     .     .                     .     .                     .     .                     .     .                     .     .                     .     .                     .     .                     .     .                     .     .                     .     .                     .     .                     .     .                     .     .                     .     .                     .     .                     .     .                     .     .                     .     .                     .     .                     .     .                     .     .                     .     .                     .     .                     .     .                    ",
"            .       .                   .       .                   .       .                   .       .                   .       .                   .       .                   .       .                   .       .                   .       .                   .       .                   .       .                   .       .                   .       .                   .       .                   .       .                   .       .                   .       .                   .       .                   .       .                   .       .                   .       .                   .       .                   .       .                   .       .                   .       .                   .       .                   .       .                   ",
"           .         .                 .         .                 .         .                 .         .                 .         .                 .         .                 .         .                 .         .                 .         .                 .         .                 .         .                 .         .                 .         .                 .         .                 .         .                 .         .                 .         .                 .         .                 .         .                 .         .                 .         .                 .         .                 .         .                 .         .                 .         .                 .         .                 .         .                 .",
"          .           .               .           .               .           .               .           .               .           .               .           .               .           .               .           .               .           .               .           .               .           .               .           .               .           .               .           .               .           .               .           .               .           .               .           .               .           .               .           .               .           .               .           .               .           .               .           .               .           .               .           .               .           .               . ",
"          .           .               .           .               .           .               .           .               .           .               .           .               .           .               .           .               .           .               .           .               .           .               .           .               .           .               .           .               .           .               .           .               .           .               .           .               .           .               .           .               .           .               .           .               .           .               .           .               .           .               .           .               .           .               . ",
"         .             .             .             .             .             .             .             .             .             .             .             .             .             .             .             .             .             .             .             .             .             .             .             .             .             .             .             .             .             .             .             .             .             .             .             .             .             .             .             .             .             .             .             .             .             .             .             .             .             .             .             .             .             .             .  ",
"        .               .           .               .           .               .           .               .           .               .           .               .           .               .           .               .           .               .           .               .           .               .           .               .           .               .           .               .           .               .           .               .           .               .           .               .           .               .           .               .           .               .           .               .           .               .           .               .           .               .           .               .           .               .           .   ",
"                                                                                                                                                                                                                                                                                                                                                                                                                                                                                                                                                                                                                                                                                                                                                                                                ",
"                                                                                                                                                                                                                                                                                                                                                                                                                                                                                                                                                                                                                                                                                                                                                                                                ",
"                                                                                                                                                                                                                                                                                                                                                                                                                                                                                                                                                                                                                                                                                                                                                                                                ",
"                                                                                                                                                                                                                                                                                                                                                                                                                                                                                                                                                                                                                                                                                                                                                                                                ",
"                                                                                                                                                                                                                                                                                                                                                                                                                                                                                                                                                                                                                                                                                                                                                                                                ",
"                                                                                                                                                                                                                                                                                                                                                                                                                                                                                                                                                                                                                                                                                                                                                                                                ",
"                                                                                                                                                                                                                                                                                                                                                                                                                                                                                                                                                                                                                                                                                                                                                                                                ",
"                                                                                                                                                                                                                                                                                                                                                                                                                                                                                                                                                                                                                                                                                                                                                                                                ",
"                                                                                                                                                                                                                                                                                                                                                                                                                                                                                                                                                                                                                                                                                                                                                                                                ",
"                                                                                                                                                                                                                                                                                                                                                                                                                                                                                                                                                                                                                                                                                                                                                                                                ",
"                                                                                                                                                                                                                                                                                                                                                                                                                                                                                                                                                                                                                                                                                                                                                                                                ",
"                                                                                                                                                                                                                                                                                                                                                                                                                                                                                                                                                                                                                                                                                                                                                                                                ",
"                                                                                                                                                                                                                                                                                                                                                                                                                                                                                                                                                                                                                                                                                                                                                                                                ",
"                                                                                                                                                                                                                                                                                                                                                                                                                                                                                                                                                                                                                                                                                                                                                                                                ",
"                                                                                                                                                                                                                                                                                                                                                                                                                                                                                                                                                                                                                                                                                                                                                                                                ",
"                                                                                                                                                                                                                                                                                                                                                                                                                                                                                                                                                                                                                                                                                                                                                                                                ",
"                                                                                                                                                                                                                                                                                                                                                                                                                                                                                                                                                                                                                                                                                                                                                                                                ",
"                                                                                                                                                                                                                                                                                                                                                                                                                                                                                                                                                                                                                                                                                                                                                                                                ",
"                                                                                                                                                                                                                                                                                                                                                                                                                                                                                                                                                                                                                                                                                                                                                                                                ",
"                                                                                                                                                                                                                                                                                                                                                                                                                                                                                                                                                                                                                                                                                                                                                                                                ",
"                                                                                                                                                                                                                                                                                                                                                                                                                                                                                                                                                                                                                                                                                                                                                                                                ",
"                                                                                                                                                                                                                                                                                                                                                                                                                                                                                                                                                                                                                                                                                                                                                                                                ",
"                                                                                                                                                                                                                                                                                                                                                                                                                                                                                                                                                                                                                                                                                                                                                                                                ",
"                                                                                                                                                                                                                                                                                                                                                                                                                                                                                                                                                                                                                                                                                                                                                                                                ",
"                                                                                                                                                                                                                                                                                                                                                                                                                                                                                                                                                                                                                                                                                                                                                                                                "
};
