/* XPM - hand-composed 1-bit LCD artwork */
static const char *unix_workstation[] = {
"768 512 2 1",
"  c #FFFFFF",
". c #000000",
"................................................................................................................................................................................................................................................................................................................................................................................................................................................................................................................................................................................................................................................................................................................................................................................................",
"................................................................................................................................................................................................................................................................................................................................................................................................................................................................................................................................................................................................................................................................................................................................................................................................",
"................................................................................................................................................................................................................................................................................................................................................................................................................................................................................................................................................................................................................................................................................................................................................................................................",
"................................................................................................................................................................................................................................................................................................................................................................................................................................................................................................................................................................................................................................................................................................................................................................................................",
"................................................................................................................................................................................................................................................................................................................................................................................................................................................................................................................................................................................................................................................................................................................................................................................................",
"................................................................................................................................................................................................................................................................................................................................................................................................................................................................................................................................................................................................................................................................................................................................................................................................",
"..............        ....          ....        ..  ......  ..........................          ..          ..  ..........          ..........................  ......  ..          ..          ..  ......  ............................      ....        ....          ..          ....      ....  ......  ....        ....................................................................................................................................................................................................  ......  ....      ....  ......  ..............  ......  ....      ....  ......  ..................  ........      ....................  ........      ..................      ..........  ....................  ........      ......      ......      ............",
"..............        ....          ....        ..  ......  ..........................          ..          ..  ..........          ..........................  ......  ..          ..          ..  ......  ............................      ....        ....          ..          ....      ....  ......  ....        ....................................................................................................................................................................................................  ......  ....      ....  ......  ..............  ......  ....      ....  ......  ..................  ........      ....................  ........      ..................      ..........  ....................  ........      ......      ......      ............",
"..............  ......  ..  ..........  ..........  ....  ............................  ..............  ......  ..........  ..................................  ......  ......  ......  ..........  ......  ..........................  ......  ..  ......  ......  ..........  ......  ......  ..    ....  ..  ............................................................................................................................................................................................................    ..    ..  ......  ..    ....  ..............    ..    ..  ......  ..  ......  ................    ......  ......  ................    ......  ......  ......    ....  ......  ......    ..................    ......  ......  ..  ......  ..  ..................",
"..............  ......  ..  ..........  ..........  ....  ............................  ..............  ......  ..........  ..................................  ......  ......  ......  ..........  ......  ..........................  ......  ..  ......  ......  ..........  ......  ......  ..    ....  ..  ............................................................................................................................................................................................................    ..    ..  ......  ..    ....  ..............    ..    ..  ......  ..  ......  ................    ......  ......  ................    ......  ......  ......    ....  ......  ......    ..................    ......  ......  ..  ......  ..  ..................",
"..............  ......  ..  ..........  ..........  ..  ..............................  ..............  ......  ..........  ..................................  ......  ......  ......  ..........  ......  ..........................  ......  ..  ......  ......  ..........  ......  ......  ..  ..  ..  ..  ............................................................................................................................................................................................................  ..  ..  ..  ......  ..  ..  ..  ..............  ..  ..  ..  ......  ....  ..  ....................  ......  ......  ..................  ......  ....    ......    ............  ....  ..  ....................  ......  ......  ..  ......  ..  ..................",
"..............  ......  ..  ..........  ..........  ..  ..............................  ..............  ......  ..........  ..................................  ......  ......  ......  ..........  ......  ..........................  ......  ..  ......  ......  ..........  ......  ......  ..  ..  ..  ..  ............................................................................................................................................................................................................  ..  ..  ..  ......  ..  ..  ..  ..............  ..  ..  ..  ......  ....  ..  ....................  ......  ......  ..................  ......  ....    ......    ............  ....  ..  ....................  ......  ......  ..  ......  ..  ..................",
"..............  ......  ..        ......      ....    ................................        ........  ......  ..........        ............................  ......  ......  ......        ....  ..  ..  ..........................  ......  ..        ........  ..........  ......  ......  ..  ....    ....      ......................................................................................................................................................................................................  ..  ..  ..  ......  ..  ....    ..............  ..  ..  ..          ......  ......................  ........        ..................  ......  ..  ..  ....................  ....  ....  ....................  ........        ....      ....        ............",
"..............  ......  ..        ......      ....    ................................        ........  ......  ..........        ............................  ......  ......  ......        ....  ..  ..  ..........................  ......  ..        ........  ..........  ......  ......  ..  ....    ....      ......................................................................................................................................................................................................  ..  ..  ..  ......  ..  ....    ..............  ..  ..  ..          ......  ......................  ........        ..................  ......  ..  ..  ....................  ....  ....  ....................  ........        ....      ....        ............",
"..............  ......  ..  ..................  ..  ..  ..............................  ..............  ......  ..........  ..................................  ......  ......  ......  ..........  ..  ..  ..........................  ......  ..  ..............  ..........  ......  ......  ..  ......  ..........  ....................................................................................................................................................................................................  ......  ..  ......  ..  ......  ..............  ......  ..  ......  ......  ......................  ..............  ..................  ......    ....  ......    ........  ......          ..................  ..............  ..  ......  ..  ......  ..........",
"..............  ......  ..  ..................  ..  ..  ..............................  ..............  ......  ..........  ..................................  ......  ......  ......  ..........  ..  ..  ..........................  ......  ..  ..............  ..........  ......  ......  ..  ......  ..........  ....................................................................................................................................................................................................  ......  ..  ......  ..  ......  ..............  ......  ..  ......  ......  ......................  ..............  ..................  ......    ....  ......    ........  ......          ..................  ..............  ..  ......  ..  ......  ..........",
"..............  ......  ..  ..................  ..  ....  ............................  ..............  ......  ..........  ....................................  ..  ........  ......  ..........  ..  ..  ..........................  ......  ..  ..............  ..........  ......  ......  ..  ......  ..........  ....................................................................................................................................................................................................  ......  ..  ......  ..  ......  ..............  ......  ..  ......  ......  ......................  ..............  ..................  ......  ......  ......    ......  ..............  ....................  ..............  ..  ......  ..  ......  ..........",
"..............  ......  ..  ..................  ..  ....  ............................  ..............  ......  ..........  ....................................  ..  ........  ......  ..........  ..  ..  ..........................  ......  ..  ..............  ..........  ......  ......  ..  ......  ..........  ....................................................................................................................................................................................................  ......  ..  ......  ..  ......  ..............  ......  ..  ......  ......  ......................  ..............  ..................  ......  ......  ......    ......  ..............  ....................  ..............  ..  ......  ..  ......  ..........",
"..............        ....          ..        ....  ......  ..........................  ..........          ..          ..          ..............................  ......          ..          ....  ..  ..............................      ....  ..............  ......          ....      ....  ......  ..        ......................................................................................................................................................................................................  ......  ....      ....  ......  ..............  ......  ..  ......  ......  ....................      ......      ..................      ......      ................          ........  ..................      ......      ......      ......      ............",
"..............        ....          ..        ....  ......  ..........................  ..........          ..          ..          ..............................  ......          ..          ....  ..  ..............................      ....  ..............  ......          ....      ....  ......  ..        ......................................................................................................................................................................................................  ......  ....      ....  ......  ..............  ......  ..  ......  ......  ....................      ......      ..................      ......      ................          ........  ..................      ......      ......      ......      ............",
"................................................................................................................................................................................................................................................................................................................................................................................................................................................................................................................................................................................................................................................................................................................................................................................................",
"................................................................................................................................................................................................................................................................................................................................................................................................................................................................................................................................................................................................................................................................................................................................................................................................",
"................................................................................................................................................................................................................................................................................................................................................................................................................................................................................................................................................................................................................................................................................................................................................................................................",
"................................................................................................................................................................................................................................................................................................................................................................................................................................................................................................................................................................................................................................................................................................................................................................................................",
"................................................................................................................................................................................................................................................................................................................................................................................................................................................................................................................................................................................................................................................................................................................................................................................................",
"                                                                                                                                                                                                                                                                                                                                                                                                                                                                                                                                                                                                                                                                                                                                                                                                ",
"             .                .                .                .                .                .                .                .                .                .                .                .                .                .                .                .                .                .                .                .                .                .                .                .                .                .                .                .                .                .                .                .                .                .                .                .                .                .                .                .                .                .                .                .                .      ",
"           .                .                .                .                .                .                .                .                .                .                .                .                .                .                .                .                .                .                .                .                .                .                .                .                .                .                .                .                .                .                .                .                .                .                .                .                .                .                .                .                .                .                .                .                .        ",
"         .                .                .                .                .                .                .                .                .                .                .                .                .                .                .                .                .                .                .                .                .                .                .                .                .                .                .                .                .                .                .                .                .                .                .                .                .                .                .                .                .                .                .                .                .          ",
"       .                .                .                .                .                .                .                .                .                .                .                .                .                .                .                .                .                .                .                .                .                .                .                .                .                .                .                .                .                .                .                .                .                .                .                .                .                .                .                .                .                .                .                .                .            ",
"     .                .                .                .                .                .                .                .                .                .                .                .                .                .                .                .                .                .                .                .                .                .                .                .                .                .                .                .                .                .                .                .                .                .                .                .                .                .                .                .                .                .                .                .                .              ",
"   .                .                .                .                .                .                .                .                .                .                .                .                .                .                .                .                .                .                .                .                .                .                .                .                .                .                .                .                .                .                .                .                .                .                .                .                .                .                .                .                .                .                .                .                .                ",
" .                .                .                .                .                .                .                .                .                .                .                .                .                .                .                .                .                .                .                .                .                .                .                .                .                .                .                .                .                .                .                .                .                .                .                .                .                .                .                .                .                .                .                .                .                . ",
"                .                .                .                .                .                .                .                .                .                .                .                .                .                .                .                .                .                .                .                .                .                .                .                .                .                .                .                .                .                .                .                .                .                .                .                .                .                .                .                .                .                .                .                .                .   ",
"              .                .                .                .                .                .                .                .                .                .                .                .                .                .                .                .                .                .                .                .                .                .                .                .                .                .                .                .                .                .                .                .                .                .                .                .                .                .                .                .                .                .                .                .                .     ",
"            .                .                .                .                .                .                .                .                .                .                .                .                .                .                .                .                .                .                .                .                .                .                .                .                .                .                .                .                .                .                .                .                .                .                .                .                .                .                .                .                .                .                .                .                .       ",
"          .                .                .                .                .                .                .                .                .                .                .                .                .                .                .                .                .                .                .                .                .                .                .                .                .                .                .                .                .                .                .                .                .                .                .                .                .                .                .                .                .                .                .                .                .         ",
"        .                .                .                .                .                .                .                .                .                .                .                .                .                .                .                .                .                .                .                .                .                .                .                .                .                .                .                .                .                .                .                .                .                .                .                .                .                .                .                .                .                .                .                .                .           ",
"      .                .                .                .          ......................................................................................................................................................................................................................................................................................................................................................... .          ........................................................................................................................................................................................................................................................................................................................................ .             ",
"    .                .                .                .            .........................................................................................................................................................................................................................................................................................................................................................            ........................................................................................................................................................................................................................................................................................................................................               ",
"  .                .                .                .              ..                                                                                                                                                                                                                                                                                                                                                     ..            ..                                                                                                                                                                                                                                                                                                                                    ..              .",
".                .                .                .                ..                                                                                                                                                                                                                                                                                                                                                     ..            ..                                                                                                                                                                                                                                                                                                                                    ..            .  ",
"               .                .                .                . ..                                                                                                                                                                                                                                                                                                                                                     ..          . ..                                                                                                                                                                                                                                                                                                                                    ..          .    ",
"             .                .                .                .   ..   ...............        ..........  ..........  ........    ..      ..  ..........  ..      ..    ......    ..                          ..                                                                                                                                                                                                         ..        .   ..   ...............        ..      ..    ......    ..........  ..                                                    ..                ..      ..  ..........    ........    ........    ......      ........  ..........    ........                                                                                                ..        .      ",
"           .                .                .                .     ..   ...............        ..........  ..........  ........    ..      ..  ..........  ..      ..    ......    ..                          ..                                                                                                                                                                                                         ..      .     ..   ...............        ..      ..    ......    ..........  ..                                                    ..                ..      ..  ..........    ........    ........    ......      ........  ..........    ........                                                                                                ..      .        ",
"         .                .                .                .       ..   ..           ..            ..      ..          ..      ..  ....  ....      ..      ....    ..  ..      ..  ..                        ....                                                                                                                                                                                                         ..    .       ..   ..           ..        ....  ....  ..      ..      ..      ..                                                  ....                ....  ....  ..          ..          ..          ..      ..  ..          ..          ..                                                                                                        ..    .          ",
"       .                .                .                .         ..   .. .       . ..            ..      ..          ..      ..  ....  ....      ..      ....    ..  ..      ..  ..                        ....                                                                                                                                                                                                         ..  .         ..   .. .       . ..        ....  ....  ..      ..      ..      ..                                                  ....                ....  ....  ..          ..          ..          ..      ..  ..          ..          ..                                                                                                        ..  .            ",
"     .                .                .                .           ..   ..  .     .  ..            ..      ..          ..      ..  ..  ..  ..      ..      ..  ..  ..  ..      ..  ..                          ..                                                                                                                                                                                                         ...           ..   ..  .     .  ..        ..  ..  ..  ..      ..      ..      ..                                                ..  ..                ..  ..  ..  ..          ..          ..          ..      ..  ..          ..          ..                                                                                                        ...              ",
"   .                .                .                .             ..   ..   .   .   ..            ..      ..          ..      ..  ..  ..  ..      ..      ..  ..  ..  ..      ..  ..                          ..                                                                                                                                                                                                         ..            ..   ..   .   .   ..        ..  ..  ..  ..      ..      ..      ..                                                ..  ..                ..  ..  ..  ..          ..          ..          ..      ..  ..          ..          ..                                                                                                        ..               ",
" .                .                .                .               ..   ..    . .    ..            ..      ........    ........    ..  ..  ..      ..      ..    ....  ..........  ..                          ..                                                                                                                                                                                                         ..            ..   ..    . .    ..        ..  ..  ..  ..........      ..      ..                      ..........              ..    ..                ..  ..  ..  ........      ......      ......    ..........  ..  ......  ........      ......                                                                                                  ..             . ",
"                .                .                .                ...   ..     .     ..            ..      ........    ........    ..  ..  ..      ..      ..    ....  ..........  ..                          ..                                                                                                                                                                                                         ..           ...   ..     .     ..        ..  ..  ..  ..........      ..      ..                      ..........              ..    ..                ..  ..  ..  ........      ......      ......    ..........  ..  ......  ........      ......                                                                                                  ..           .   ",
"              .                .                .                .  ..   ..    . .    ..            ..      ..          ..  ..      ..      ..      ..      ..      ..  ..      ..  ..                          ..                                                                                                                                                                                                         ..         .  ..   ..    . .    ..        ..      ..  ..      ..      ..      ..                                              ..........              ..      ..  ..                  ..          ..  ..      ..  ..      ..  ..                  ..                                                                                                ..         .     ",
"            .                .                .                .    ..   ..   .   .   ..            ..      ..          ..  ..      ..      ..      ..      ..      ..  ..      ..  ..                          ..                                                                                                                                                                                                         ..       .    ..   ..   .   .   ..        ..      ..  ..      ..      ..      ..                                              ..........              ..      ..  ..                  ..          ..  ..      ..  ..      ..  ..                  ..                                                                                                ..       .       ",
"          .                .                .                .      ..   ..  .     .  ..            ..      ..          ..    ..    ..      ..      ..      ..      ..  ..      ..  ..                          ..                                                                                                                                                                                                         ..     .      ..   ..  .     .  ..        ..      ..  ..      ..      ..      ..                                                    ..                ..      ..  ..                  ..          ..  ..      ..  ..      ..  ..                  ..                                                                                                ..     .         ",
"        .                .                .                .        ..   .. .       . ..            ..      ..          ..    ..    ..      ..      ..      ..      ..  ..      ..  ..                          ..                                                                                                                                                                                                         ..   .        ..   .. .       . ..        ..      ..  ..      ..      ..      ..                                                    ..                ..      ..  ..                  ..          ..  ..      ..  ..      ..  ..                  ..                                                                                                ..   .           ",
"      .                .                .                .          ..   ..           ..            ..      ..........  ..      ..  ..      ..  ..........  ..      ..  ..      ..  ..........                ......                                                                                                                                                                                                       .. .          ..   ..           ..        ..      ..  ..      ..  ..........  ..........                                            ..                ..      ..  ..........  ........    ........    ..      ..    ........  ..........  ........                                                                                                  .. .             ",
"    .                .                .                .            ..   ...............            ..      ..........  ..      ..  ..      ..  ..........  ..      ..  ..      ..  ..........                ......                                                                                                                                                                                                       ..            ..   ...............        ..      ..  ..      ..  ..........  ..........                                            ..                ..      ..  ..........  ........    ........    ..      ..    ........  ..........  ........                                                                                                  ..               ",
"  .                .                .                .              ..   ...............                                                                                                                                                                                                                                                                                                                                   ..            ..   ...............                                                                                                                                                                                                                                                                                                                  ..              .",
".                .                .                .                ..                                                                                                                                                                                                                                                                                                                                                     ..            ..                                                                                                                                                                                                                                                                                                                                    ..            .  ",
"               .                .                .                . ..                                                                                                                                                                                                                                                                                                                                                     ..          . ..                                                                                                                                                                                                                                                                                                                                    ..          .    ",
"             .                .                .                .   ..                                                                                                                                                                                                                                                                                                                                                     ..        .   ..                                                                                                                                                                                                                                                                                                                                    ..        .      ",
"           .                .                .                .     ..                                                                                                                                                                                                                                                                                                                                                     ..      .     ..                                                                                                                                                                                                                                                                                                                                    ..      .        ",
"         .                .                .                .       .........................................................................................................................................................................................................................................................................................................................................................    .       ........................................................................................................................................................................................................................................................................................................................................    .          ",
"       .                .                .                .         .........................................................................................................................................................................................................................................................................................................................................................  .         ........................................................................................................................................................................................................................................................................................................................................  .            ",
"     .                .                .                .           ..                                                                                                                                                                                                                                                                                                                                                     ...           ..                                                                                                                                                                                                                                                                                                                                    ...              ",
"   .                .                .                .             ..                                                                                                                                                                                                                                                                                                                                                     ..            ..                                                                                                                                                                                                                                                                                                                                    ..               ",
" .                .                .                .               ..                                                                                                                                                                                                                                                                                                                                                     ..            ..                                                                                                                                                                                                                                                                                                                                    ..             . ",
"                .                .                .                ...                                                                                                                                                                                                                                                                                                                                                     ..           ...                                                                                                                                                                                                                                                                                                                                    ..           .   ",
"              .                .                .                .  ..                                                                                                                                                                                                                                                                                                                                                     ..         .  ..                                                                                                                                                                                                                                                                                                                                    ..         .     ",
"            .                .                .                .    ..                                                                                                                                                                                                                                                                                                                                                     ..       .    ..                                                                                                                                                                                                                                                                                                                                    ..       .       ",
"          .                .                .                .      ..                                                                                                                                                                                                                                                                                                                                                     ..     .      ..                                                                                                                                                                                                                                                                                                                                    ..     .         ",
"        .                .                .                .        ..                                                                                                                                                                                                                                                                                                                                                     ..   .        ..                                                                                                                                                                                                                                                                                                                                    ..   .           ",
"      .                .                .                .          ..                                                                                                                                                                                                                                                                                                                                                     .. .          ..                                                                                                                                                                                                                                                                                                                                    .. .             ",
"    .                .                .                .            ..             .... .   . .   .    .  ..  .       ....  .   . ....                                                                                                                                                                                                                                                                                     ..            ..                                                                                                                                                                                                                                                                                                                                    ..               ",
"  .                .                .                .              ..            .     .   . ..  .   ..  .. .        .   . .   . .   .                                                                                                                                                                                                                                                                                    ..            ..                                                                                                                                                                                                                                                                                                                                    ..              .",
".                .                .                .                ..            .     .   . . . .  . .    .         .   . .   . .   .                                                                                                                                                                                                                                                                                    ..            ..            .   .             ..... ....   ...  .   .                                            .... .   . ....    ... .....  .... .....                                                                                     ....   ...  ..... .....                                                                               ..            .  ",
"               .                .                .                . ..             ...  .   . .  .. .  .   .          ....  . . . .   .                                                                                                                                                                                                                                                                                    ..          . ..            ..  .             .     .   . .   . .. ..                                           .     .   . .   .    .  .     .       .                                                                                       .   . .   .   .   .                                                                                   ..          .    ",
"             .                .                .                .   ..                . .   . .   . ..... . ..        .     . . . .   .                                                                                                                                                                                                                                                                                    ..        .   ..            . . .             .     .   . .   . . . .                                           .     .   . .   .    .  .     .       .                                                                                       .   . .   .   .   .                                                                                   ..        .      ",
"           .                .                .                .     ..                . .   . .   .    .    ..        .     . . . .   .                                                                                                                                                                                                                                                                                    ..      .     ..            .  ..             ....  ....  .   . . . .                                            ...  .   . ....     .  ....  .       .                                                                                       .   . .....   .   ....                                                                                ..      .        ",
"         .                .                .                .       ..            ....   ...  .   .    .              .      . .  ....                                                                                                                                                                                                                                                                                     ..    .       ..            .   .             .     . .   .   . .   .                                               . .   . .   . .  .  .     .       .                                                                                       .   . .   .   .   .                                                                                   ..    .          ",
"       .                .                .                .         ..                                                                                                                                                                                                                                                                                                                                                     ..  .         ..            .   .             .     .  .  .   . .   .                                               . .   . .   . .  .  .     .       .                                                                                       .   . .   .   .   .                                                                                   ..  .            ",
"     .                .                .                .           ..                                                                                                                                                                                                                                                                                                                                                     ...           ..            .   .             .     .   .  ...  .   .                                           ....   ...  ....   ..   .....  ....   .                                                                                       ....  .   .   .   .....                                                                               ...              ",
"   .                .                .                .             ..                                                                                                                                                                                                                                                                                                                                                     ..            ..                                                                                                                                                                                                                                                                                                                                    ..               ",
" .                .                .                .               ..                                                                                                                                                                                                                                                                                                                                                     ..            ..                                                                                                                                                                                                                                                                                                                                    ..             . ",
"                .                .                .                ...                                                                                                                                                                                                                                                                                                                                                     ..           ...                                                                                                                                                                                                                                                                                                                                    ..           .   ",
"              .                .                .                .  ..                                                                                                                                                                                                                                                                                                                                                     ..         .  ..                                                                                                                                                                                                                                                                                                                                    ..         .     ",
"            .                .                .                .    ..                . .   .  .... ....      . .   .  ...  .   . .....     . .     ..... .....     .  .... ....   ....     . .....  ....  ...  .   . ..... ....  ..... .....                                                                                                                                                                              ..       .    ..                                                                                                                                                                                                                                                                                                                                    ..       .       ",
"          .                .                .                .      ..               .  .   . .     .   .    .  .   . .   . .. .. .        .  .     .     .        .  .     .   . .        .    .   .     .   . ..  . .     .   .   .     .                                                                                                                                                                                ..     .      ..                                                                                                                                                                                                                                                                                                                                    ..     .         ",
"        .                .                .                .        ..              .   .   . .     .   .   .   .   . .   . . . . .       .   .     .     .       .   .     .   . .       .     .   .     .   . . . . .     .   .   .     .                                                                                                                                                                                ..   .        ..                                                                                                                                                                                                                                                                                                                                    ..   .           ",
"      .                .                .                .          ..             .    .   .  ...  ....   .    ..... .   . . . . ....   .    .     ....  ....   .     ...  ....  .      .      .   .     .   . .  .. ....  .   .   .     .                                                                                                                                                                                .. .          ..              .               .   . ..... .   .                                                 ....  .....             .....  ....  ...  .   .       ..... ....  ..... .....  ...  ....                                                  .   .  ...  .   .         .    ...                                                        .. .             ",
"    .                .                .                .            ..            .     .   .     . . .   .     .   . .   . .   . .     .     .     .     .     .         . . .   .     .       .   .     .   . .   . .     .   .   .     .                                                                                                                                                                                ..            ..             ..               .  .  .     ..  .                                                 .   . .       ..          .   .     .   . ..  .       .     .   .   .     .   .   . .   .                                                 .. .. .   . .   .        ..   .   .                                                       ..               ",
"  .                .                .                .              ..                  .   .     . .  .        .   . .   . .   . .           .     .     .               . .  .  .             .   .     .   . .   . .     .   .   .     .                                                                                                                                                                                ..            ..              .               . .   .     . . .                                                 .   . .       ..          .   .     .   . . . .       .     .   .   .     .   .   . .   .                                                 . . . .   .  . .          .   .   .                                                       ..              .",
".                .                .                .                ..                   ...  ....  .   .       .   .  ...  .   . .....       ..... ..... .....       ....  .   .  ....       .....  ....  ...  .   . ..... ....  .....   .                                                                                                                                                                                ..            ..              .               ..    ....  .  ..                                                 ....  ....                .   .     .   . .  ..       ....  .   .   .     .   .   . ....                                                  . . . .....   .           .    ....                                                       ..            .  ",
"               .                .                .                . ..                                                                                                                                                                                                                                                                                                                                                     ..          . ..              .               . .   .     .   .                                                 . .   .       ..          .   .     .   . .   .       .     .   .   .     .   .   . . .                                                   .   . .   .   .           .       .                                                       ..          .    ",
"             .                .                .                .   ..                                                                                                                                                                                                                                                                                                                                                     ..        .   ..              .               .  .  .     .   .                                                 .  .  .       ..          .   .     .   . .   .       .     .   .   .     .   .   . .  .                                                  .   . .   .   .           .       .                                                       ..        .      ",
"           .                .                .                .     ..                                                                                                                                                                                                                                                                                                                                                     ..      .     ..             ...              .   . ..... .   .                                                 .   . .....             .....  ....  ...  .   .       ..... ....  .....   .    ...  .   .                                                 .   . .   .   .          ...   ...                                                        ..      .        ",
"         .                .                .                .       ..                                                                                                                                                                                                                                                                                                                                                     ..    .       ..                                                                                                                                                                                                                                                                                                                                    ..    .          ",
"       .                .                .                .         ..                                                                                                                                                                                                                                                                                                                                                     ..  .         ..                                                                                                                                                                                                                                                                                                                                    ..  .            ",
"     .                .                .                .           ..                                                                                                                                                                                                                                                                                                                                                     ...           ..                                                                                                                                                                                                                                                                                                                                    ...              ",
"   .                .                .                .             ..             .... .   . .   .    .  ..  .       .      ....             .                                                                                                                                                                                                                                                                            ..            ..                                                                                                                                                                                                                                                                                                                                    ..               ",
" .                .                .                .               ..            .     .   . ..  .   ..  .. .        .     .                 .                                                                                                                                                                                                                                                                            ..            ..                                                                                                                                                                                                                                                                                                                                    ..             . ",
"                .                .                .                ...            .     .   . . . .  . .    .         .     .                 .                                                                                                                                                                                                                                                                            ..           ...                                                                                                                                                                                                                                                                                                                                    ..           .   ",
"              .                .                .                .  ..             ...  .   . .  .. .  .   .          .      ...        ..... .                                                                                                                                                                                                                                                                            ..         .  ..                                                                                                                                                                                                                                                                                                                                    ..         .     ",
"            .                .                .                .    ..                . .   . .   . ..... . ..        .         .             .                                                                                                                                                                                                                                                                            ..       .    ..             ...               .... .   .  ....  ...  ....  .   . ..... .   .                    ...  .   .  ...  ....  ..... ..... ....  .     .   .       ....  ..... ....   ...  ....  .....                                           .   .  ...  .   .         .    ...                                                        ..       .       ",
"          .                .                .                .      ..                . .   . .   .    .    ..        .         .             .                                                                                                                                                                                                                                                                            ..     .      ..            .   .             .     .   . .     .   . .   . .. ..   .   ..  .                   .   . .   . .   . .   .   .   .     .   . .     .   .       .   . .     .   . .   . .   .   .                                             .. .. .   . .   .        ..   .   .                                                       ..     .         ",
"        .                .                .                .        ..            ....   ...  .   .    .              ..... ....              .....                                                                                                                                                                                                                                                                        ..   .        ..                .             .      . .  .     .   . .   . . . .   .   . . .                   .   . .   . .   . .   .   .   .     .   . .      . .        .   . .     .   . .   . .   .   .                                             . . . .   .  . .          .   .   .                                                       ..   .           ",
"      .                .                .                .          ..                                                                                                                                                                                                                                                                                                                                                     .. .          ..               .               ...    .    ...  ..... .   . . . .   .   .  ..                   .   . .   . ..... ....    .   ....  ....  .       .         ....  ....  ....  .   . ....    .                                             . . . .....   .           .    ...                                                        .. .             ",
"    .                .                .                .            ..                                                                                                                                                                                                                                                                                                                                                     ..            ..              .                   .   .       . .   . .   . .   .   .   .   .                   . . . .   . .   . . .     .   .     . .   .       .         . .   .     .     .   . . .     .                                             .   . .   .   .           .   .   .                                                       ..               ",
"  .                .                .                .              ..                                                                                                                                                                                                                                                                                                                                                     ..            ..             .                    .   .       . .   . .   . .   .   .   .   .                   .  .  .   . .   . .  .    .   .     .  .  .       .         .  .  .     .     .   . .  .    .                                             .   . .   .   .           .   .   .                                                       ..              .",
".                .                .                .                ..                                                                                                                                                                                                                                                                                                                                                     ..            ..            .....             ....    .   ....  .   . ....  .   . ..... .   .                    .. .  ...  .   . .   .   .   ..... .   . .....   .         .   . ..... .      ...  .   .   .                                             .   . .   .   .          ...   ...                                                        ..            .  ",
"               .                .                .                . ..                                                                                                                                                                                                                                                                                                                                                     ..          . ..                                                                                                                                                                                                                                                                                                                                    ..          .    ",
"             .                .                .                .   ..                                                                                                                                                                                                                                                                                                                                                     ..        .   ..                                                                                                                                                                                                                                                                                                                                    ..        .      ",
"           .                .                .                .     ..            .....  ...  .....  ...  .              .   ...                                                                                                                                                                                                                                                                                           ..      .     ..                                                                                                                                                                                                                                                                                                                                    ..      .        ",
"         .                .                .                .       ..              .   .   .   .   .   . .             ..  .                                                                                                                                                                                                                                                                                              ..    .       ..                                                                                                                                                                                                                                                                                                                                    ..    .          ",
"       .                .                .                .         ..              .   .   .   .   .   . .            . .  .                                                                                                                                                                                                                                                                                              ..  .         ..                                                                                                                                                                                                                                                                                                                                    ..  .            ",
"     .                .                .                .           ..              .   .   .   .   ..... .           .  .  ....                                                                                                                                                                                                                                                                                           ...           ..                                                                                                                                                                                                                                                                                                                                    ...              ",
"   .                .                .                .             ..              .   .   .   .   .   . .           ..... .   .                                                                                                                                                                                                                                                                                          ..            ..                                                                                                                                                                                                                                                                                                                                    ..               ",
" .                .                .                .               ..              .   .   .   .   .   . .              .  .   .                                                                                                                                                                                                                                                                                          ..            ..            ....               ...  .   . .   . .....                                            .... .   . .   .        .... .   . ....  ....   ...  ....  .....                                                                         .   .  ...  .   .         .    ...                                                        ..             . ",
"                .                .                .                ...              .    ...    .   .   . .....          .   ...                                                                                                                                                                                                                                                                                           ..           ...                .             .   . ..  . ..  . .                                               .     .   . ..  .       .     .   . .   . .   . .   . .   .   .                                                                           .. .. .   . .   .        ..   .   .                                                       ..           .   ",
"              .                .                .                .  ..                                                                                                                                                                                                                                                                                                                                                     ..         .  ..                .             .   . . . . . . . .                                               .     .   . . . .       .     .   . .   . .   . .   . .   .   .                                                                           . . . .   .  . .          .   .   .                                                       ..         .     ",
"            .                .                .                .    ..                                                                                                                                                                                                                                                                                                                                                     ..       .    ..             ...              ..... .  .. .  .. ....                                             ...  .   . .  ..        ...  .   . ....  ....  .   . ....    .                                                                           . . . .....   .           .    ...                                                        ..       .       ",
"          .                .                .                .      ..                                                                                                                                                                                                                                                                                                                                                     ..     .      ..                .             .   . .   . .   . .                                                   . .   . .   .           . .   . .     .     .   . . .     .                                                                           .   . .   .   .           .   .   .                                                       ..     .         ",
"        .                .                .                .        ..                                                                                                                                                                                                                                                                                                                                                     ..   .        ..                .             .   . .   . .   . .                                                   . .   . .   .           . .   . .     .     .   . .  .    .                                                                           .   . .   .   .           .   .   .                                                       ..   .           ",
"      .                .                .                .          ..                                                                                                                                                                                                                                                                                                                                                     .. .          ..            ....              .   . .   . .   . .....                                           ....   ...  .   .       ....   ...  .     .      ...  .   .   .                                                                           .   . .   .   .          ...   ...                                                        .. .             ",
"    .                .                .                .            ..                                                                                                                                                                                                                                                                                                                                                     ..            ..                                                                                                                                                                                                                                                                                                                                    ..               ",
"  .                .                .                .              ..                  ....  .   .       ....              ....                            .         .     ..... .....              .... .....  ...  ..... .....               .   ....   ...     .        ....  .....  ...  ....  .   . .....                                                                                                            ..            ..                                                                                                                                                                                                                                                                                                                                    ..              .",
".                .                .                .                ..                  .   . .   .       .   .             .   .                          ..         .     .     .                 .       .   .   . .     .                  ..       . .   .   ..        .   . .     .   . .   . .. .. .                                                                                                                ..            ..                                                                                                                                                                                                                                                                                                                                    ..            .  ",
"               .                .                .                . ..                  .   . .   .       .   .             .   .                           .         .     .     .                 .       .   .   . .     .                   .       .     .  . .        .   . .     .   . .   . . . . .                                                                                                                ..          . ..                                                                                                                                                                                                                                                                                                                                    ..          .    ",
"             .                .                .                .   ..            ..... ....  . . . ..... ....  ..... ..... ....  ..... .....               .         .     ....  ....               ...    .   ..... ....  ....                .    ...     .  .  .        ....  ....  ..... .   . . . . ....                                                                                                             ..        .   ..                                                                                                                                                                                                                                                                                                                                    ..        .      ",
"           .                .                .                .     ..                  . .   . . .       . .               . .                             .         .     .     .                     .   .   .   . .     .                   .       .   .   .....       . .   .     .   . .   . .   . .                                                                                                                ..      .     ..                                                                                                                                                                                                                                                                                                                                    ..      .        ",
"         .                .                .                .       ..                  .  .  . . .       .  .              .  .                            .         .     .     .                     .   .   .   . .     .                   .       .  .       .        .  .  .     .   . .   . .   . .                                                                                                                ..    .       ..                                                                                                                                                                                                                                                                                                                                    ..    .          ",
"       .                .                .                .         ..                  .   .  . .        .   .             .   .                          ...        ..... ..... .....             ....    .   .   . .     .                  ...  ....  .....    .        .   . ..... .   . ....  .   . .....                                                                                                            ..  .         ..                     .        .   .  ...  ....  .   .                                           .   . ..... ..... ..... ..... .   .  ....       ..... .   . .....  .... ....   ...  .   .                                                 .   .  ...  .   .         .    ...                                                        ..  .            ",
"     .                .                .                .           ..                                                                                                                                                                                                                                                                                                                                                     ...           ..            . . .   ..        .. .. .   . .   . .  .                                            .. .. .     .       .     .   ..  . .             .   .   . .     .     .   . .   . .   .                                                 .. .. .   . .   .        ..   .   .                                                       ...              ",
"   .                .                .                .             ..                                                                                                                                                                                                                                                                                                                                                     ..            ..             ...   . .        . . . .   . .   . . .                                             . . . .     .       .     .   . . . .             .   .   . .     .     .   . .   .  . .                                                  . . . .   .  . .          .   .   .                                                       ..               ",
" .                .                .                .               ..                                                                                                                                                                                                                                                                                                                                                     ..            ..            ..... .  .        . . . ..... ....  ..                                              . . . ....  ....    .     .   .  .. . ...         .   .   . ....   ...  .   . .....   .                                                   . . . .....   .           .    ....                                                       ..             . ",
"                .                .                .                ...                                                                                                                                                                                                                                                                                                                                                     ..           ...             ...  .....       .   . .   . . .   . .                                             .   . .     .       .     .   .   . .   .         .   .   . .         . .   . .   .   .                                                   .   . .   .   .           .       .                                                       ..           .   ",
"              .                .                .                .  ..                                                                                                                                                                                                                                                                                                                                                     ..         .  ..            . . .    .        .   . .   . .  .  .  .                                            .   . .     .       .     .   .   . .   .         .   .   . .         . .   . .   .   .                                                   .   . .   .   .           .       .                                                       ..         .     ",
"            .                .                .                .    ..                                                                                                                                                                                                                                                                                                                                                     ..       .    ..                     .        .   . .   . .   . .   .                                           .   . ..... .....   .   ..... .   .  ....         .    ...  ..... ....  ....  .   .   .                                                   .   . .   .   .          ...   ...                                                        ..       .       ",
"          .                .                .                .      ..                  ....  .   .       ....              ....                            .         .     ..... .....              .... .....  ...  ..... .....                .   ...    .    ...        .....  ....  ...  .   . ..... ....  ..... .....        ....                                                                                    ..     .      ..                                                                                                                                                                                                                                                                                                                                    ..     .         ",
"        .                .                .                .        ..                  .   . .   .       .   .             .   .                          ..         .     .     .                 .       .   .   . .     .                   ..  .   .  ..   .   .         .   .     .   . ..  . .     .   .   .     .         .                                                                                        ..   .        ..                                                                                                                                                                                                                                                                                                                                    ..   .           ",
"      .                .                .                .          ..                  .   . .   .       .   .             .   .                           .         .     .     .                 .       .   .   . .     .                  . .      .   .   .  ..         .   .     .   . . . . .     .   .   .     .         .                                                                                        .. .          ..                                                                                                                                                                                                                                                                                                                                    .. .             ",
"    .                .                .                .            ..            ..... ....  . . . ..... ....  ..... ..... ....  ..... .....               .         .     ....  ....               ...    .   ..... ....  ....              .  .     .    .   . . .         .   .     .   . .  .. ....  .   .   .     .         .                                                                                        ..            ..                                                                                                                                                                                                                                                                                                                                    ..               ",
"  .                .                .                .              ..                  . .   . . .       . .               . .                             .         .     .     .                     .   .   .   . .     .                 .....   .     .   ..  .         .   .     .   . .   . .     .   .   .     .         .                                                                                        ..            ..                                                                                                                                                                                                                                                                                                                                    ..              .",
".                .                .                .                ..                  .  .  . . .       .  .              .  .                            .         .     .     .                     .   .   .   . .     .                    .   .      .   .   .         .   .     .   . .   . .     .   .   .     .     ..  .                                                                                        ..            ..                                                                                                                                                                                                                                                                                                                                    ..            .  ",
"               .                .                .                . ..                  .   .  . .        .   .             .   .                          ...        ..... ..... .....             ....    .   .   . .     .                    .  .....  ...   ...        .....  ....  ...  .   . ..... ....  .....   .     ..   ....                                                                                    ..          . ..                                                                                                                                                                                                                                                                                                                                    ..          .    ",
"             .                .                .                .   ..                                                                                                                                                                                                                                                                                                                                                     ..        .   ..                                                                                                                                                                                                                                                                                                                                    ..        .      ",
"           .                .                .                .     ..                                                                                                                                                                                                                                                                                                                                                     ..      .     ..                                                                                                                                                                                                                                                                                                                                    ..      .        ",
"         .                .                .                .       ..                                                                                                                                                                                                                                                                                                                                                     ..    .       ..                                                                                                                                                                                                                                                                                                                                    ..    .          ",
"       .                .                .                .         ..                                                                                                                                                                                                                                                                                                                                                     ..  .         ..                                                                                                                                                                                                                                                                                                                                    ..  .            ",
"     .                .                .                .           ..                                                                                                                                                                                                                                                                                                                                                     ...           ..                                                                                                                                                                                                                                                                                                                                    ...              ",
"   .                .                .                .             ..                                                                                                                                                                                                                                                                                                                                                     ..            ........................................................................................................................................................................................................................................................................................................................................               ",
" .                .                .                .               ..                  ....  .   .       ....              ....                            .         .     ..... .....              .... .....  ...  ..... .....                   .....   .    ...        .....  ....  ...  .   . ..... ....  ..... .....       .   .                                                                                    ..            ........................................................................................................................................................................................................................................................................................................................................             . ",
"                .                .                .                ...                  .   . .   .       .   .             .   .                          ..         .     .     .                 .       .   .   . .     .                       .      ..   .   .         .   .     .   . ..  . .     .   .   .     .         .   .                                                                                    ..           ...                                                                                                                                                                                                                                                                                                                                    ..           .   ",
"              .                .                .                .  ..                  .   . .   .       .   .             .   .                           .         .     .     .                 .       .   .   . .     .                       .       .       .         .   .     .   . . . . .     .   .   .     .         .   .                                                                                    ..         .  ..                                                                                                                                                                                                                                                                                                                                    ..         .     ",
"            .                .                .                .    ..            ..... ....  . . . ..... ....  ..... ..... ....  ..... .....               .         .     ....  ....               ...    .   ..... ....  ....                    ....    .      .          .   .     .   . .  .. ....  .   .   .     .         .....                                                                                    ..       .    ..                                                                                                                                                                                                                                                                                                                                    ..       .       ",
"          .                .                .                .      ..                  . .   . . .       . .               . .                             .         .     .     .                     .   .   .   . .     .                           .   .     .           .   .     .   . .   . .     .   .   .     .         .   .                                                                                    ..     .      ..                                                                                                                                                                                                                                                                                                                                    ..     .         ",
"        .                .                .                .        ..                  .  .  . . .       .  .              .  .                            .         .     .     .                     .   .   .   . .     .                           .   .    .            .   .     .   . .   . .     .   .   .     .     ..  .   .                                                                                    ..   .        ..                                                                                                                                                                                                                                                                                                                                    ..   .           ",
"      .                .                .                .          ..                  .   .  . .        .   .             .   .                          ...        ..... ..... .....             ....    .   .   . .     .                       ....   ...  .....       .....  ....  ...  .   . ..... ....  .....   .     ..  .   .                                                                                    .. .          ..                                                                                                                                                                                                                                                                                                                                    .. .             ",
"    .                .                .                .            ..                                                                                                                                                                                                                                                                                                                                                     ..            ..                                                                                                                                                                                                                                                                                                                                    ..               ",
"  .                .                .                .              ..                                                                                                                                                                                                                                                                                                                                                     ..            ..                                                                                                                                                                                                                                                                                                                                    ..              .",
".                .                .                .                ..                                                                                                                                                                                                                                                                                                                                                     ..            ..                                                                                                                                                                                                                                                                                                                                    ..            .  ",
"               .                .                .                . ..                                                                                                                                                                                                                                                                                                                                                     ..          . ..                                                                                                                                                                                                                                                                                                                                    ..          .    ",
"             .                .                .                .   ..                                                                                                                                                                                                                                                                                                                                                     ..        .   ..                                                                                                                                                                                                                                                                                                                                    ..        .      ",
"           .                .                .                .     ..                                                                                                                                                                                                                                                                                                                                                     ..      .     ..                                                                                                                                                                                                                                                                                                                                    ..      .        ",
"         .                .                .                .       ..             .... .   . .   .    .  ..  .       .   .  ...  .   . .....                                                                                                                                                                                                                                                                              ..    .       ..            ..... ....   ...  .   .             .   .  ...  ....  .   .  ...   ...  .....       .   . ..... .....       ..... ....  .   .                                                                                                                                                                                           ..    .          ",
"       .                .                .                .         ..            .     .   . ..  .   ..  .. .        .. .. .   . .  .  .                                                                                                                                                                                                                                                                                  ..  .         ..            .     .   . .   . .. ..   ..        .. .. .   . .   . .  .  .   . .   .   .         .. ..   .     .         .     .   . .   .                                                                                                                                                                                           ..  .            ",
"     .                .                .                .           ..            .     .   . . . .  . .    .         . . . .   . . .   .                                                                                                                                                                                                                                                                                  ...           ..            .     .   . .   . . . .   ..        . . . .   . .   . . .       . .   .   .         . . .   .     .         .     .   . .   .                                                                                                                                                                                           ...              ",
"   .                .                .                .             ..             ...  .   . .  .. .  .   .          . . . ..... ..    ....                                                                                                                                                                                                                                                                               ..            ..            ....  ....  .   . . . .             . . . ..... ....  ..       .  .....   .         . . .   .     .         ....  .   . .   .                                                                                                                                                                                           ..               ",
" .                .                .                .               ..                . .   . .   . ..... . ..        .   . .   . . .   .                                                                                                                                                                                                                                                                                  ..            ..            .     . .   .   . .   .   ..        .   . .   . . .   . .     .   .   .   .         .   .   .     .         .     .   . .   .                                                                                                                                                                                           ..             . ",
"                .                .                .                ...                . .   . .   .    .    ..        .   . .   . .  .  .                                                                                                                                                                                                                                                                                  ..           ...            .     .  .  .   . .   .   ..        .   . .   . .  .  .  .        .   .   .     ..  .   .   .     .     ..  .     .   . .   .                                                                                                                                                                                           ..           .   ",
"              .                .                .                .  ..            ....   ...  .   .    .              .   . .   . .   . .....                                                                                                                                                                                                                                                                              ..         .  ..            .     .   .  ...  .   .             .   . .   . .   . .   .   .   .   . .....   ..  .   . .....   .     ..  ..... ....   ...                                                                                                                                                                                            ..         .     ",
"            .                .                .                .    ..                                                                                                                                                                                                                                                                                                                                                     ..       .    ..                                                                                                                                                                                                                                                                                                                                    ..       .       ",
"          .                .                .                .      ..                                                                                                                                                                                                                                                                                                                                                     ..     .      ..                                                                                                                                                                                                                                                                                                                                    ..     .         ",
"        .                .                .                .        ..                                                                                                                                                                                                                                                                                                                                                     ..   .        ..                                                                                                                                                                                                                                                                                                                                    ..   .           ",
"      .                .                .                .          ..                                                                                                                                                                                                                                                                                                                                                     .. .          ..                                                                                                                                                                                                                                                                                                                                    .. .             ",
"    .                .                .                .            ..                                                                                                                                                                                                                                                                                                                                                     ..            ..                                                                                                                                                                                                                                                                                                                                    ..               ",
"  .                .                .                .              ..                                                                                                                                                                                                                                                                                                                                                     ..            ..                                                                                                                                                                                                                                                                                                                                    ..              .",
".                .                .                .                ..             ....  ....              ....              ...        .....  ....  ...  .   . ..... ....  ..... .....        ....                                                                                                                                                                                                                        ..            ..            .....  ...              .     ..... .....  ...   .... .   . .   .    .                                                                                                                                                                                                                                                  ..            .  ",
"               .                .                .                . ..            .     .                 .                 .   .         .   .     .   . ..  . .     .   .   .     .         .                                                                                                                                                                                                                            ..          . ..              .   .   .   ..        .     .     .     .   . .     .   . ..  .   ..                                                                                                                                                                                                                                                  ..          .    ",
"             .                .                .                .   ..            .     .                 .                 .   .         .   .     .   . . . . .     .   .   .     .         .                                                                                                                                                                                                                            ..        .   ..              .   .   .   ..        .     .     .         . .     .   . . . .  . .                                                                                                                                                                                                                                                  ..        .      ",
"           .                .                .                .     ..            .     .           ..... .           ..... .   .         .   .     .   . .  .. ....  .   .   .     .         .                                                                                                                                                                                                                            ..      .     ..              .   .   .             .     ....  ....     .   ...  .   . .  .. .  .                                                                                                                                                                                                                                                  ..      .        ",
"         .                .                .                .       ..            .     .                 .                 .   .         .   .     .   . .   . .     .   .   .     .         .                                                                                                                                                                                                                            ..    .       ..              .   .   .   ..        .     .     .       .       . .   . .   . .....                                                                                                                                                                                                                                                 ..    .          ",
"       .                .                .                .         ..            .     .                 .                 .   .         .   .     .   . .   . .     .   .   .     .     ..  .                                                                                                                                                                                                                            ..  .         ..              .   .   .   ..        .     .     .               . .   . .   .    .                                                                                                                                                                                                                                                  ..  .            ",
"     .                .                .                .           ..             ....  ....              ....              ...        .....  ....  ...  .   . ..... ....  .....   .     ..   ....                                                                                                                                                                                                                        ...           ..              .    ...              ..... ..... .....   .   ....   ...  .   .    .                                                                                                                                                                                                                                                  ...              ",
"   .                .                .                .             ..                                                                                                                                                                                                                                                                                                                                                     ..            ..                                                                                                                                                                                                                                                                                                                                    ..               ",
" .                .                .                .               ..                                                                                                                                                                                                                                                                                                                                                     ..            ..                                                                                                                                                                                                                                                                                                                                    ..             . ",
"                .                .                .                ...                                                                                                                                                                                                                                                                                                                                                     ..           ...                                                                                                                                                                                                                                                                                                                                    ..           .   ",
"              .                .                .                .  ..                                                                                                                                                                                                                                                                                                                                                     ..         .  ..                                                                                                                                                                                                                                                                                                                                    ..         .     ",
"            .                .                .                .    ..                                                                                                                                                                                                                                                                                                                                                     ..       .    ..                                                                                                                                                                                                                                                                                                                                    ..       .       ",
"          .                .                .                .      ..                                                                                                                                                                                                                                                                                                                                                     ..     .      ..                                                                                                                                                                                                                                                                                                                                    ..     .         ",
"        .                .                .                .        ..             ....  ....              ....              ...        ....  ..... ..... .   .  ...  ....         ....                                                                                                                                                                                                                                    ..   .        ..             .... .   . ....    ... .....  .... .....             .   . ..... ..... ..... ..... .   .  ....       ..... .   . .....  .... ....   ...  .   .                                                                                                                                                                         ..   .           ",
"      .                .                .                .          ..            .     .                 .                 .   .       .   .   .     .   .. .. .   . .   .       .                                                                                                                                                                                                                                        .. .          ..            .     .   . .   .    .  .     .       .     ..        .. .. .     .       .     .   ..  . .             .   .   . .     .     .   . .   . .   .                                                                                                                                                                         .. .             ",
"    .                .                .                .            ..            .     .                 .                 .   .       .   .   .     .   . . . .   . .   .       .                                                                                                                                                                                                                                        ..            ..            .     .   . .   .    .  .     .       .     ..        . . . .     .       .     .   . . . .             .   .   . .     .     .   . .   .  . .                                                                                                                                                                          ..               ",
"  .                .                .                .              ..            .     .           ..... .           ..... .   .       ....    .     .   . . . ..... ....        .                                                                                                                                                                                                                                        ..            ..             ...  .   . ....     .  ....  .       .               . . . ....  ....    .     .   .  .. . ...         .   .   . ....   ...  .   . .....   .                                                                                                                                                                           ..              .",
".                .                .                .                ..            .     .                 .                 .   .       .   .   .     .   .   . .   . .           .                                                                                                                                                                                                                                        ..            ..                . .   . .   . .  .  .     .       .     ..        .   . .     .       .     .   .   . .   .         .   .   . .         . .   . .   .   .                                                                                                                                                                           ..            .  ",
"               .                .                .                . ..            .     .                 .                 .   .       .   .   .     .   .   . .   . .       ..  .                                                                                                                                                                                                                                        ..          . ..                . .   . .   . .  .  .     .       .     ..        .   . .     .       .     .   .   . .   .         .   .   . .         . .   . .   .   .                                                                                                                                                                           ..          .    ",
"             .                .                .                .   ..             ....  ....              ....              ...        ....  .....   .   .   . .   . .       ..   ....                                                                                                                                                                                                                                    ..        .   ..            ....   ...  ....   ..   .....  ....   .               .   . ..... .....   .   ..... .   .  ....         .    ...  ..... ....  ....  .   .   .                                                                                                                                                                           ..        .      ",
"           .                .                .                .     ..                                                                                                                                                                                                                                                                                                                                                     ..      .     ..                                                                                                                                                                                                                                                                                                                                    ..      .        ",
"         .                .                .                .       ..                                                                                                                                                                                                                                                                                                                                                     ..    .       ..                                                                                                                                                                                                                                                                                                                                    ..    .          ",
"       .                .                .                .         ..                                                                                                                                                                                                                                                                                                                                                     ..  .         ..                                                                                                                                                                                                                                                                                                                                    ..  .            ",
"     .                .                .                .           ..                                                                                                                                                                                                                                                                                                                                                     ...           ..                                                                                                                                                                                                                                                                                                                                    ...              ",
"   .                .                .                .             ..                                                                                                                                                                                                                                                                                                                                                     ..            ..                                                                                                                                                                                                                                                                                                                                    ..               ",
" .                .                .                .               ..                                                                                                                                                                                                                                                                                                                                                     ..            ..                                                                                                                                                                                                                                                                                                                                    ..             . ",
"                .                .                .                ...             ....  ....              ...        .....  ....  ...  .   . ..... ....  ..... .....       .....  ....  ...  .   . ..... ....  ..... .....        ...        ....  ..... ..... .   .  ...  ....         ...                                                                                                                               ..           ...                                                                                                                                                                                                                                                                                                                                    ..           .   ",
"              .                .                .                .  ..            .     .                 .   .         .   .     .   . ..  . .     .   .   .     .           .   .     .   . ..  . .     .   .   .     .         .   .       .   .   .     .   .. .. .   . .   .       .   .                                                                                                                              ..         .  ..                                                                                                                                                                                                                                                                                                                                    ..         .     ",
"            .                .                .                .    ..            .     .                 .   .         .   .     .   . . . . .     .   .   .     .           .   .     .   . . . . .     .   .   .     .         .   .       .   .   .     .   . . . .   . .   .       .   .                                                                                                                              ..       .    ..                                                                                                                                                                                                                                                                                                                                    ..       .       ",
"          .                .                .                .      ..            .     .           ..... .   .         .   .     .   . .  .. ....  .   .   .     .           .   .     .   . .  .. ....  .   .   .     .         .   .       ....    .     .   . . . ..... ....        .   .                                                                                                                              ..     .      ..                                                                                                                                                                                                                                                                                                                                    ..     .         ",
"        .                .                .                .        ..            .     .                 .   .         .   .     .   . .   . .     .   .   .     .           .   .     .   . .   . .     .   .   .     .         .   .       .   .   .     .   .   . .   . .           .   .                                                                                                                              ..   .        ..                                                                                                                                                                                                                                                                                                                                    ..   .           ",
"      .                .                .                .          ..            .     .                 .   .         .   .     .   . .   . .     .   .   .     .           .   .     .   . .   . .     .   .   .     .     ..  .   .       .   .   .     .   .   . .   . .       ..  .   .                                                                                                                              .. .          ..                                                                                                                                                                                                                                                                                                                                    .. .             ",
"    .                .                .                .            ..             ....  ....              ...        .....  ....  ...  .   . ..... ....  .....   .         .....  ....  ...  .   . ..... ....  .....   .     ..   ...        ....  .....   .   .   . .   . .       ..   ...                                                                                                                               ..            ..                                                                                                                                                                                                                                                                                                                                    ..               ",
"  .                .                .                .              ..                                                                                                                                                                                                                                                                                                                                                     ..            ..                                                                                                                                                                                                                                                                                                                                    ..              .",
".                .                .                .                ..                                                                                                                                                                                                                                                                                                                                                     ..            ..                                                                                                                                                                                                                                                                                                                                    ..            .  ",
"               .                .                .                . ..                                                                                                                                                                                                                                                                                                                                                     ..          . ..                                                                                                                                                                                                                                                                                                                                    ..          .    ",
"             .                .                .                .   ..                                                                                                                                                                                                                                                                                                                                                     ..        .   ..                                                                                                                                                                                                                                                                                                                                    ..        .      ",
"           .                .                .                .     ..                                                                                                                                                                                                                                                                                                                                                     ..      .     ..                                                                                                                                                                                                                                                                                                                                    ..      .        ",
"         .                .                .                .       ..                                                                                                                                                                                                                                                                                                                                                     ..    .       ..                                                                                                                                                                                                                                                                                                                                    ..    .          ",
"       .                .                .                .         ..             .... .   . .   .    .  ..  .       ..... .   .  .... .....  ...  .     .                                                                                                                                                                                                                                                                ..  .         ..            ....  ....   ...    ... .....  .... .....       .   . ..... ..... ..... ..... .   .  ....       .....  ....       ..... .   . .....  .... ....   ...  .   .                                                                                                                                                             ..  .            ",
"     .                .                .                .           ..            .     .   . ..  .   ..  .. .          .   ..  . .       .   .   . .     .                                                                                                                                                                                                                                                                ...           ..            .   . .   . .   .    .  .     .       .         .. .. .     .       .     .   ..  . .             .   .             .   .   . .     .     .   . .   . .   .                                                                                                                                                             ...              ",
"   .                .                .                .             ..            .     .   . . . .  . .    .           .   . . . .       .   .   . .     .                                                                                                                                                                                                                                                                ..            ..            .   . .   . .   .    .  .     .       .         . . . .     .       .     .   . . . .             .   .             .   .   . .     .     .   . .   .  . .                                                                                                                                                              ..               ",
" .                .                .                .               ..             ...  .   . .  .. .  .   .            .   .  ..  ...    .   ..... .     .                                                                                                                                                                                                                                                                ..            ..            ....  ....  .   .    .  ....  .       .         . . . ....  ....    .     .   .  .. . ...         .    ...          .   .   . ....   ...  .   . .....   .                                                                                                                                                               ..             . ",
"                .                .                .                ...                . .   . .   . ..... . ..          .   .   .     .   .   .   . .     .                                                                                                                                                                                                                                                                ..           ...            .     . .   .   . .  .  .     .       .         .   . .     .       .     .   .   . .   .         .       .         .   .   . .         . .   . .   .   .                                                                                                                                                               ..           .   ",
"              .                .                .                .  ..                . .   . .   .    .    ..          .   .   .     .   .   .   . .     .                                                                                                                                                                                                                                                                ..         .  ..            .     .  .  .   . .  .  .     .       .         .   . .     .       .     .   .   . .   .         .       .         .   .   . .         . .   . .   .   .                                                                                                                                                               ..         .     ",
"            .                .                .                .    ..            ....   ...  .   .    .              ..... .   . ....    .   .   . ..... .....                                                                                                                                                                                                                                                            ..       .    ..            .     .   .  ...   ..   .....  ....   .         .   . ..... .....   .   ..... .   .  ....       ..... ....          .    ...  ..... ....  ....  .   .   .                                                                                                                                                               ..       .       ",
"          .                .                .                .      ..                                                                                                                                                                                                                                                                                                                                                     ..     .      ..                                                                                                                                                                                                                                                                                                                                    ..     .         ",
"        .                .                .                .        ..                                                                                                                                                                                                                                                                                                                                                     ..   .        ..                                                                                                                                                                                                                                                                                                                                    ..   .           ",
"      .                .                .                .          ..                                                                                                                                                                                                                                                                                                                                                     .. .          ..                                                                                                                                                                                                                                                                                                                                    .. .             ",
"    .                .                .                .            ..                                                                                                                                                                                                                                                                                                                                                     ..            ..                                                                                                                                                                                                                                                                                                                                    ..               ",
"  .                .                .                .              ..                                                                                                                                                                                                                                                                                                                                                     ..            ..                                                                                                                                                                                                                                                                                                                                    ..              .",
".                .                .                .                ..                                                                                                                                                                                                                                                                                                                                                     ..            ..                                                                                                                                                                                                                                                                                                                                    ..            .  ",
"               .                .                .                . ..             .... .   . .   .    .  ..  .       .   . .   .  ...  .   . .....              ...                                                                                                                                                                                                                                                       ..          . ..             ...  .....        ...  ....  .   .       ..... .   .       ....   ...   ...  .   .       ....   ...         ...   ...  .....                                                                                                                                                                                           ..          .    ",
"             .                .                .                .   ..            .     .   . ..  .   ..  .. .        .   . ..  . .   . .. .. .                 .   .                                                                                                                                                                                                                                                      ..        .   ..            .   .   .         .   . .   . .. ..         .   ..  .       .   . .   . .   . .. ..           . .   .       .   . .   . .                                                                                                                                                                                               ..        .      ",
"           .                .                .                .     ..            .     .   . . . .  . .    .         .   . . . . .   . . . . .                 .   .                                                                                                                                                                                                                                                      ..      .     ..            .   .   .             . .   . . . .         .   . . .       .   . .   . .   . . . .           . .   .           . .  .. .                                                                                                                                                                                               ..      .        ",
"         .                .                .                .       ..             ...  .   . .  .. .  .   .          .   . .  .. ..... . . . ....        ..... .....                                                                                                                                                                                                                                                      ..    .       ..            .....   .            .  ....  . . .         .   .  ..       ....  .   . .   . . . .        ...   ...  .....    .  . . . ....                                                                                                                                                                                            ..    .          ",
"       .                .                .                .         ..                . .   . .   . ..... . ..        .   . .   . .   . .   . .                 .   .                                                                                                                                                                                                                                                      ..  .         ..            .   .   .           .   .     .   .         .   .   .       . .   .   . .   . .   .           . .   .         .   ..  .     .                                                                                                                                                                                           ..  .            ",
"     .                .                .                .           ..                . .   . .   .    .    ..        .   . .   . .   . .   . .                 .   .                                                                                                                                                                                                                                                      ...           ..            .   .   .          .    .     .   .         .   .   .       .  .  .   . .   . .   .           . .   .        .    .   .     .   ..                                                                                                                                                                                      ...              ",
"   .                .                .                .             ..            ....   ...  .   .    .               ...  .   . .   . .   . .....             .   .                                                                                                                                                                                                                                                      ..            ..            .   .   .         ..... .     .   .       ..... .   .       .   .  ...   ...  .   .       ....   ...        .....  ...  ....    ..                                                                                                                                                                                      ..               ",
" .                .                .                .               ..                                                                                                                                                                                                                                                                                                                                                     ..            ..                                                                                                                                                                                                                                                                                                                                    ..             . ",
"                .                .                .                ...                                                                                                                                                                                                                                                                                                                                                     ..           ...                                                                                                                                                                                                                                                                                                                                    ..           .   ",
"              .                .                .                .  ..                                                                                                                                                                                                                                                                                                                                                     ..         .  ..                                                                                                                                                                                                                                                                                                                                    ..         .     ",
"            .                .                .                .    ..                                                                                                                                                                                                                                                                                                                                                     ..       .    ..                                                                                                                                                                                                                                                                                                                                    ..       .       ",
"          .                .                .                .      ..                                                                                                                                                                                                                                                                                                                                                     ..     .      ..                                                                                                                                                                                                                                                                                                                                    ..     .         ",
"        .                .                .                .        ..                                                                                                                                                                                                                                                                                                                                                     ..   .        ..                                                                                                                                                                                                                                                                                                                                    ..   .           ",
"      .                .                .                .          ..             .... .   . .   .  ...   ....          .          .          ...               .... .   . .   .    .              .   .  ...  ....  .   .  .... .....  ...  ..... .....  ...  .   .                                                                                                                                                      .. .          ..                                                                                                                                                                                                                                                                                                                                    .. .             ",
"    .                .                .                .            ..            .     .   . ..  . .   . .             ..         ..         .   .             .     .   . ..  .   ..              .   . .   . .   . .  .  .       .   .   .   .     .   .   . ..  .                                                                                                                                                      ..            ..                                                                                                                                                                                                                                                                                                                                    ..               ",
"  .                .                .                .              ..            .     .   . . . . .   . .            . .          .             .             .     .   . . . .  . .              .   . .   . .   . . .   .       .   .   .   .     .   .   . . . .                                                                                                                                                      ..            ..                                                                                                                                                                                                                                                                                                                                    ..              .",
".                .                .                .                ..             ...  .   . .  .. .   .  ...        .  .          .            .               ...  .   . .  .. .  .              . . . .   . ....  ..     ...    .   .....   .     .   .   . .  ..                                                                                                                                                      ..            ..                                                                                                                                                                                                                                                                                                                                    ..            .  ",
"               .                .                .                . ..                . .   . .   . .   .     .       .....         .           .                   . .   . .   . .....             . . . .   . . .   . .       .   .   .   .   .     .   .   . .   .                                                                                                                                                      ..          . ..                                                                                                                                                                                                                                                                                                                                    ..          .    ",
"             .                .                .                .   ..                . .   . .   . .   .     .          .    ..    .     ..   .                    . .   . .   .    .              . . . .   . .  .  .  .      .   .   .   .   .     .   .   . .   .                                                                                                                                                      ..        .   ..                                                                                                                                                                                                                                                                                                                                    ..        .      ",
"           .                .                .                .     ..            ....   ...  .   .  ...  ....           .    ..   ...    ..  .....             ....   ...  .   .    .               . .   ...  .   . .   . ....    .   .   .   .   .....  ...  .   .                                                                                                                                                      ..      .     ..                                                                                                                                                                                                                                                                                                                                    ..      .        ",
"         .                .                .                .       ..                                                                                                                                                                                                                                                                                                                                                     ..    .       ..                                                                                                                                                                                                                                                                                                                                    ..    .          ",
"       .                .                .                .         ..                                                                                                                                                                                                                                                                                                                                                     ..  .         ..                                                                                                                                                                                                                                                                                                                                    ..  .            ",
"     .                .                .                .           ..                                                                                                                                                                                                                                                                                                                                                     ...           .........................................................................................................................................................................................................................................................................................................................................              ",
"   .                .                .                .             ..                                                                                                                                                                                                                                                                                                                                                     ..            ........................................................................................................................................................................................................................................................................................................................................               ",
" .                .                .                .               ..                                                                                                                                                                                                                                                                                                                                                     ..             .                .                .                .                .                .                .                .                .                .                .                .                .                .                .                .                .                .                .                .                . ",
"                .                .                .                ...                                                                                                                                                                                                                                                                                                                                                     ..           .                .                .                .                .                .                .                .                .                .                .                .                .                .                .                .                .                .                .                .                .   ",
"              .                .                .                .  ..             .... .   . .   .    .  ..  .                                                                                                                                                                                                                                                                                                            ..         .                .                .                .                .                .                .                .                .                .                .                .                .                .                .                .                .                .                .                .                .     ",
"            .                .                .                .    ..            .     .   . ..  .   ..  .. .                                                                                                                                                                                                                                                                                                             ..       .                .                .                .                .                .                .                .                .                .                .                .                .                .                .                .                .                .                .                .                .       ",
"          .                .                .                .      ..            .     .   . . . .  . .    .                                                                                                                                                                                                                                                                                                              ..     .                .                .                .                .                .                .                .                .                .                .                .                .                .                .                .                .                .                .                .                .         ",
"        .                .                .                .        ..             ...  .   . .  .. .  .   .                                                                                                                                                                                                                                                                                                               ..   .                .                .                .                .                .                .                .                .                .                .                .                .                .                .                .                .                .                .                .                .           ",
"      .                .                .                .          ..                . .   . .   . ..... . ..                                                                                                                                                                                                                                                                                                             .. .                .                .                .                .                .                .                .                .                .                .                .                .                .                .                .                .                .                .                .                .             ",
"    .                .                .                .            ..                . .   . .   .    .    ..                                                                                                                                                                                                                                                                                                             ..                .                .                .                .                .                .                .                .                .                .                .                .                .                .                .                .                .                .                .                .               ",
"  .                .                .                .              ..            ....   ...  .   .    .              .....                                                                                                                                                                                                                                                                                                ..              .                .                .                .                .                .                .                .                .                .                .                .                .                .                .                .                .                .                .                .                .",
".                .                .                .                ..                                                                                                                                                                                                                                                                                                                                                     ..            .                .                .                .                .                .                .                .                .                .                .                .                .                .                .                .                .                .                .                .                .  ",
"               .                .                .                . ..                                                                                                                                                                                                                                                                                                                                                     ..          .                .                .                .                .                .                .                .                .                .                .                .                .                .                .                .                .                .                .                .                .    ",
"             .                .                .                .   ..                                                                                                                                                                                                                                                                                                                                                     ..        .                .                .                .                .                .                .                .                .                .                .                .                .                .                .                .                .                .                .                .                .      ",
"           .                .                .                .     ..                                                                                                                                                                                                                                                                                                                                                     ..      .                .                .                .                .                .                .                .                .                .                .                .                .                .                .                .                .                .                .                .                .        ",
"         .                .                .                .       ..                                                                                                                                                                                                                                                                                                                                                     ..    .                .                .                .                .                .                .                .                .                .                .                .                .                .                .                .                .                .                .                .                .          ",
"       .                .                .                .         ..                                                                                                                                                                                                                                                                                                                                                     ..  .                .                .                .                .                .                .                .                .                .                .                .                .                .                .                .                .                .                .                .                .            ",
"     .                .                .                .           ..                                                                                                                                                                                                                                                                                                                                                     ...                .                .                .                .                .                .                .                .                .                .                .                .                .                .                .                .                .                .                .                .              ",
"   .                .                .                .             ..                                                                                                                                                                                                                                                                                                                                                     ..               .                .                .                .                .                .                .                .                .                .                .                .                .                .                .                .                .                .                .                .                ",
" .                .                .                .               ..                                                                                                                                                                                                                                                                                                                                                     ..             .                .                .                .                .                .                .                .                .                .                .                .                .                .                .                .                .                .                .                .                . ",
"                .                .                .                ...                                                                                                                                                                                                                                                                                                                                                     ..           .                .                .                .                .                .                .                .                .                .                .                .                .                .                .                .                .                .                .                .                .   ",
"              .                .                .                .  ..                                                                                                                                                                                                                                                                                                                                                     ..         .                .                .                .                .                .                .                .                .                .                .                .                .                .                .                .                .                .                .                .                .     ",
"            .                .                .                .    ..                                                                                                                                                                                                                                                                                                                                                     ..       .                .                .                .                .                .                .                .                .                .                .                .                .                .                .                .                .                .                .                .                .       ",
"          .                .                .                .      ..                                                                                                                                                                                                                                                                                                                                                     ..     .                .                .                .                .                .                .                .                .                .                .                .                .                .                .                .                .                .                .                .                .         ",
"        .                .                .                .        ..                                                                                                                                                                                                                                                                                                                                                     ..   .                .                .                .                .                .                .                .                .                .                .                .                .                .                .                .                .                .                .                .                .           ",
"      .                .                .                .          ..                                                                                                                                                                                                                                                                                                                                                     .. .                .                .                .                .                .                .                .                .                .                .                .                .                .                .                .                .                .                .                .                .             ",
"    .                .                .                .            ..                                                                                                                                                                                                                                                                                                                                                     ..                .                .                .                .                .                .                .                .                .                .                .                .                .                .                .                .                .                .                .                .               ",
"  .                .                .                .              ..                                                                                                                                                                                                                                                                                                                                                     ..              .                .                .                .                .                .                .                .                .                .                .                .                .                .                .                .                .                .                .                .                .",
".                .                .                .                ..                                                                                                                                                                                                                                                                                                                                                     ..            .                .                .                .                .                .                .                .                .                .                .                .                .                .                .                .                .                .                .                .                .  ",
"               .                .                .                . ..                                                                                                                                                                                                                                                                                                                                                     ..          .                .                .                .                .                .                .                .                .                .                .                .                .                .                .                .                .                .                .                .                .    ",
"             .                .                .                .   .........................................................................................................................................................................................................................................................................................................................................................        .                .                .                .                .                .                .                .                .                .                .                .                .                .                .                .                .                .                .                .                .      ",
"           .                .                .                .     .........................................................................................................................................................................................................................................................................................................................................................      .                .                .                .                .                .                .                .                .                .                .                .                .                .                .                .                .                .                .                .                .        ",
"         .                .                .                .                .                .                .                .                .                .                .                .                .                .                .                .                .                .                .                .                .                .                .                .                .                .                .                .                .                .                .                .                .                .                .                .                .                .                .                .                .                .                .                .                .          ",
"       .                .                .                .                .                .                .                .                .                .                .                .                .                .                .                .                .                .                .                .                .                .                .                .                .                .                .                .                .                .                .                .                .                .                .                .                .                .                .                .                .                .                .                .                .            ",
"     .                .                .                .                .                .                .                .                .                .                .                .                .                .                .                .                .                .                .                .                .                .                .                .                .                .                .                .                .                .                .                .                .                .                .                .                .                .                .                .                .                .                .                .                .              ",
"   .                .                .                .                .                .                .                .                .                .                .                .                .                .                .                .                .                .                .                .                .                .                .                .                .                .                .                .                .                .                .                .                .                .                .                .                .                .                .                .                .                .                .                .                .                ",
" .                .                .                .                .                .                .                .                .                .                .                .                .                .                .                .                .                .                .                .                .                .                .                .                .                .                .                .                .                .                .                .                .                .                .                .                .                .                .                .                .                .                .                .                .                . ",
"                .                .                .                .                .                .                .                .                .                .                .                .                .                .                .                .                .                .                .                .                .                .                .                .                .                .                .                .                .                .                .                .                .                .                .                .                .                .                .                .                .                .                .                .                .   ",
"              .                .                .                .                .                .                .                .                .                .                .                .                .                .                .                .                .                .                .                .                .                .                .                .                .                .                .                .                .                .                .                .                .                .                .                .                .                .                .                .                .                .                .                .                .     ",
"            .                .                .                .                .                .                .                .                .                .                .                .                .                .                .                .                .                .                .                .                .                .                .                .                .                .                .                .                .                .                .                .                .                .                .                .                .                .                .                .                .                .                .                .                .       ",
"          .                .                .                .                .                .                .                .                .                .                .                .                .                .                .                .                .                .                .                .                .                .                .                .                .                .                .                .                .                .                .                .                .                .                .                .                .                .                .                .                .                .                .                .                .         ",
"        .                .                .                .                .                .                .                .                .                .                .                .                .                .                .                .                .                .                .                .                .                .                .                .                .                .                .                .                .                .                .                .                .                .                .                .                .                .                .                .                .                .                .                .                .           ",
"      .                .                .                .                .                .                .                .                .                .                .                .                .                .                .                .                .                .                .                .                .                .                .                .                .                .                .                .                .                .                .                .                .                .                .                .                .                .                .                .                .                .                .                .                .             ",
"    .                .                .                .                .                .                .                .                .                .                .                .                .                .                .                .                .                .                .                .                .                .                .                .                .                .                .                .                .                .                .                .                .                .                .                .                .                .                .                .                .                .                .                .                .               ",
"  .                .                .                .                .                .                .                .                .                .                .                .                .                .                .                .                .                .                .                .                .                .                .                .                .                .                .                .                .                .                .                .                .                .                .                .                .                .                .                .                .                .                .                .                .                .",
".                .                .                .                ..........................................................................................................................................................................................................................................................................................       .       ....................................................................................................................................................................................               .................................................................................................................................................................................................            .  ",
"               .                .                .                . ..........................................................................................................................................................................................................................................................................................     .         ....................................................................................................................................................................................              ..................................................................................................................................................................................................          .    ",
"             .                .                .                .   ..                                                                                                                                                                                                                                                                                      ..   .           ..                                                                                                                                                                                ..            .  ..                                                                                                                                                                                             ..        .      ",
"           .                .                .                .     ..                                                                                                                                                                                                                                                                                      .. .             ..                                                                                                                                                                                ..          .    ..                                                                                                                                                                                             ..      .        ",
"         .                .                .                .       ..                                                                                                                                                                                                                                                                                      ..               ..                                                                                                                                                                                ..        .      ..                                                                                                                                                                                             ..    .          ",
"       .                .                .                .         ..   ...............        ..........    ........    ......    ..      ..              ..........  ........    ..........  ..........    ......    ........                                                                                                                            ..              ...   ...............          ........  ..      ..    ........  ..........  ..........  ..      ..              ..            ......      ......    ........                      ..      .        ..   ...............          ........  ..            ......      ........  ..      ..                                                                                                         ..  .            ",
"     .                .                .                .           ..   ...............        ..........    ........    ......    ..      ..              ..........  ........    ..........  ..........    ......    ........                                                                                                                            ..            .  ..   ...............          ........  ..      ..    ........  ..........  ..........  ..      ..              ..            ......      ......    ........                      ..    .          ..   ...............          ........  ..            ......      ........  ..      ..                                                                                                         ...              ",
"   .                .                .                .             ..   ..           ..            ..      ..          ..      ..  ....    ..              ..          ..      ..      ..          ..      ..      ..  ..      ..                                                                                                                          ..          .    ..   ..           ..        ..          ..      ..  ..              ..      ..          ....  ....              ..          ..      ..  ..      ..  ..      ..                    ..  .            ..   ..           ..        ..          ..          ..      ..  ..          ..    ..                                                                                                           ..               ",
" .                .                .                .               ..   .. .       . ..            ..      ..          ..      ..  ....    ..              ..          ..      ..      ..          ..      ..      ..  ..      ..                                                                                                                          ..        .      ..   .. .       . ..        ..          ..      ..  ..              ..      ..          ....  ....              ..          ..      ..  ..      ..  ..      ..                    ...              ..   .. .       . ..        ..          ..          ..      ..  ..          ..    ..                                                                                                           ..             . ",
"                .                .                .                ...   ..  .     .  ..            ..      ..          ..      ..  ..  ..  ..              ..          ..      ..      ..          ..      ..      ..  ..      ..                                                                                                                          ..      .        ..   ..  .     .  ..        ..            ..  ..    ..              ..      ..          ..  ..  ..              ..          ..      ..  ..      ..  ..      ..                    ..               ..   ..  .     .  ..        ..          ..          ..      ..  ..          ..  ..                                                                                                             ..           .   ",
"              .                .                .                .  ..   ..   .   .   ..            ..      ..          ..      ..  ..  ..  ..              ..          ..      ..      ..          ..      ..      ..  ..      ..                                                                                                                          ..    .          ..   ..   .   .   ..        ..            ..  ..    ..              ..      ..          ..  ..  ..              ..          ..      ..  ..      ..  ..      ..                    ..             . ..   ..   .   .   ..        ..          ..          ..      ..  ..          ..  ..                                                                                                             ..         .     ",
"            .                .                .                .    ..   ..    . .    ..            ..      ..          ..      ..  ..    ....              ........    ..      ..      ..          ..      ..      ..  ........                                                                                                                            ..  .            ..   ..    . .    ..          ......        ..        ......        ..      ........    ..  ..  ..              ..          ..      ..  ..........  ..      ..                    ..           .   ..   ..    . .    ..        ..          ..          ..      ..  ..          ....                                                                                                               ..       .       ",
"          .                .                .                .      ..   ..     .     ..            ..      ..          ..      ..  ..    ....              ........    ..      ..      ..          ..      ..      ..  ........                                                                                                                            ...              ..   ..     .     ..          ......        ..        ......        ..      ........    ..  ..  ..              ..          ..      ..  ..........  ..      ..                    ..         .     ..   ..     .     ..        ..          ..          ..      ..  ..          ....                                                                                                               ..     .         ",
"        .                .                .                .        ..   ..    . .    ..            ..      ..          ..      ..  ..      ..              ..          ..      ..      ..          ..      ..      ..  ..  ..                                                                                                                              ..               ..   ..    . .    ..                ..      ..              ..      ..      ..          ..      ..              ..          ..      ..  ..      ..  ..      ..                    ..       .       ..   ..    . .    ..        ..          ..          ..      ..  ..          ..  ..                                                                                                             ..   .           ",
"      .                .                .                .          ..   ..   .   .   ..            ..      ..          ..      ..  ..      ..              ..          ..      ..      ..          ..      ..      ..  ..  ..                                                                                                                              ..             . ..   ..   .   .   ..                ..      ..              ..      ..      ..          ..      ..              ..          ..      ..  ..      ..  ..      ..                    ..     .         ..   ..   .   .   ..        ..          ..          ..      ..  ..          ..  ..                                                                                                             .. .             ",
"    .                .                .                .            ..   ..  .     .  ..            ..      ..          ..      ..  ..      ..              ..          ..      ..      ..          ..      ..      ..  ..    ..                                                                                                                            ..           .   ..   ..  .     .  ..                ..      ..              ..      ..      ..          ..      ..              ..          ..      ..  ..      ..  ..      ..                    ..   .           ..   ..  .     .  ..        ..          ..          ..      ..  ..          ..    ..                                                                                                           ..               ",
"  .                .                .                .              ..   .. .       . ..            ..      ..          ..      ..  ..      ..              ..          ..      ..      ..          ..      ..      ..  ..    ..                                                                                                                            ..         .     ..   .. .       . ..                ..      ..              ..      ..      ..          ..      ..              ..          ..      ..  ..      ..  ..      ..                    .. .             ..   .. .       . ..        ..          ..          ..      ..  ..          ..    ..                                                                                                           ..              .",
".                .                .                .                ..   ..           ..        ..........    ........    ......    ..      ..              ..........  ........    ..........      ..        ......    ..      ..                                                                                                                          ..       .       ..   ..           ..        ........        ..      ........        ..      ..........  ..      ..              ..........    ......    ..      ..  ........                      ..               ..   ..           ..          ........  ..........    ......      ........  ..      ..                                                                                                         ..            .  ",
"               .                .                .                . ..   ...............        ..........    ........    ......    ..      ..              ..........  ........    ..........      ..        ......    ..      ..                                                                                                                          ..     .         ..   ...............        ........        ..      ........        ..      ..........  ..      ..              ..........    ......    ..      ..  ........                      ..              ...   ...............          ........  ..........    ......      ........  ..      ..                                                                                                         ..          .    ",
"             .                .                .                .   ..   ...............                                                                                                                                                                                                                                                                    ..   .           ..   ...............                                                                                                                                                              ..            .  ..   ...............                                                                                                                                                                           ..        .      ",
"           .                .                .                .     ..                                                                                                                                                                                                                                                                                      .. .             ..                                                                                                                                                                                ..          .    ..                                                                                                                                                                                             ..      .        ",
"         .                .                .                .       ..                                                                                                                                                                                                                                                                                      ..               ..                                                                                                                                                                                ..        .      ..                                                                                                                                                                                             ..    .          ",
"       .                .                .                .         ..                                                                                                                                                                                                                                                                                      ..              ...                                                                                                                                                                                ..      .        ..                                                                                                                                                                                             ..  .            ",
"     .                .                .                .           ..                                                                                                                                                                                                                                                                                      ..            .  ..                                                                                                                                                                                ..    .          ..                                                                                                                                                                                             ...              ",
"   .                .                .                .             ..........................................................................................................................................................................................................................................................................................          .    ....................................................................................................................................................................................  .            .................................................................................................................................................................................................               ",
" .                .                .                .               ..........................................................................................................................................................................................................................................................................................        .      .....................................................................................................................................................................................              .................................................................................................................................................................................................             . ",
"                .                .                .                ...                                                                                                                                                                                                                                                                                      ..      .        ..                                                                                                                                                                                ..               ..                                                                                                                                                                                             ..           .   ",
"              .                .                .                .  ..                                                                                                                                                                                                                                                                                      ..    .          ..                                                                                                                                                                                ..             . ..                                                                                                                                                                                             ..         .     ",
"            .                .                .                .    ..                                                                                                                                                                                                                                                                                      ..  .            ..                                                                                                                                                                                ..           .   ..                                                                                                                                                                                             ..       .       ",
"          .                .                .                .      ..                                                                                                                                                                                                                                                                                      ...              ..                                                                                                                                                                                ..         .     ..                                                                                                                                                                                             ..     .         ",
"        .                .                .                .        ..                                                                                                                                                                                                                                                                                      ..               ..                                                                                                                                                                                ..       .       ..                                                                                                                                                                                             ..   .           ",
"      .                .                .                .          ..                                                                                                                                                                                                                                                                                      ..             . ..                                                                                                                                                                                ..     .         ..                                                                                                                                                                                             .. .             ",
"    .                .                .                .            ..                                                                                                                                                                                                                                                                                      ..           .   ..                                                                                                                                                                                ..   .           ..                                                                                                                                                                                             ..               ",
"  .                .                .                .              ..                                                                                                                                                                                                                                                                                      ..         .     ..                                                                                                                                                                                .. .             ..                                                                                                                                                                                             ..              .",
".                .                .                .                ..                                                                                                                                                                                                                                                                                      ..       .       ..                                                                                                                                                                                ..               ..                                                                                                                                                                                             ..            .  ",
"               .                .                .                . ..                                                                                                                                                                                                                                                                                      ..     .         ..                                                                                                                                                                                ..              ...                                                                                                                                                                                             ..          .    ",
"             .                .                .                .   ..                                                                                                                                                                                                                                                                                      ..   .           ..                                                                                                                                                                                ..            .  ..                                                                                                                                                                                             ..        .      ",
"           .                .                .                .     ..                                                                                                                                                                                                                                                                                      .. .             ..                                                                                                                                                                                ..          .    ..                                                                                                                                                                                             ..      .        ",
"         .                .                .                .       ..                                                                                                                                                                                                                                                                                      ..               ..                                                                                                                                                                                ..        .      ..                                                                                                                                                                                             ..    .          ",
"       .                .                .                .         ..                                                                                                                                                                                                                                                                                      ..              ...             .      ...   ...  ....         ...  .   . ..... ....   ...   .... .....                                                                                            ..      .        ..                                                                                                                                                                                             ..  .            ",
"     .                .                .                .           ..                                                                                                                                                                                                                                                                                      ..            .  ..             .     .   . .   . .   .       .   . .   . .     .   . .   . .     .                                                                                                ..    .          ..                                                                                                                                                                                             ...              ",
"   .                .                .                .             ..                ......................................................................................................................................................          ....................................................................................                  ..          .    ..             .     .   . .   . .   .       .   . .   . .     .   . .   . .     .                                                                                                ..  .            ..                                                                                                                                                                                             ..               ",
" .                .                .                .               ..                .         .         .         .         .         .         .         .         .         .         .         .         .         .                  .          .                                                                                  .                  ..        .      ..             .     .   . ..... .   .       ..... .   . ....  ....  ..... . ... ....                                                                                             ...              ..                                                                                                                                                                                             ..             . ",
"                .                .                .                ...                .         .         .         .         .         .         .         .         .         .         .         .         .         .                  .          .                                                                                  .                  ..      .        ..             .     .   . .   . .   .       .   . .   . .     . .   .   . .   . .                                                                                                ..               ..                                                                                                                                                                                             ..           .   ",
"              .                .                .                .  ..                .         .         .         .         .         .         .         .         .         .         .         .         .         .                  .          .                                                                                  .                  ..    .          ..             .     .   . .   . .   .       .   .  . .  .     .  .  .   . .   . .                                                                                                ..             . ..                                                                                                                                                                                             ..         .     ",
"            .                .                .                .    ..                .         .         .         .         .         .         .         .         .         .         .         .         .         .                  .          .                                                                                  .                  ..  .            ..             .....  ...  .   . ....        .   .   .   ..... .   . .   .  .... .....                                                                                            ..           .   ..                                                                                                                                                                                             ..       .       ",
"          .                .                .                .      ..                .         .         .         .         .         .         .         .         .         .         .         .         .         .                  .          .                                                                                  .                  ...              ..                                                                                                                                                                                ..         .     ..                                                                                                                                                                                             ..     .         ",
"        .                .                .                .        ..                .         .         .         .         .         .         .         .         .         .         .         .         .         .                  .          .                                                                                  .                  ..               ..                                                                                                                                                                                ..       .       ..                                                                                                                                                                                             ..   .           ",
"      .                .                .                .          ..                .         .         .         .         .         .         .         .         .         .         .         .         .         .                  .          .                                                                                  .                  ..             . ..                                                                                                                                                                                ..     .         ..                                                                                       ...............                                                                                       .. .             ",
"    .                .                .                .            ..                .         .         .         .         .         .         .         .         .         .         .         .         .         .                  .          .                                                                                  .                  ..           .   ..                                                                                                                                                                                ..   .           ..                                                                                 ......               ......                                                                                 ..               ",
"  .                .                .                .              ..                .         .         .         .         .         .         .         .         .         .         .         .         .         .                  .          .                                                                                  .                  ..         .     ..                                                                                                                                                                                .. .             ..                                                                              ...                           ...                                                                              ..              .",
".                .                .                .                ..                .......................................................................................................................................................         .                                                                                  .                  ..       .       ..                                                                                                                                                                                ..               ..                                                                           ...                                 ...                                                                           ..            .  ",
"               .                .                .                . ..                .         .         .         .         .         .         .         .         .         .         .         .         .         .                  .          .                                                                                  .                  ..     .         ..                                                                                                                                                                                ..              ...                                                                        ...                                       ...                                                                        ..          .    ",
"             .                .                .                .   ..                .         .         .         .         .         .         .         .         .         .         .         .         .         .                  .          .                                                                                  .                  ..   .           ..                                                                                                                                                                                ..            .  ..                                                                      ..                                             ..                                                                      ..        .      ",
"           .                .                .                .     ..                .         .         .         .         .         .         .         .         .         .         .         .         .         .                  .          .           ..........................................................             .                  .. .             ..                                                                                                                                                                                ..          .    ..                                                                    ..                                                 ..                                                                    ..      .        ",
"         .                .                .                .       ..                .         .         .         .         .         .         .         .         .         .         .         .         .         .                  .          .           ..........................................................             .                  ..               ..                                                                                                                                                                                ..        .      ..                                                                  ..                       ......                        ..                                                                  ..    .          ",
"       .                .                .                .         ..                .         .         .         .         .         .         .         .         .         .         .         .         .         .                  .          .           ..........................................................             .                  ..              ...                                                                                                                                                                                ..      .        ..                                                                ..                         ......                          ..                                                                ..  .            ",
"     .                .                .                .           ..                .         .         .         .         .         .         .         .         .         .         .         .         .         .                  .          .           ..........................................................             .                  ..            .  ..                                                                                                                                                                                ..    .          ..                                                               .                           ......                            .                                                               ...              ",
"   .                .                .                .             ..                .         .         .         .         .         .         .         .         .         .         .         .         .         .                  .          .           ..........................................................             .                  ..          .    ..                                                                                                                                                                                ..  .            ..                                                             ..                            ......                             ..                                                             ..               ",
" .                .                .                .               ..                .         .         .         .         .         .         .         .         .         .         .         .         .         .                  .          .           .....                                                .....             .                  ..        .      ..               .         .   . ..... .   .              ...        ....   ...                                                                                                   ...              ..                                                            .                              ......                               .                                                            ..             . ",
"                .                .                .                ...                .         .         .         .         .         .         .         .         .         .         .         .         .         .                  .          .           .....                                                .....             .                  ..      .        ..              ..         .. ..   .   ..  .   ..        .   .           . .   .                                                                                                  ..               ..                                                          ..                               ......                                ..                                                          ..           .   ",
"              .                .                .                .  ..                .......................................................................................................................................................         .           .....                                                .....             .                  ..    .          ..               .         . . .   .   . . .   ..        .  ..           . .   .                                                                                                  ..             . ..                                                         ..        ......                                          ......         ..                                                         ..         .     ",
"            .                .                .                .    ..                .         .         .         .         .         .         .         .         .         .         .         .         .         .                  .          .           .....                                                .....             .                  ..  .            ..               .         . . .   .   .  ..             . . .        ...   ....                                                                                                  ..           .   ..                                                        .          ......                                          ......           .                                                        ..       .       ",
"          .                .                .                .      ..                .         .         .         .         .         .         .         .         .         .         .         .         .         .                  .          .           .....                                                .....             .                  ...              ..               .         .   .   .   .   .   ..        ..  .           .     .                                                                                                  ..         .     ..                                                       .           ......                                          ......            .                                                       ..     .         ",
"        .                .                .                .        ..                .         .         .         .         .         .         .         .         .         .         .         .         .         .                  .          .           .....                                                .....             .                  ..               ..               .         .   .   .   .   .   ..        .   .   ..      .     .                                                                                                  ..       .       ..                                                      .            ......                                          ......             .                                                      ..   .           ",
"      .                .                .                .          ..                .         .         .         .         .         .         .         .         .         .         .         .         .         .                  .          .           .....                                                .....             .                  ..             . ..              ...        .   . ..... .   .              ...    ..  ....   ...                                                                                                   ..     .         ..                                                     .             ......                                          ......              .                                                     .. .             ",
"    .                .                .                .            ..                .         .         .         .         .         .         .         .         .         .         .         .         .         .                  .          .           .....                                                .....             .                  ..           .   ..                                                                                                                                                                                ..   .           ..                                                    .              ......                                          ......               .                                                    ..               ",
"  .                .                .                .              ..                .         .         .         .         .         .         .         .         .         .         .         .         .         .                  .          .           .....                                                .....             .                  ..         .     ..                                                                                                                                                                                .. .             ..                                                   .                                                                                     .                                                   ..              .",
".                .                .                .                ..                .         .         .         .         .         .         .         .         .         .         .         .         .         .                  .          .           .....                                                .....             .                  ..       .       ..                                                                                                                                                                                ..               ..                                                  .                                                                                       .                                                  ..            .  ",
"               .                .                .                . ..                .         .         .         .         .         .         .         .         .         .         .         .         .         .                  .          .           .....                                                .....             .                  ..     .         ..                                                                                                                                                                                ..              ...                                                 .                                                                                         .                                                 ..          .    ",
"             .                .                .                .   ..                .         .         .         .         .         .         .         .         .         .         .         .         .         .                  .          .           .....                                                .....             .                  ..   .           ..                                                                                                                                                                                ..            .  ..                                                ..                                                                                         ..                                                ..        .      ",
"           .                .                .                .     ..                .......................................................................................................................................................         .           .....                                                .....             .                  .. .             ..                                                                                                                                                                                ..          .    ..                                                .                                                                                           .                                                ..      .        ",
"         .                .                .                .       ..                .         .         .         ...........................................................................................         .                  .          .           .....                                                .....             .                  ..               ..                                                                                                                                                                                ..        .      ..                                               .                                                                                             .                                               ..    .          ",
"       .                .                .                .         ..                .         .         .         ...........................................................................................         .                  .          .           .....                                                .....             .                  ..              ...             .....       .   . ..... .   .              ...           .    .                                                                                                    ..      .        ..                                              .                                                                                               .                                              ..  .            ",
"     .                .                .                .           ..                .         .         .         ...........................................................................................         .                  .          .           .....                                                .....             .                  ..            .  ..             .           .. ..   .   ..  .   ..        .   .         ..   ..                                                                                                    ..    .          ..                                              .                                                                                               .                                              ...              ",
"   .                .                .                .             ..                .         .         .         ...........................................................................................         .                  .          .           .....                                                .....             .                  ..          .    ..             .           . . .   .   . . .   ..        .  ..        . .    .                                                                                                    ..  .            ..                                             .                                                                                                 .                                             ..               ",
" .                .                .                .               ..                .         .         .         ...........................................................................................         .                  .          .           .....                                                .....             .                  ..        .      ..             ....        . . .   .   .  ..             . . .       .  .    .                                                                                                    ...              ..                                            .             .                                                                                     .                                            ..             . ",
"                .                .                .                ...                .         .         .         ...........................................................................................         .                  .          .           .....                                                .....             .                  ..      .        ..                 .       .   .   .   .   .   ..        ..  .       .....   .                                                                                                    ..               ..                                            .              .                                                                                    .                                            ..           .   ",
"              .                .                .                .  ..                .         .         .         ...........................................................................................         .                  .          .           .....                                                .....             .                  ..    .          ..                 .       .   .   .   .   .   ..        .   .   ..     .    .                                                                                                    ..             . ..                                           .                ..                                                                                   .                                           ..         .     ",
"            .                .                .                .    ..                .         .         .         ........  .         .         .         .         .         .         .         . .........         .                  .          .           .....                                                .....             .                  ..  .            ..             ....        .   . ..... .   .              ...    ..     .   ...                                                                                                   ..           .   ..                                           .     ......       .                                                                      ......      .                                           ..       .       ",
"          .                .                .                .      ..                .         .         .         ........  .         .         .         .         .         .         .         . .........         .                  .          .           .....                                                .....             .                  ...              ..                                                                                                                                                                                ..         .     ..                                          .      ......        .                                                                     ......       .                                          ..     .         ",
"        .                .                .                .        ..                .......................................................................................................................................................         .           .....                                                .....             .                  ..               ..                                                                                                                                                                                ..       .       ..                                          .      ......         .                                                                    ......       .                                          ..   .           ",
"      .                .                .                .          ..                .         .         .         ........ ..         .         .         .         .         .         .         ...........         .                  .          .           .....                                                .....             .                  ..             . ..                                                                                                                                                                                ..     .         ..                                         .       ......          .                                                                   ......        .                                         .. .             ",
"    .                .                .                .            ..                .         .         .         ........  ..        .         .         .         .         .         .        .. .........         .                  .          .           .....                                                .....             .                  ..           .   ..                                                                                                                                                                                ..   .           ..                                         .       ......           ..                                                                 ......        .                                         ..               ",
"  .                .                .                .              ..                .         .         .         ........  . .       .         .         .         .         .         .       . . .........         .                  .          .           .....                                                .....             .                  ..         .     ..                                                                                                                                                                                .. .             ..                                        .        ......             .                                                                ......         .                                        ..              .",
".                .                .                .                ..                .         .         .         ........  .  .      .         .         .         .         .         .      .  . .........         .                  .          .           .....                                                .....             .                  ..       .       ..                                                                                                                                                                                ..               ..                                        .                            .                                                                              .                                        ..            .  ",
"               .                .                .                . ..                .         .         .         ........  .   .     .         .         .         .         .         .     .   . .........         .                  .          .           .....                                                .....             .                  ..     .         ..                                                                                                                                                                                ..              ...                                        .                             .                                                                             .                                        ..          .    ",
"             .                .                .                .   ..                .         .         .         ........  .    ..   .         .         .         .         .         .   ..    . .........         .                  .          .           .....                                                .....             .                  ..   .           ..                                                                                                                                                                                ..            .  ..                                       .                               .                                                                             .                                       ..        .      ",
"           .                .                .                .     ..                .         .         .         ........  .      .  .         .         .         .         .         .  .      . .........         .                  .          .           .....                                                .....             .                  .. .             ..                                                                                                                                                                                ..          .    ..                                       .                                ..                                                                           .                                       ..      .        ",
"         .                .                .                .       ..                .         .         .         ........  .       . .         .         .         .         .         . .       . .........         .                  .          .           .....                                                .....             .                  ..               ..                                                                                                                                                                                ..        .      ..                                       .                                  .                                                                          .                                       ..    .          ",
"       .                .                .                .         ..                .         .         .         ........  .        ..         .         .         .         .         ..        . .........         .                  .          .           .....                                                .....             .                  ..              ...                                                                                                                                                                                ..      .        ..                                      .                                    .                                                                          .                                      ..  .            ",
"     .                .                .                .           ..                .......................................................................................................................................................         .           ..........................................................             .                  ..            .  ..                                                                                                                                                                                ..    .          ..                                      .                                     .                                                                         .                                      ...              ",
"   .                .                .                .             ..                .         .         .         ........  .         ..        .         .         .         .        ..         . .........         .                  .          .           ..........................................................             .                  ..          .    ..                                                                                                                                                                                ..  .            ..                                      .                                      .                                                                        .                                      ..               ",
" .                .                .                .               ..                .         .         .         ........  .         . ..      .         .         .         .      .. .         . .........         .                  .          .           ..........................................................             .                  ..        .      ..                                                                                                                                                                                ...              ..                                     .                                        ..                                                                       .                                     ..             . ",
"                .                .                .                ...                .         .         .         ........  .         .   .     .         .         .         .     .   .         . .........         .                  .          .           ..........................................................             .                  ..      .        ..                                                                                                                                                                                ..               ..                                     .                                          .                                                                      .                                     ..           .   ",
"              .                .                .                .  ..                .         .         .         ........  .         .    .    .         .         .         .    .    .         . .........         .                  .          .           ..........................................................             .                  ..    .          ..                                                                                                                                                                                ..             . ..                                     .                                           .                                                                     .                                     ..         .     ",
"            .                .                .                .    ..                .         .         .         ........  .         .     .   .         .         .         .   .     .         . .........         .                  .          .                                                                                  .                  ..  .            ..                                                                                                                                                                                ..           .   ..                                     .                                            .                                                                    .                                     ..       .       ",
"          .                .                .                .      ..                .         .         .         ........  .         .      .  .         .         .         .  .      .         . .........         .                  .          .                                                                                  .                  ...              ..                                                                                                                                                                                ..         .     ..                                     .                                             .                                                                   .                                     ..     .         ",
"        .                .                .                .        ..                .         .         .         ........  .         .       ...         .         .         ...       .         . .........         .                  .          .                                                                                  .                  ..               ..                                                                                                                                                                                ..       .       ..                                     .                                              ..                                                                 .                                     ..   .           ",
"      .                .                .                .          ..                .         .         .         ........  .         .         .         .         .         .         .         . .........         .                  .          .                                                                                  .                  ..             . ..                                                                                                                                                                                ..     .         ..                                    .                                                 .                                                                 .                                    .. .             ",
"    .                .                .                .            ..                .         .         .         ........  .         .         ..        .         .        ..         .         . .........         .                  .          .                                                                                  .                  ..           .   ..                                                                                                                                                                                ..   .           ..                                    .                                                  .                                                                .                                    ..               ",
"  .                .                .                .              ..                .......................................................................................................................................................         .                                                                                  .                  ..         .     ..                                                                                                                                                                                .. .             ..                                    .                                                   .                                                               .                                    ..              .",
".                .                .                .                ..                .         .         .         ........  .         .         .  .      .         .      .  .         .         . .........         .                  .          .                                                                                  .                  ..       .       ..                                                                                                                                                                                ..               ..                                    .                                                    .    .                                                         .                                    ..            .  ",
"               .                .                .                . ..                .         .         .         ........  .         .         .   .     .         .     .   .         .         . .........         .                  .          .                                                                                  .                  ..     .         ..                                                                                                                                                                                ..              ...                                    .      ......                                         .......                                          ......       .                                    ..          .    ",
"             .                .                .                .   ..                .         .         .         ........  .         .         .    ..   .         .   ..    .         .         . .........         .                  .          .                                                                                  .                  ..   .           ..             ....................................................................................................................................................               ..            .  ..                                    .      ......                                          .......                                         ......       .                                    ..        .      ",
"           .                .                .                .     ..                .         .         .         ........  .         .         .      .  .         .  .      .         .         . .........         .                  .          .                                                                                  .                  .. .             ..             .       .                                                                                                                                          .               ..          .    ..                                    .      ......                                          .......                                         ......       .                                    ..      .        ",
"         .                .                .                .       ..                .         .         .         ........  .         .         .       . .         . .       .         .         . .........         .                  .          .                                                                                  .                  ..               ..             .        .                                                                                                                                         .               ..        .      ..                                    .      ......                                         .........                                        ......       .                                    ..    .          ",
"       .                .                .                .         ..                .         .         .         ........  .         .         .        ..         ..        .         .         . .........         .                  .          .                                                                                  .                  ..              ...             .        .                                                                                                                                         .               ..      .        ..                                    .      ......                                          .......                                         ......       .                                    ..  .            ",
"     .                .                .                .           ..                .         .         .         ........  .         .         .         .         .         .         .         . .........         .                  .          .                                                                                  .                  ..            .  ..             .         .                                                                                                                                        .               ..    .          ..                                    .      ......                                          .......                                         ......       .                                    ...              ",
"   .                .                .                .             ..                .         .         .         ........  .         .         .         ...     ...         .         .         . .........         .                  .          .                                                                                  .                  ..          .    ..             .         .                                                                                                                                        .               ..  .            ..                                    .                                                       .....                                                       .                                    ..               ",
" .                .                .                .               ..                .         .         .         ........  .         .         .         .  .   .  .         .         .         . .........         .                  .          ....................................................................................                  ..        .      ..             .          .                                                                                                                                       .               ...              ..                                    .                                                         . .                                                       .                                    ..             . ",
"                .                .                .                ...                .......................................................................................................................................................                                                                                                               ..      .        ..             .          .                                                                                                                                       .               ..               ..                                    .                                                           .                                                       .                                    ..           .   ",
"              .                .                .                .  ..                .         .         .         ........  .         .         .         .    .    .         .         .         . .........         .                  .                                                                                                                ..    .          ..             .           .           .                                                                                                                          .               ..             . ..                                    .                                                           .                                                       .                                    ..         .     ",
"            .                .                .                .    ..                .         .         .         ........  .         .         .         .         .         .         .         . .........         .                  .                                                                                                                ..  .            ..             .            .         . .                                                                                                                         .               ..           .   ..                                    .                                                            .                                                      .                                    ..       .       ",
"          .                .                .                .      ..                .         .         .         ........  .         .         .         .         .         .         .         . .........         .                  .                                                                                                                ...              ..             .            .        .  .                                                                                                                         .               ..         .     ..                                     .                                                           .                                                     .                                     ..     .         ",
"        .                .                .                .        ..                .         .         .         ........  .         .         .         .         .         .         .         . .........         .                  .                                                                                                                ..               ..             .             .     ..    .                                                             .                                                          .               ..       .       ..                                     .                                                           .                                                     .                                     ..   .           ",
"      .                .                .                .          ..                .         .         .         ........  .         .         .         .         .         .         .         . .........         .                  .                                                                                                                ..             . ..             .             .    .      .                                                             .                                                          .               ..     .         ..                                     .                                                            .                                                    .                                     .. .             ",
"    .                .                .                .            ..                .         .         .         ........  .         .         .         .         .         .         .         . .........         .                  .                                                                                                                ..           .   ..             .              .  .        .                            .                              . .                                                         .               ..   .           ..                                     .                                                            .                                                    .                                     ..               ",
"  .                .                .                .              ..                .         .         .         ........  .         .         .         .         .         .         .         . .........         .                  .                                                                                                                ..         .     ..             .              . .         .                            .                              . .                                                         .               .. .             ..                                     .                                                             .                                                   .                                     ..              .",
".                .                .                .                ..                .         .         .         ........  .         .         .         .         .         .         .         . .........         .                  .                                                                                                                ..       .       ..             .               .           .                          . .                            .   .                                                        .               ..               ..                                     .                                                             .                                                   .                                     ..            .  ",
"               .                .                .                . ..                .         .         .         ........  .         .         .         .         .         .         .         . .........         .                  .                                                                                                                ..     .         ..             .                           .                          . .                            .   .                                                        .               ..              ...                                      .                                                            .                                                  .                                      ..          .    ",
"             .                .                .                .   ..                .......................................................................................................................................................                                                                                                               ..   .           ..             .                            .                        .  .                           .    .                                                        .               ..            .  ..                                      .                                                             .                                                 .                                      ..        .      ",
"           .                .                .                .     ..                .         .         .         ........  .         .         .         .         .         .         .         . .........         .                  .                                                                                                                .. .             ..             .                            .                        .   .             .            .     .                                                       .               ..          .    ..                                      .                                                             .                                                 .                                      ..      .        ",
"         .                .                .                .       ..                .         .         .         ........  .         .         .         .         .         .         .         . .........         .                  .                                                                                                                ..               ..             .                             .        ..            .    .             ..          .      .                                                       .               ..        .      ..                                       .                                                            .                                                .                                       ..    .          ",
"       .                .                .                .         ..                .         .         .         ........  .         .         .         .         .         .         .         . .........         .                  .                                                                                                                ..              ...             .                             .      ..  .           .     .           .  .         .      .                            .                          .               ..      .        ..                                       .                                                             .                                               .                                       ..  .            ",
"     .                .                .                .           ..                .         .         .         ........  .         .         .         .         .         .         .         . .........         .                  .                                                                                                                ..            .  ..             .                              .   ..    .          .      .           .  .        .        .                           ..                         .               ..    .          ..                                       .                                                             .                                               .                                       ...              ",
"   .                .                .                .             ..                .         .         .         ........  .         .         .         .         .         .         .         . .........         .                  .                                                                                                                ..          .    ..             .                              . ..       .         .      .          .    .       .        .                          . .                         .               ..  .            ..                                        .                                                             .                                             .                                        ..               ",
" .                .                .                .               ..                .         .         .         ........  .         .         .         .         .         .         .         . .........         .                  .                                                                                                                ..        .      ..             .                               .          .        .       .         .     .     .          .                         .  .                        .               ...              ..                                        .        ......                                               .                              ......         .                                        ..             . ",
"                .                .                .                ...                .         .         .         ........  .         .         .         .         .         .         .         . .........         .                  .                                                                                                                ..      .        ..             .                                          .       .        .        .       .    .          .                        .   .                        .               ..               ..                                        .        ......                                               .                              ......         .                                        ..           .   ",
"              .                .                .                .  ..                .         .         .         ...........................................................................................         .                  .                                                                                                                ..    .          ..             .                                           .      .        .        .        .  .           .          .             .    .                       .               ..             . ..                                         .       ......                                                .                             ......        .                                         ..         .     ",
"            .                .                .                .    ..                .         .         .         ...........................................................................................         .                  .                                                                                                                ..  .            ..             .                                            .    .          .      .         .  .            .        . .           .      .                      .               ..           .   ..                                         .       ......                                                .                             ......        .                                         ..       .       ",
"          .                .                .                .      ..                .......................................................................................................................................................                                                                                                               ...              ..             .                                            .    .          .      .          ..             .       .  .           .      .                      .               ..         .     ..                                          .      ......                                                .                             ......       .                                          ..     .         ",
"        .                .                .                .        ..                .         .         .         ...........................................................................................         .                  .                                                                                                                ..               ..             .                                             .  .           .     .            .             .     ..    .         .        .                     .               ..       .       ..                                          .      ......                                                 .                            ......       .                                          ..   .           ",
"      .                .                .                .          ..                .         .         .         ...........................................................................................         .                  .                                                                                                                ..             . ..             .                                              . .            .    .                           .   .      .         .         .                    .               ..     .         ..                                           .                                                            .                                        .                                           .. .             ",
"    .                .                .                .            ..                .         .         .         ...........................................................................................         .                  .                                                                                                                ..           .   ..             .                                              ..             .   .                            .  .        .        .         .                    .               ..   .           ..                                           .                                                             .                                       .                                           ..               ",
"  .                .                .                .              ..                .         .         .         ...........................................................................................         .                  .                                                                                                                ..         .     ..             .                                               .              .  .                             ..          .      .           .                   .               .. .             ..                                            .                                                            .                                      .                                            ..              .",
".                .                .                .                ..                .         .         .         ...........................................................................................         .                  .                                                                                                                ..       .       ..             .                                                              . .                              .           .      .           .                   .               ..               ..                                            .                                                            .                                      .                                            ..            .  ",
"               .                .                .                . ..                .         .         .         .         .         .         .         .         .         .         .         .         .         .                  .                                                                                                                ..     .         ..             .                                                              . .                                           .    .             .                  .               ..              ...                                             .                                                            .                                    .                                             ..          .    ",
"             .                .                .                .   ..                .         .         .         .         .         .         .         .         .         .         .         .         .         .                  .                                                                                                                ..   .           ..             .                                                               .                                             .   .                                .               ..            .  ..                                              .                                                           .                                   .                                              ..        .      ",
"           .                .                .                .     ..                .         .         .         .         .         .         .         .         .         .         .         .         .         .                  .                                                                                                                .. .             ..             .                                                               .                                             .  .                                 .               ..          .    ..                                              .                                                           .                                   .                                              ..      .        ",
"         .                .                .                .       ..                .         .         .         .         .         .         .         .         .         .         .         .         .         .                  .                                                                                                                ..               ..             .                                                                                                              . .                                 .               ..        .      ..                                               .                                                           .                                 .                                               ..    .          ",
"       .                .                .                .         ..                .......................................................................................................................................................                                                                                                               ..              ...             .                                                                                                              ..                                  .               ..      .        ..                                                .                                                          .                                .                                                ..  .            ",
"     .                .                .                .           ..                .         .         .         .         .         .         .         .         .         .         .         .         .         .                  .                                                                                                                ..            .  ..             .                                                                                                               .                                  .               ..    .          ..                                                ..                                                          .                              ..                                                ...              ",
"   .                .                .                .             ..                .         .         .         .         .         .         .         .         .         .         .         .         .         .                  .                                                                                                                ..          .    ..             .                                                                                                                                                  .               ..  .            ..                                                 .                                                          .                              .                                                 ..               ",
" .                .                .                .               ..                .         .         .         .         .         .         .         .         .         .         .         .         .         .                  .                                                                                                                ..        .      ..             .                                                                                                                                                  .               ...              ..                                                  .                                                         .                             .                                                  ..             . ",
"                .                .                .                ...                .         .         .         .         .         .         .         .         .         .         .         .         .         .                  .                                                                                                                ..      .        ..             .                                                                                                                                                  .               ..               ..                                                   .               ......                                    .     ......                .                                                   ..           .   ",
"              .                .                .                .  ..                .         .         .         .         .         .         .         .         .         .         .         .         .         .                  .                                                                                                                ..    .          ..             .                                                                                                                                                  .               ..             . ..                                                    .              ......                                    .     ......               .                                                    ..         .     ",
"            .                .                .                .    ..                .         .         .         .         .         .         .         .         .         .         .         .         .         .                  .                                                                                                                ..  .            ..             .                                                                                                                                                  .               ..           .   ..                                                     .             ......                                    .     ......              .                                                     ..       .       ",
"          .                .                .                .      ..                .         .         .         .         .         .         .         .         .         .         .         .         .         .                  .                                                                                                                ...              ..             .                                                                                                                                                  .               ..         .     ..                                                      .            ......                                     .    ......             .                                                      ..     .         ",
"        .                .                .                .        ..                .         .         .         .         .         .         .         .         .         .         .         .         .         .                  .                                                                                                                ..               ..             .                                                                                                                                                  .               ..       .       ..                                                       .           ......                                     .    ......            .                                                       ..   .           ",
"      .                .                .                .          ..                .         .         .         .         .         .         .         .         .         .         .         .         .         .                  .                                                                                                                ..             . ..             .                                                                                                                                                  .               ..     .         ..                                                        .          ......                                      .   ......           .                                                        .. .             ",
"    .                .                .                .            ..                .......................................................................................................................................................                                                                                                               ..           .   ..             .                                                                                                                                                  .               ..   .           ..                                                         ..                                ......              .                  ..                                                         ..               ",
"  .                .                .                .              ..                .         .         .         .         .         .         .         .         .         .         .         .         .         .                  .                                                                                                                ..         .     ..             .                                                                                                                                                  .               .. .             ..                                                          ..                               ......              .                 ..                                                          ..              .",
".                .                .                .                ..                .         .         .         .         .         .         .         .         .         .         .         .         .         .                  .                                                                                                                ..       .       ..             .                                                                                                                                                  .               ..               ..                                                            .                              ......               .               .                                                            ..            .  ",
"               .                .                .                . ..                .         .         .         .         .         .         .         .         .         .         .         .         .         .                  .                                                                                                                ..     .         ..             .                                                                                                                                                  .               ..              ...                                                             ..                            ......               .             ..                                                             ..          .    ",
"             .                .                .                .   ..                .         .         .         .         .         .         .         .         .         .         .         .         .         .                  .                                                                                                                ..   .           ..             .                                                                                                                                                  .               ..            .  ..                                                               .                           ......               .            .                                                               ..        .      ",
"           .                .                .                .     ..                .         .         .         .         .         .         .         .         .         .         .         .         .         .                  .                                                                                                                .. .             ..             .                                                                                                                                                  .               ..          .    ..                                                                ..                         ......                .         ..                                                                ..      .        ",
"         .                .                .                .       ..                .         .         .         .         .         .         .         .         .         .         .         .         .         .                  .                                                                                                                ..               ..             .                                                                                                                                                  .               ..        .      ..                                                                  ..                                             .       ..                                                                  ..    .          ",
"       .                .                .                .         ..                .         .         .         .         .         .         .         .         .         .         .         .         .         .                  .                                                                                                                ..              ...             .                                                                                                                                                  .               ..      .        ..                                                                    ..                                            .    ..                                                                    ..  .            ",
"     .                .                .                .           ..                .         .         .         .         .         .         .         .         .         .         .         .         .         .                  .                                                                                                                ..            .  ..             .                                                                                                                                                  .               ..    .          ..                                                                      ..                                          .  ..                                                                      ...              ",
"   .                .                .                .             ..                .         .         .         .         .         .         .         .         .         .         .         .         .         .                  .                                                                                                                ..          .    ..             .                                                                                                                                                  .               ..  .            ..                                                                        ...                                       ...                                                                        ..               ",
" .                .                .                .               ..                .......................................................................................................................................................                                                                                                               ..        .      ..             .                                                                                                                                                  .               ...              ..                                                                           ...                                 ...                                                                           ..             . ",
"                .                .                .                ...                .         .         .         .         .         .         .         .         .         .         .         .         .         .                  .                                                                                                                ..      .        ..             .                                                                                                                                                  .               ..               ..                                                                              ...                           ...                                                                              ..           .   ",
"              .                .                .                .  ..                .         .         .         .         .         .         .         .         .         .         .         .         .         .                  .                                                                                                                ..    .          ..             .                                                                                                                                                  .               ..             . ..                                                                                 ......               ......                                                                                 ..         .     ",
"            .                .                .                .    ..                .         .         .         .         .         .         .         .         .         .         .         .         .         .                  .                                                                                                                ..  .            ..             .                                                                                                                                                  .               ..           .   ..                                                                                       ...............                                                                                       ..       .       ",
"          .                .                .                .      ..                .         .         .         .         .         .         .         .         .         .         .         .         .         .                  .                                                                                                                ...              ..             .                                                                                                                                                  .               ..         .     ..                                                                                                                                                                                             ..     .         ",
"        .                .                .                .        ..                ......................................................................................................................................................                                                                                                                ..               ..             .                                                                                                                                                  .               ..       .       ..                                                                                                                                                                                             ..   .           ",
"      .                .                .                .          ..                          .         .         .         .         .         .         .         .         .         .         .         .         .                                                                                                                                   ..             . ..             .                                                                                                                                                  .               ..     .         ..                                                                                                                                                                                             .. .             ",
"    .                .                .                .            ..                                                                                                                                                                                                                                                                                      ..           .   ..             .                                                                                                                                                  .               ..   .           ..                                                                                                                                                                                             ..               ",
"  .                .                .                .              ..                                                                                                                                                                                                                                                                                      ..         .     ..             .                                                                                                                                                  .               .. .             ..                                                                                                                                                                                             ..              .",
".                .                .                .                ..                                                                                                                                                                                                                                                                                      ..       .       ..             .                                                                                                                                                  .               ..               ..                                                                                                                                                                                             ..            .  ",
"               .                .                .                . ..                                                                                                                                                                                                                                                                                      ..     .         ..             .                                                                                                                                                  .               ..              ...                                                                                                                                                                                             ..          .    ",
"             .                .                .                .   ..                                                                                                                                                                                                                                                                                      ..   .           ..             .                                                                                                                                                  .               ..            .  ..                                                                                                                                                                                             ..        .      ",
"           .                .                .                .     ..                                                                                                                                                                                                                                                                                      .. .             ..             .                                                                                                                                                  .               ..          .    ..                                                                                                                                                                                             ..      .        ",
"         .                .                .                .       ..                                                                                                                                                                                                                                                                                      ..               ..             .                                                                                                                                                  .               ..        .      ..                                    .    ...         ...     .        ....    .          ...  .   .                                                                                          ..    .          ",
"       .                .                .                .         ..                                                                                                                                                                                                                                                                                      ..              ...             .                                                                                                                                                  .               ..      .        ..                                   ..   .   .   ..  .   .   ..    ..      .  ..         .   . .. ..                                                                                          ..  .            ",
"     .                .                .                .           ..                                                                                                                                                                                                                                                                                      ..            .  ..             .                                                                                                                                                  .               ..    .          ..                                    .   .  ..   ..      .  . .    ..      .   .         .   . . . .                                                                                          ...              ",
"   .                .                .                .             ..                                                                                                                                                                                                                                                                                      ..          .    ..             .                                                                                                                                                  .               ..  .            ..                                    .   . . .          .  .  .         ...    .         ..... . . .                                                                                          ..               ",
" .                .                .                .               ..                                                                                                                                                                                                                                                                                      ..        .      ..             ....................................................................................................................................................               ...              ..                                    .   ..  .   ..    .   .....   ..      .   .         .   . .   .                                                                                          ..             . ",
"                .                .                .                ...                                                                                                                                                                                                                                                                                      ..      .        ..                                                                                                                                                                                ..               ..                                    .   .   .   ..   .       .    ..      .   .         .   . .   .                                                                                          ..           .   ",
"              .                .                .                .  ..                                                                                                                                                                                                                                                                                      ..    .          ..                                                                                                                                                                                ..             . ..                                   ...   ...        .....    .        ....   ...        .   . .   .                                                                                          ..         .     ",
"            .                .                .                .    ..                                                                                                                                                                                                                                                                                      ..  .            ..                                                                                                                                                                                ..           .   ..                                                                                                                                                                                             ..       .       ",
"          .                .                .                .      ..                                                                                                                                                                                                                                                                                      ...              ..                                                                                                                                                                                ..         .     ..                                                                                                                                                                                             ..     .         ",
"        .                .                .                .        ..                                                                                                                                                                                                                                                                                      ..               ..                                                                                                                                                                                ..       .       ..                                                                                                                                                                                             ..   .           ",
"      .                .                .                .          ..                                                                                                                                                                                                                                                                                      ..             . ..                                                                                                                                                                                ..     .         ..                                                                                                                                                                                             .. .             ",
"    .                .                .                .            ..                                                                                                                                                                                                                                                                                      ..           .   ..                                                                                                                                                                                ..   .           ..                                                                                                                                                                                             ..               ",
"  .                .                .                .              ..                                                                                                                                                                                                                                                                                      ..         .     ..                                                                                                                                                                                .. .             ..                                                                                                                                                                                             ..              .",
".                .                .                .                ..                                                                                                                                                                                                                                                                                      ..       .       ..                                                                                                                                                                                ..               ..                                                                                                                                                                                             ..            .  ",
"               .                .                .                . ..                                                                                                                                                                                                                                                                                      ..     .         ..                                                                                                                                                                                ..              ...                                                                                                                                                                                             ..          .    ",
"             .                .                .                .   ..                                                                                                                                                                                                                                                                                      ..   .           ..                                                                                                                                                                                ..            .  ..                                                                                                                                                                                             ..        .      ",
"           .                .                .                .     ..                                                                                                                                                                                                                                                                                      .. .             ..                                                                                                                                                                                ..          .    ..                                                                                                                                                                                             ..      .        ",
"         .                .                .                .       ..                                                                                                                                                                                                                                                                                      ..               ..                                                                                                                                                                                ..        .      ..                                                                                                                                                                                             ..    .          ",
"       .                .                .                .         ..                                                                                                                                                                                                                                                                                      ..              ...                                                                                                                                                                                ..      .        ..                                                                                                                                                                                             ..  .            ",
"     .                .                .                .           ..                                                                                                                                                                                                                                                                                      ..            .  ..                                                                                                                                                                                ..    .          ..                                                                                                                                                                                             ...              ",
"   .                .                .                .             ..                                                                                                                                                                                                                                                                                      ..          .    ..                                                                                                                                                                                ..  .            ..                                                                                                                                                                                             ..               ",
" .                .                .                .               ..                                                                                                                                                                                                                                                                                      ..        .      ..                                                                                                                                                                                ...              ..                                                                                                                                                                                             ..             . ",
"                .                .                .                ...                                                                                                                                                                                                                                                                                      ..      .        ..                                                                                                                                                                                ..               ..                                                                                                                                                                                             ..           .   ",
"              .                .                .                .  ..                                                                                                                                                                                                                                                                                      ..    .          ..                                                                                                                                                                                ..             . ..                                                                                                                                                                                             ..         .     ",
"            .                .                .                .    ..                                                                                                                                                                                                                                                                                      ..  .            ..                                                                                                                                                                                ..           .   ..                                                                                                                                                                                             ..       .       ",
"          .                .                .                .      ..                                                                                                                                                                                                                                                                                      ...              ..                                                                                                                                                                                ..         .     ..                                                                                                                                                                                             ..     .         ",
"        .                .                .                .        ..........................................................................................................................................................................................................................................................................................               ....................................................................................................................................................................................       .       .................................................................................................................................................................................................   .           ",
"      .                .                .                .          ..........................................................................................................................................................................................................................................................................................             . ....................................................................................................................................................................................     .         ................................................................................................................................................................................................. .             ",
"    .                .                .                .                .                .                .                .                .                .                .                .                .                .                .                .                .                .                .                .                .                .                .                .                .                .                .                .                .                .                .                .                .                .                .                .                .                .                .                .                .                .                .                .                .               ",
"  .                .                .                .                .                .                .                .                .                .                .                .                .                .                .                .                .                .                .                .                .                .                .                .                .                .                .                .                .                .                .                .                .                .                .                .                .                .                .                .                .                .                .                .                .                .",
".                .                .                .                .                .                .                .                .                .                .                .                .                .                .                .                .                .                .                .                .                .                .                .                .                .                .                .                .                .                .                .                .                .                .                .                .                .                .                .                .                .                .                .                .                .  ",
"               .                .                .                .                .                .                .                .                .                .                .                .                .                .                .                .                .                .                .                .                .                .                .                .                .                .                .                .                .                .                .                .                .                .                .                .                .                .                .                .                .                .                .                .                .    ",
"             .                .                .                .                .                .                .                .                .                .                .                .                .                .                .                .                .                .                .                .                .                .                .                .                .                .                .                .                .                .                .                .                .                .                .                .                .                .                .                .                .                .                .                .                .      ",
"           .                .                .                .                .                .                .                .                .                .                .                .                .                .                .                .                .                .                .                .                .                .                .                .                .                .                .                .                .                .                .                .                .                .                .                .                .                .                .                .                .                .                .                .                .        ",
"         .                .                .                .                .                .                .                .                .                .                .                .                .                .                .                .                .                .                .                .                .                .                .                .                .                .                .                .                .                .                .                .                .                .                .                .                .                .                .                .                .                .                .                .                .          ",
"       .                .                .                .                .                .                .                .                .                .                .                .                .                .                .                .                .                .                .                .                .                .                .                .                .                .                .                .                .                .                .                .                .                .                .                .                .                .                .                .                .                .                .                .                .            ",
"     .                .                .                .                .                .                .                .                .                .                .                .                .                .                .                .                .                .                .                .                .                .                .                .                .                .                .                .                .                .                .                .                .                .                .                .                .                .                .                .                .                .                .                .                .              ",
"   .                .                .                .                .                .                .                .                .                .                .                .                .                .                .                .                .                .                .                .                .                .                .                .                .                .                .                .                .                .                .                .                .                .                .                .                .                .                .                .                .                .                .                .                .                ",
" .                .                .                .                .                .                .                .                .                .                .                .                .                .                .                .                .                .                .                .                .                .                .                .                .                .                .                .                .                .                .                .                .                .                .                .                .                .                .                .                .                .                .                .                .                . ",
"                .                .                .                .                .                .                .                .                .                .                .                .                .                .                .                .                .                .                .                .                .                .                .                .                .                .                .                .                .                .                .                .                .                .                .                .                .                .                .                .                .                .                .                .                .   ",
"              .                .                .                .                .                .                .                .                .                .                .                .                .                .                .                .                .                .                .                .                .                .                .                .                .                .                .                .                .                .                .                .                .                .                .                .                .                .                .                .                .                .                .                .                .     ",
"            .                .                .                .                .                .                .                .                .                .                .                .                .                .                .                .                .                .                .                .                .                .                .                .                .                .                .                .                .                .                .                .                .                .                .                .                .                .                .                .                .                .                .                .                .       "
};
